<?xml version="1.0" encoding="UTF-8"?>
<map version="1.11" tiledversion="1.11.0" orientation="orthogonal" renderorder="right-down" width="10" height="10" tilewidth="128" tileheight="128" infinite="1" nextlayerid="11" nextobjectid="2157">
 <objectgroup id="1" name="floors"/>
 <objectgroup id="2" name="walls"/>
 <objectgroup id="3" name="towers"/>
 <objectgroup id="4" name="platforms"/>
 <objectgroup id="5" name="guard_archers"/>
 <objectgroup id="6" name="guards"/>
 <objectgroup id="8" name="traps"/>
 <objectgroup id="9" name="firewatchers"/>
 <objectgroup id="10" name="main">
  <object id="2156" name="main" type="goldencrate" x="0" y="0" width="128" height="128"/>
 </objectgroup>
</map>
