<?xml version="1.0" encoding="UTF-8"?>
<map version="1.9" tiledversion="1.9.2" orientation="orthogonal" renderorder="right-down" width="10" height="10" tilewidth="128" tileheight="128" infinite="1" nextlayerid="11" nextobjectid="3530">
 <objectgroup id="1" name="floors">
  <object id="3497" name="main" class="santa" x="0" y="0" width="128" height="128">
   <ellipse/>
  </object>
 </objectgroup>
 <objectgroup id="2" name="walls"/>
 <objectgroup id="3" name="towers"/>
 <objectgroup id="4" name="platforms"/>
 <objectgroup id="5" name="guard_archers"/>
 <objectgroup id="6" name="guards"/>
 <objectgroup id="8" name="traps"/>
 <objectgroup id="9" name="firewatchers"/>
 <objectgroup id="10" name="main">
  <object id="3498" name="giftbox" class="giftbox" x="0" y="-384" width="128" height="128"/>
  <object id="3499" name="giftbox" class="giftbox" x="-640" y="-256" width="128" height="128"/>
  <object id="3500" name="giftbox" class="giftbox" x="-256" y="256" width="128" height="128"/>
  <object id="3501" name="giftbox" class="giftbox" x="384" y="384" width="128" height="128"/>
  <object id="3502" name="giftbox" class="giftbox" x="512" y="-256" width="128" height="128"/>
  <object id="3503" name="giftbox" class="giftbox" x="-768" y="640" width="128" height="128"/>
  <object id="3504" name="giftbox" class="giftbox" x="256" y="-768" width="128" height="128"/>
  <object id="3505" name="holidaytreebuilding" class="holidaytreebuilding" x="256" y="-128" width="256" height="256">
   <ellipse/>
  </object>
  <object id="3506" name="holidaytreebuilding" class="holidaytreebuilding" x="-384" y="-640" width="256" height="256">
   <ellipse/>
  </object>
  <object id="3507" name="holidaytreebuilding" class="holidaytreebuilding" x="0" y="512" width="256" height="256">
   <ellipse/>
  </object>
  <object id="3508" name="holidaytreebuilding" class="holidaytreebuilding" x="-1024" y="256" width="256" height="256">
   <ellipse/>
  </object>
  <object id="3509" name="holidaytreebuilding" class="holidaytreebuilding" x="768" y="-512" width="256" height="256">
   <ellipse/>
  </object>
  <object id="3510" name="holidaytreebuilding" class="holidaytreebuilding" x="1152" y="384" width="256" height="256">
   <ellipse/>
  </object>
  <object id="3511" name="holidaytreebuilding" class="holidaytreebuilding" x="-512" y="-1024" width="256" height="256">
   <ellipse/>
  </object>
  <object id="3512" name="christmasdeer" class="christmasdeer" x="640" y="128" width="128" height="128">
   <ellipse/>
  </object>
  <object id="3513" name="christmasdeer" class="christmasdeer" x="128" y="256" width="128" height="128">
   <ellipse/>
  </object>
  <object id="3514" name="christmasdeer" class="christmasdeer" x="-384" y="-128" width="128" height="128">
   <ellipse/>
  </object>
  <object id="3515" name="christmasdeer" class="christmasdeer" x="256" y="-512" width="128" height="128">
   <ellipse/>
  </object>
  <object id="3516" name="christmasdeer" class="christmasdeer" x="0" y="-768" width="128" height="128">
   <ellipse/>
  </object>
  <object id="3517" name="christmasdeer" class="christmasdeer" x="-640" y="384" width="128" height="128">
   <ellipse/>
  </object>
  <object id="3518" name="christmasdeer" class="christmasdeer" x="512" y="640" width="128" height="128">
   <ellipse/>
  </object>
  <object id="3519" name="christmasgnome3" class="christmasgnome3" x="0" y="-128" width="128" height="128">
   <ellipse/>
  </object>
  <object id="3520" name="christmasgnome3" class="christmasgnome3" x="-128" y="-128" width="128" height="128">
   <ellipse/>
  </object>
  <object id="3521" name="christmasgnome3" class="christmasgnome3" x="128" y="0" width="128" height="128">
   <ellipse/>
  </object>
  <object id="3522" name="christmasgnome3" class="christmasgnome3" x="640" y="384" width="128" height="128">
   <ellipse/>
  </object>
  <object id="3523" name="christmasgnome3" class="christmasgnome3" x="-384" y="640" width="128" height="128">
   <ellipse/>
  </object>
  <object id="3524" name="christmasgnome3" class="christmasgnome3" x="-768" y="-128" width="128" height="128">
   <ellipse/>
  </object>
  <object id="3525" name="christmasgnome3" class="christmasgnome3" x="640" y="-640" width="128" height="128">
   <ellipse/>
  </object>
  <object id="3526" name="christmasgnome3" class="christmasgnome3" x="128" y="-1024" width="128" height="128">
   <ellipse/>
  </object>
  <object id="3527" name="christmasgnome3" class="christmasgnome3" x="896" y="0" width="128" height="128">
   <ellipse/>
  </object>
  <object id="3528" name="christmasgnome3" class="christmasgnome3" x="-384" y="-384" width="128" height="128">
   <ellipse/>
  </object>
  <object id="3529" name="christmasgnome3" class="christmasgnome3" x="-512" y="-640" width="128" height="128">
   <ellipse/>
  </object>
 </objectgroup>
</map>
