<?xml version="1.0" encoding="UTF-8"?>
<map version="1.9" tiledversion="1.9.2" orientation="orthogonal" renderorder="right-down" width="10" height="10" tilewidth="128" tileheight="128" infinite="1" nextlayerid="14" nextobjectid="3369">
 <objectgroup id="12" name="floor">
  <object id="2988" name="decorativefloorhalloween2" class="decorativefloorhalloween2" x="128" y="0" width="128" height="128"/>
  <object id="2989" name="decorativefloorhalloween1" class="decorativefloorhalloween1" x="128" y="-128" width="128" height="128"/>
  <object id="2990" name="decorativefloorhalloween1" class="decorativefloorhalloween1" x="-128" y="128" width="128" height="128"/>
  <object id="2991" name="decorativefloorhalloween2" class="decorativefloorhalloween2" x="-128" y="0" width="128" height="128"/>
  <object id="2992" name="decorativefloorhalloween2" class="decorativefloorhalloween2" x="0" y="-128" width="128" height="128"/>
  <object id="2993" name="decorativefloorhalloween2" class="decorativefloorhalloween2" x="0" y="0" width="128" height="128"/>
  <object id="2994" name="decorativefloorhalloween2" class="decorativefloorhalloween2" x="0" y="128" width="128" height="128"/>
  <object id="2995" name="decorativefloorhalloween2" class="decorativefloorhalloween2" x="128" y="128" width="128" height="128"/>
  <object id="2996" name="decorativefloorhalloween2" class="decorativefloorhalloween2" x="-128" y="-128" width="128" height="128"/>
  <object id="2999" name="decorativefloorhalloween2" class="decorativefloorhalloween2" x="-256" y="-256" width="128" height="128"/>
  <object id="3000" name="decorativefloorhalloween2" class="decorativefloorhalloween2" x="256" y="256" width="128" height="128"/>
  <object id="3001" name="decorativefloorhalloween1" class="decorativefloorhalloween1" x="256" y="128" width="128" height="128"/>
  <object id="3002" name="decorativefloorhalloween1" class="decorativefloorhalloween1" x="256" y="0" width="128" height="128"/>
  <object id="3003" name="decorativefloorhalloween1" class="decorativefloorhalloween1" x="256" y="-128" width="128" height="128"/>
  <object id="3004" name="decorativefloorhalloween1" class="decorativefloorhalloween1" x="256" y="-256" width="128" height="128"/>
  <object id="3005" name="decorativefloorhalloween1" class="decorativefloorhalloween1" x="128" y="-256" width="128" height="128"/>
  <object id="3006" name="decorativefloorhalloween1" class="decorativefloorhalloween1" x="0" y="-256" width="128" height="128"/>
  <object id="3007" name="decorativefloorhalloween1" class="decorativefloorhalloween1" x="-128" y="-256" width="128" height="128"/>
  <object id="3008" name="decorativefloorhalloween1" class="decorativefloorhalloween1" x="-256" y="-128" width="128" height="128"/>
  <object id="3009" name="decorativefloorhalloween1" class="decorativefloorhalloween1" x="-256" y="0" width="128" height="128"/>
  <object id="3010" name="decorativefloorhalloween1" class="decorativefloorhalloween1" x="-256" y="128" width="128" height="128"/>
  <object id="3011" name="decorativefloorhalloween1" class="decorativefloorhalloween1" x="-256" y="256" width="128" height="128"/>
  <object id="3012" name="decorativefloorhalloween1" class="decorativefloorhalloween1" x="-128" y="256" width="128" height="128"/>
  <object id="3013" name="decorativefloorhalloween1" class="decorativefloorhalloween1" x="0" y="256" width="128" height="128"/>
  <object id="3014" name="decorativefloorhalloween1" class="decorativefloorhalloween1" x="128" y="256" width="128" height="128"/>
  <object id="3015" name="decorativefloorhalloween2" class="decorativefloorhalloween2" x="-128" y="-384" width="128" height="128"/>
  <object id="3016" name="decorativefloorhalloween2" class="decorativefloorhalloween2" x="-384" y="-128" width="128" height="128"/>
  <object id="3017" name="decorativefloorhalloween2" class="decorativefloorhalloween2" x="128" y="384" width="128" height="128"/>
  <object id="3018" name="decorativefloorhalloween2" class="decorativefloorhalloween2" x="384" y="128" width="128" height="128"/>
  <object id="3019" name="decorativefloorhalloween2" class="decorativefloorhalloween2" x="384" y="-384" width="128" height="128"/>
  <object id="3020" name="decorativefloorhalloween2" class="decorativefloorhalloween2" x="-384" y="384" width="128" height="128"/>
  <object id="3021" name="decorativefloorhalloween1" class="decorativefloorhalloween1" x="-384" y="-384" width="128" height="128"/>
  <object id="3022" name="decorativefloorhalloween1" class="decorativefloorhalloween1" x="384" y="384" width="128" height="128"/>
  <object id="3023" name="decorativefloorhalloween1" class="decorativefloorhalloween1" x="0" y="384" width="128" height="128"/>
  <object id="3024" name="decorativefloorhalloween1" class="decorativefloorhalloween1" x="-128" y="384" width="128" height="128"/>
  <object id="3025" name="decorativefloorhalloween1" class="decorativefloorhalloween1" x="-256" y="384" width="128" height="128"/>
  <object id="3026" name="decorativefloorhalloween1" class="decorativefloorhalloween1" x="-384" y="256" width="128" height="128"/>
  <object id="3027" name="decorativefloorhalloween1" class="decorativefloorhalloween1" x="-384" y="128" width="128" height="128"/>
  <object id="3028" name="decorativefloorhalloween1" class="decorativefloorhalloween1" x="-384" y="0" width="128" height="128"/>
  <object id="3029" name="decorativefloorhalloween1" class="decorativefloorhalloween1" x="-384" y="-256" width="128" height="128"/>
  <object id="3030" name="decorativefloorhalloween1" class="decorativefloorhalloween1" x="-256" y="-384" width="128" height="128"/>
  <object id="3031" name="decorativefloorhalloween1" class="decorativefloorhalloween1" x="0" y="-384" width="128" height="128"/>
  <object id="3032" name="decorativefloorhalloween1" class="decorativefloorhalloween1" x="256" y="-384" width="128" height="128"/>
  <object id="3033" name="decorativefloorhalloween1" class="decorativefloorhalloween1" x="128" y="-384" width="128" height="128"/>
  <object id="3034" name="decorativefloorhalloween1" class="decorativefloorhalloween1" x="384" y="-256" width="128" height="128"/>
  <object id="3035" name="decorativefloorhalloween1" class="decorativefloorhalloween1" x="384" y="-128" width="128" height="128"/>
  <object id="3036" name="decorativefloorhalloween1" class="decorativefloorhalloween1" x="384" y="0" width="128" height="128"/>
  <object id="3037" name="decorativefloorhalloween1" class="decorativefloorhalloween1" x="384" y="256" width="128" height="128"/>
  <object id="3038" name="decorativefloorhalloween1" class="decorativefloorhalloween1" x="256" y="384" width="128" height="128"/>
  <object id="3039" name="pumpkinlamp" class="pumpkinlamp" x="-128" y="128" width="128" height="128">
   <ellipse/>
  </object>
  <object id="3040" name="pumpkinlamp" class="pumpkinlamp" x="-128" y="-128" width="128" height="128">
   <ellipse/>
  </object>
  <object id="3041" name="pumpkinlamp" class="pumpkinlamp" x="128" y="0" width="128" height="128">
   <ellipse/>
  </object>
  <object id="3042" name="pumpkinlamp" class="pumpkinlamp" x="0" y="128" width="128" height="128">
   <ellipse/>
  </object>
  <object id="3043" name="pumpkinlamp" class="pumpkinlamp" x="0" y="-128" width="128" height="128">
   <ellipse/>
  </object>
  <object id="3044" name="foreignheartstone" class="foreignheartstone" x="128" y="128" width="128" height="128"/>
  <object id="3045" name="foreignheartstone" class="foreignheartstone" x="-128" y="0" width="128" height="128"/>
  <object id="3046" name="foreignheartstone" class="foreignheartstone" x="128" y="-128" width="128" height="128"/>
  <object id="3047" name="zombie" class="zombie" x="256" y="0" width="128" height="128">
   <ellipse/>
  </object>
  <object id="3048" name="zombie" class="zombie" x="128" y="-256" width="128" height="128">
   <ellipse/>
  </object>
  <object id="3049" name="zombie" class="zombie" x="0" y="-256" width="128" height="128">
   <ellipse/>
  </object>
  <object id="3050" name="zombie" class="zombie" x="-256" y="0" width="128" height="128">
   <ellipse/>
  </object>
  <object id="3051" name="zombie" class="zombie" x="-128" y="256" width="128" height="128">
   <ellipse/>
  </object>
  <object id="3052" name="zombie" class="zombie" x="0" y="256" width="128" height="128">
   <ellipse/>
  </object>
  <object id="3053" name="zombie" class="zombie" x="256" y="256" width="128" height="128">
   <ellipse/>
  </object>
  <object id="3212" name="zombie" class="zombie" x="256" y="-896" width="128" height="128">
   <ellipse/>
  </object>
  <object id="3213" name="zombie" class="zombie" x="-256" y="-896" width="128" height="128">
   <ellipse/>
  </object>
  <object id="3214" name="zombie" class="zombie" x="-256" y="-1024" width="128" height="128">
   <ellipse/>
  </object>
  <object id="3215" name="zombie" class="zombie" x="256" y="-1024" width="128" height="128">
   <ellipse/>
  </object>
  <object id="3216" name="zombie" class="zombie" x="896" y="-256" width="128" height="128">
   <ellipse/>
  </object>
  <object id="3217" name="zombie" class="zombie" x="1024" y="-256" width="128" height="128">
   <ellipse/>
  </object>
  <object id="3218" name="zombie" class="zombie" x="1024" y="256" width="128" height="128">
   <ellipse/>
  </object>
  <object id="3219" name="zombie" class="zombie" x="896" y="256" width="128" height="128">
   <ellipse/>
  </object>
  <object id="3220" name="zombie" class="zombie" x="256" y="1024" width="128" height="128">
   <ellipse/>
  </object>
  <object id="3221" name="zombie" class="zombie" x="256" y="896" width="128" height="128">
   <ellipse/>
  </object>
  <object id="3222" name="zombie" class="zombie" x="-256" y="896" width="128" height="128">
   <ellipse/>
  </object>
  <object id="3223" name="zombie" class="zombie" x="-256" y="1024" width="128" height="128">
   <ellipse/>
  </object>
  <object id="3224" name="zombie" class="zombie" x="-896" y="256" width="128" height="128">
   <ellipse/>
  </object>
  <object id="3225" name="zombie" class="zombie" x="-1024" y="256" width="128" height="128">
   <ellipse/>
  </object>
  <object id="3226" name="zombie" class="zombie" x="-1024" y="-256" width="128" height="128">
   <ellipse/>
  </object>
  <object id="3227" name="zombie" class="zombie" x="-896" y="-256" width="128" height="128">
   <ellipse/>
  </object>
  <object id="3228" name="trap" class="trap" x="384" y="0" width="128" height="128">
   <ellipse/>
  </object>
  <object id="3229" name="trap" class="trap" x="384" y="-128" width="128" height="128">
   <ellipse/>
  </object>
  <object id="3230" name="trap" class="trap" x="-256" y="-128" width="128" height="128">
   <ellipse/>
  </object>
  <object id="3231" name="trap" class="trap" x="-256" y="128" width="128" height="128">
   <ellipse/>
  </object>
  <object id="3232" name="trap" class="trap" x="128" y="256" width="128" height="128">
   <ellipse/>
  </object>
  <object id="3233" name="trap" class="trap" x="0" y="-384" width="128" height="128">
   <ellipse/>
  </object>
  <object id="3234" name="trap" class="trap" x="128" y="-384" width="128" height="128">
   <ellipse/>
  </object>
  <object id="3235" name="trap" class="trap" x="0" y="-768" width="128" height="128">
   <ellipse/>
  </object>
  <object id="3236" name="trap" class="trap" x="-128" y="-896" width="128" height="128">
   <ellipse/>
  </object>
  <object id="3237" name="trap" class="trap" x="128" y="-896" width="128" height="128">
   <ellipse/>
  </object>
  <object id="3238" name="trap" class="trap" x="768" y="0" width="128" height="128">
   <ellipse/>
  </object>
  <object id="3239" name="trap" class="trap" x="896" y="-128" width="128" height="128">
   <ellipse/>
  </object>
  <object id="3240" name="trap" class="trap" x="896" y="128" width="128" height="128">
   <ellipse/>
  </object>
  <object id="3241" name="trap" class="trap" x="0" y="768" width="128" height="128">
   <ellipse/>
  </object>
  <object id="3242" name="trap" class="trap" x="128" y="896" width="128" height="128">
   <ellipse/>
  </object>
  <object id="3243" name="trap" class="trap" x="-128" y="896" width="128" height="128">
   <ellipse/>
  </object>
  <object id="3244" name="trap" class="trap" x="-896" y="128" width="128" height="128">
   <ellipse/>
  </object>
  <object id="3245" name="trap" class="trap" x="-768" y="0" width="128" height="128">
   <ellipse/>
  </object>
  <object id="3246" name="trap" class="trap" x="-896" y="-128" width="128" height="128">
   <ellipse/>
  </object>
  <object id="3247" name="minetoxic" class="minetoxic" x="896" y="0" width="128" height="128">
   <ellipse/>
  </object>
  <object id="3248" name="minetoxic" class="minetoxic" x="0" y="-896" width="128" height="128">
   <ellipse/>
  </object>
  <object id="3249" name="minetoxic" class="minetoxic" x="-896" y="0" width="128" height="128">
   <ellipse/>
  </object>
  <object id="3250" name="minetoxic" class="minetoxic" x="0" y="896" width="128" height="128">
   <ellipse/>
  </object>
  <object id="3251" name="minetoxic" class="minetoxic" x="1024" y="1024" width="128" height="128">
   <ellipse/>
  </object>
  <object id="3252" name="minetoxic" class="minetoxic" x="-1024" y="1024" width="128" height="128">
   <ellipse/>
  </object>
  <object id="3253" name="minetoxic" class="minetoxic" x="-1024" y="-1024" width="128" height="128">
   <ellipse/>
  </object>
  <object id="3254" name="minetoxic" class="minetoxic" x="1024" y="-1024" width="128" height="128">
   <ellipse/>
  </object>
  <object id="3255" name="minetoxic" class="minetoxic" x="-128" y="-256" width="128" height="128">
   <ellipse/>
  </object>
  <object id="3256" name="minetoxic" class="minetoxic" x="256" y="128" width="128" height="128">
   <ellipse/>
  </object>
  <object id="3257" name="minetoxic" class="minetoxic" x="256" y="-256" width="128" height="128">
   <ellipse/>
  </object>
  <object id="3258" name="minetoxic" class="minetoxic" x="-256" y="256" width="128" height="128">
   <ellipse/>
  </object>
  <object id="3259" name="guardarcher" class="guardarcher" x="640" y="128" width="128" height="128">
   <ellipse/>
  </object>
  <object id="3260" name="guardarcher" class="guardarcher" x="640" y="-128" width="128" height="128">
   <ellipse/>
  </object>
  <object id="3261" name="guardarcher" class="guardarcher" x="128" y="640" width="128" height="128">
   <ellipse/>
  </object>
  <object id="3262" name="guardarcher" class="guardarcher" x="-128" y="640" width="128" height="128">
   <ellipse/>
  </object>
  <object id="3265" name="guardarcher" class="guardarcher" x="-640" y="-128" width="128" height="128">
   <ellipse/>
  </object>
  <object id="3266" name="guardarcher" class="guardarcher" x="-640" y="128" width="128" height="128">
   <ellipse/>
  </object>
  <object id="3267" name="guardarcher" class="guardarcher" x="-128" y="-640" width="128" height="128">
   <ellipse/>
  </object>
  <object id="3268" name="guardarcher" class="guardarcher" x="128" y="-640" width="128" height="128">
   <ellipse/>
  </object>
  <object id="3269" name="decorativefloorhalloween2" class="decorativefloorhalloween2" x="640" y="-512" width="128" height="128"/>
  <object id="3270" name="decorativefloorhalloween2" class="decorativefloorhalloween2" x="640" y="-384" width="128" height="128"/>
  <object id="3271" name="decorativefloorhalloween2" class="decorativefloorhalloween2" x="768" y="-384" width="128" height="128"/>
  <object id="3272" name="decorativefloorhalloween2" class="decorativefloorhalloween2" x="768" y="-512" width="128" height="128"/>
  <object id="3273" name="decorativefloorhalloween2" class="decorativefloorhalloween2" x="768" y="-768" width="128" height="128"/>
  <object id="3274" name="decorativefloorhalloween2" class="decorativefloorhalloween2" x="768" y="-640" width="128" height="128"/>
  <object id="3275" name="decorativefloorhalloween2" class="decorativefloorhalloween2" x="640" y="-640" width="128" height="128"/>
  <object id="3276" name="decorativefloorhalloween2" class="decorativefloorhalloween2" x="640" y="-768" width="128" height="128"/>
  <object id="3277" name="decorativefloorhalloween2" class="decorativefloorhalloween2" x="512" y="-768" width="128" height="128"/>
  <object id="3278" name="decorativefloorhalloween2" class="decorativefloorhalloween2" x="384" y="-768" width="128" height="128"/>
  <object id="3279" name="decorativefloorhalloween2" class="decorativefloorhalloween2" x="384" y="-640" width="128" height="128"/>
  <object id="3280" name="decorativefloorhalloween2" class="decorativefloorhalloween2" x="512" y="-640" width="128" height="128"/>
  <object id="3281" name="decorativefloorhalloween2" class="decorativefloorhalloween2" x="-512" y="-768" width="128" height="128"/>
  <object id="3282" name="decorativefloorhalloween2" class="decorativefloorhalloween2" x="-512" y="-640" width="128" height="128"/>
  <object id="3283" name="decorativefloorhalloween2" class="decorativefloorhalloween2" x="-384" y="-640" width="128" height="128"/>
  <object id="3284" name="decorativefloorhalloween2" class="decorativefloorhalloween2" x="-384" y="-768" width="128" height="128"/>
  <object id="3285" name="decorativefloorhalloween2" class="decorativefloorhalloween2" x="-768" y="-768" width="128" height="128"/>
  <object id="3286" name="decorativefloorhalloween2" class="decorativefloorhalloween2" x="-768" y="-640" width="128" height="128"/>
  <object id="3287" name="decorativefloorhalloween2" class="decorativefloorhalloween2" x="-640" y="-640" width="128" height="128"/>
  <object id="3288" name="decorativefloorhalloween2" class="decorativefloorhalloween2" x="-640" y="-768" width="128" height="128"/>
  <object id="3289" name="decorativefloorhalloween2" class="decorativefloorhalloween2" x="-768" y="-512" width="128" height="128"/>
  <object id="3290" name="decorativefloorhalloween2" class="decorativefloorhalloween2" x="-768" y="-384" width="128" height="128"/>
  <object id="3291" name="decorativefloorhalloween2" class="decorativefloorhalloween2" x="-640" y="-384" width="128" height="128"/>
  <object id="3292" name="decorativefloorhalloween2" class="decorativefloorhalloween2" x="-640" y="-512" width="128" height="128"/>
  <object id="3293" name="decorativefloorhalloween2" class="decorativefloorhalloween2" x="-768" y="384" width="128" height="128"/>
  <object id="3294" name="decorativefloorhalloween2" class="decorativefloorhalloween2" x="-768" y="512" width="128" height="128"/>
  <object id="3295" name="decorativefloorhalloween2" class="decorativefloorhalloween2" x="-640" y="512" width="128" height="128"/>
  <object id="3296" name="decorativefloorhalloween2" class="decorativefloorhalloween2" x="-640" y="384" width="128" height="128"/>
  <object id="3297" name="decorativefloorhalloween2" class="decorativefloorhalloween2" x="-768" y="640" width="128" height="128"/>
  <object id="3298" name="decorativefloorhalloween2" class="decorativefloorhalloween2" x="-768" y="768" width="128" height="128"/>
  <object id="3299" name="decorativefloorhalloween2" class="decorativefloorhalloween2" x="-640" y="768" width="128" height="128"/>
  <object id="3300" name="decorativefloorhalloween2" class="decorativefloorhalloween2" x="-640" y="640" width="128" height="128"/>
  <object id="3301" name="decorativefloorhalloween2" class="decorativefloorhalloween2" x="-512" y="640" width="128" height="128"/>
  <object id="3302" name="decorativefloorhalloween2" class="decorativefloorhalloween2" x="-512" y="768" width="128" height="128"/>
  <object id="3303" name="decorativefloorhalloween2" class="decorativefloorhalloween2" x="-384" y="768" width="128" height="128"/>
  <object id="3304" name="decorativefloorhalloween2" class="decorativefloorhalloween2" x="-384" y="640" width="128" height="128"/>
  <object id="3305" name="decorativefloorhalloween2" class="decorativefloorhalloween2" x="384" y="640" width="128" height="128"/>
  <object id="3306" name="decorativefloorhalloween2" class="decorativefloorhalloween2" x="384" y="768" width="128" height="128"/>
  <object id="3307" name="decorativefloorhalloween2" class="decorativefloorhalloween2" x="512" y="768" width="128" height="128"/>
  <object id="3308" name="decorativefloorhalloween2" class="decorativefloorhalloween2" x="512" y="640" width="128" height="128"/>
  <object id="3309" name="decorativefloorhalloween2" class="decorativefloorhalloween2" x="640" y="640" width="128" height="128"/>
  <object id="3310" name="decorativefloorhalloween2" class="decorativefloorhalloween2" x="640" y="768" width="128" height="128"/>
  <object id="3311" name="decorativefloorhalloween2" class="decorativefloorhalloween2" x="768" y="768" width="128" height="128"/>
  <object id="3312" name="decorativefloorhalloween2" class="decorativefloorhalloween2" x="768" y="640" width="128" height="128"/>
  <object id="3313" name="decorativefloorhalloween2" class="decorativefloorhalloween2" x="640" y="384" width="128" height="128"/>
  <object id="3314" name="decorativefloorhalloween2" class="decorativefloorhalloween2" x="640" y="512" width="128" height="128"/>
  <object id="3315" name="decorativefloorhalloween2" class="decorativefloorhalloween2" x="768" y="512" width="128" height="128"/>
  <object id="3316" name="decorativefloorhalloween2" class="decorativefloorhalloween2" x="768" y="384" width="128" height="128"/>
  <object id="3333" name="decorativefloorhalloween2" class="decorativefloorhalloween2" x="640" y="-256" width="128" height="128"/>
  <object id="3334" name="decorativefloorhalloween2" class="decorativefloorhalloween2" x="640" y="-128" width="128" height="128"/>
  <object id="3335" name="decorativefloorhalloween2" class="decorativefloorhalloween2" x="768" y="-128" width="128" height="128"/>
  <object id="3336" name="decorativefloorhalloween2" class="decorativefloorhalloween2" x="768" y="-256" width="128" height="128"/>
  <object id="3337" name="decorativefloorhalloween2" class="decorativefloorhalloween2" x="640" y="128" width="128" height="128"/>
  <object id="3338" name="decorativefloorhalloween2" class="decorativefloorhalloween2" x="640" y="256" width="128" height="128"/>
  <object id="3339" name="decorativefloorhalloween2" class="decorativefloorhalloween2" x="768" y="256" width="128" height="128"/>
  <object id="3340" name="decorativefloorhalloween2" class="decorativefloorhalloween2" x="768" y="128" width="128" height="128"/>
  <object id="3341" name="decorativefloorhalloween2" class="decorativefloorhalloween2" x="128" y="640" width="128" height="128"/>
  <object id="3342" name="decorativefloorhalloween2" class="decorativefloorhalloween2" x="128" y="768" width="128" height="128"/>
  <object id="3343" name="decorativefloorhalloween2" class="decorativefloorhalloween2" x="256" y="768" width="128" height="128"/>
  <object id="3344" name="decorativefloorhalloween2" class="decorativefloorhalloween2" x="256" y="640" width="128" height="128"/>
  <object id="3345" name="decorativefloorhalloween2" class="decorativefloorhalloween2" x="-256" y="640" width="128" height="128"/>
  <object id="3346" name="decorativefloorhalloween2" class="decorativefloorhalloween2" x="-256" y="768" width="128" height="128"/>
  <object id="3347" name="decorativefloorhalloween2" class="decorativefloorhalloween2" x="-128" y="768" width="128" height="128"/>
  <object id="3348" name="decorativefloorhalloween2" class="decorativefloorhalloween2" x="-128" y="640" width="128" height="128"/>
  <object id="3349" name="decorativefloorhalloween2" class="decorativefloorhalloween2" x="-768" y="128" width="128" height="128"/>
  <object id="3350" name="decorativefloorhalloween2" class="decorativefloorhalloween2" x="-768" y="256" width="128" height="128"/>
  <object id="3351" name="decorativefloorhalloween2" class="decorativefloorhalloween2" x="-640" y="256" width="128" height="128"/>
  <object id="3352" name="decorativefloorhalloween2" class="decorativefloorhalloween2" x="-640" y="128" width="128" height="128"/>
  <object id="3353" name="decorativefloorhalloween2" class="decorativefloorhalloween2" x="-768" y="-256" width="128" height="128"/>
  <object id="3354" name="decorativefloorhalloween2" class="decorativefloorhalloween2" x="-768" y="-128" width="128" height="128"/>
  <object id="3355" name="decorativefloorhalloween2" class="decorativefloorhalloween2" x="-640" y="-128" width="128" height="128"/>
  <object id="3356" name="decorativefloorhalloween2" class="decorativefloorhalloween2" x="-640" y="-256" width="128" height="128"/>
  <object id="3361" name="decorativefloorhalloween2" class="decorativefloorhalloween2" x="-256" y="-768" width="128" height="128"/>
  <object id="3362" name="decorativefloorhalloween2" class="decorativefloorhalloween2" x="-256" y="-640" width="128" height="128"/>
  <object id="3363" name="decorativefloorhalloween2" class="decorativefloorhalloween2" x="-128" y="-640" width="128" height="128"/>
  <object id="3364" name="decorativefloorhalloween2" class="decorativefloorhalloween2" x="-128" y="-768" width="128" height="128"/>
  <object id="3365" name="decorativefloorhalloween2" class="decorativefloorhalloween2" x="128" y="-768" width="128" height="128"/>
  <object id="3366" name="decorativefloorhalloween2" class="decorativefloorhalloween2" x="128" y="-640" width="128" height="128"/>
  <object id="3367" name="decorativefloorhalloween2" class="decorativefloorhalloween2" x="256" y="-640" width="128" height="128"/>
  <object id="3368" name="decorativefloorhalloween2" class="decorativefloorhalloween2" x="256" y="-768" width="128" height="128"/>
 </objectgroup>
 <objectgroup id="2" name="walls">
  <object id="3055" name="deadwall" class="deadwall" x="-128" y="-512" width="128" height="128"/>
  <object id="3056" name="deadwall" class="deadwall" x="0" y="-512" width="128" height="128"/>
  <object id="3057" name="deadwall" class="deadwall" x="128" y="-512" width="128" height="128"/>
  <object id="3058" name="deadwall" class="deadwall" x="256" y="-512" width="128" height="128"/>
  <object id="3059" name="deadwall" class="deadwall" x="384" y="-512" width="128" height="128"/>
  <object id="3060" name="deadwall" class="deadwall" x="512" y="-512" width="128" height="128"/>
  <object id="3061" name="deadwall" class="deadwall" x="512" y="-384" width="128" height="128"/>
  <object id="3062" name="deadwall" class="deadwall" x="512" y="-256" width="128" height="128"/>
  <object id="3063" name="deadwall" class="deadwall" x="512" y="-128" width="128" height="128"/>
  <object id="3064" name="deadwall" class="deadwall" x="512" y="0" width="128" height="128"/>
  <object id="3065" name="deadwall" class="deadwall" x="512" y="128" width="128" height="128"/>
  <object id="3066" name="deadwall" class="deadwall" x="512" y="256" width="128" height="128"/>
  <object id="3067" name="deadwall" class="deadwall" x="512" y="384" width="128" height="128"/>
  <object id="3068" name="deadwall" class="deadwall" x="512" y="512" width="128" height="128"/>
  <object id="3069" name="deadwall" class="deadwall" x="384" y="512" width="128" height="128"/>
  <object id="3070" name="deadwall" class="deadwall" x="256" y="512" width="128" height="128"/>
  <object id="3071" name="deadwall" class="deadwall" x="128" y="512" width="128" height="128"/>
  <object id="3072" name="deadwall" class="deadwall" x="0" y="512" width="128" height="128"/>
  <object id="3073" name="deadwall" class="deadwall" x="-128" y="512" width="128" height="128"/>
  <object id="3074" name="deadwall" class="deadwall" x="-256" y="512" width="128" height="128"/>
  <object id="3075" name="deadwall" class="deadwall" x="-384" y="512" width="128" height="128"/>
  <object id="3076" name="deadwall" class="deadwall" x="-512" y="512" width="128" height="128"/>
  <object id="3077" name="deadwall" class="deadwall" x="-512" y="384" width="128" height="128"/>
  <object id="3078" name="deadwall" class="deadwall" x="-512" y="128" width="128" height="128"/>
  <object id="3079" name="deadwall" class="deadwall" x="-512" y="0" width="128" height="128"/>
  <object id="3080" name="deadwall" class="deadwall" x="-512" y="256" width="128" height="128"/>
  <object id="3081" name="deadwall" class="deadwall" x="-512" y="-128" width="128" height="128"/>
  <object id="3082" name="deadwall" class="deadwall" x="-512" y="-256" width="128" height="128"/>
  <object id="3083" name="deadwall" class="deadwall" x="-512" y="-384" width="128" height="128"/>
  <object id="3084" name="deadwall" class="deadwall" x="-512" y="-512" width="128" height="128"/>
  <object id="3085" name="deadwall" class="deadwall" x="-384" y="-512" width="128" height="128"/>
  <object id="3086" name="deadwall" class="deadwall" x="-256" y="-512" width="128" height="128"/>
  <object id="3087" name="phantomtower" class="phantomtower" x="384" y="-768" width="256" height="256">
   <ellipse/>
  </object>
  <object id="3088" name="phantomtower" class="phantomtower" x="640" y="-512" width="256" height="256">
   <ellipse/>
  </object>
  <object id="3089" name="phantomtower" class="phantomtower" x="-768" y="-768" width="256" height="256">
   <ellipse/>
  </object>
  <object id="3090" name="phantomtower" class="phantomtower" x="-512" y="-768" width="256" height="256">
   <ellipse/>
  </object>
  <object id="3091" name="phantomtower" class="phantomtower" x="-768" y="-512" width="256" height="256">
   <ellipse/>
  </object>
  <object id="3092" name="phantomtower" class="phantomtower" x="640" y="-768" width="256" height="256">
   <ellipse/>
  </object>
  <object id="3093" name="phantomtower" class="phantomtower" x="640" y="384" width="256" height="256">
   <ellipse/>
  </object>
  <object id="3094" name="phantomtower" class="phantomtower" x="640" y="640" width="256" height="256">
   <ellipse/>
  </object>
  <object id="3095" name="phantomtower" class="phantomtower" x="384" y="640" width="256" height="256">
   <ellipse/>
  </object>
  <object id="3096" name="phantomtower" class="phantomtower" x="-512" y="640" width="256" height="256">
   <ellipse/>
  </object>
  <object id="3097" name="phantomtower" class="phantomtower" x="-768" y="640" width="256" height="256">
   <ellipse/>
  </object>
  <object id="3098" name="phantomtower" class="phantomtower" x="-768" y="384" width="256" height="256">
   <ellipse/>
  </object>
  <object id="3100" name="reflectwall" class="reflectwall" x="896" y="-384" width="128" height="128"/>
  <object id="3101" name="reflectwall" class="reflectwall" x="896" y="-512" width="128" height="128"/>
  <object id="3102" name="reflectwall" class="reflectwall" x="896" y="-640" width="128" height="128"/>
  <object id="3103" name="reflectwall" class="reflectwall" x="896" y="-768" width="128" height="128"/>
  <object id="3104" name="reflectwall" class="reflectwall" x="768" y="-896" width="128" height="128"/>
  <object id="3105" name="reflectwall" class="reflectwall" x="896" y="-896" width="128" height="128"/>
  <object id="3106" name="reflectwall" class="reflectwall" x="640" y="-896" width="128" height="128"/>
  <object id="3107" name="reflectwall" class="reflectwall" x="512" y="-896" width="128" height="128"/>
  <object id="3108" name="reflectwall" class="reflectwall" x="384" y="-896" width="128" height="128"/>
  <object id="3109" name="reflectwall" class="reflectwall" x="-384" y="-896" width="128" height="128"/>
  <object id="3110" name="reflectwall" class="reflectwall" x="-640" y="-896" width="128" height="128"/>
  <object id="3111" name="reflectwall" class="reflectwall" x="-768" y="-896" width="128" height="128"/>
  <object id="3112" name="reflectwall" class="reflectwall" x="-896" y="-896" width="128" height="128"/>
  <object id="3113" name="reflectwall" class="reflectwall" x="-896" y="-640" width="128" height="128"/>
  <object id="3114" name="reflectwall" class="reflectwall" x="-896" y="-512" width="128" height="128"/>
  <object id="3115" name="reflectwall" class="reflectwall" x="-896" y="-384" width="128" height="128"/>
  <object id="3116" name="reflectwall" class="reflectwall" x="-896" y="-768" width="128" height="128"/>
  <object id="3117" name="reflectwall" class="reflectwall" x="-512" y="-896" width="128" height="128"/>
  <object id="3118" name="reflectwall" class="reflectwall" x="-896" y="384" width="128" height="128"/>
  <object id="3119" name="reflectwall" class="reflectwall" x="-896" y="512" width="128" height="128"/>
  <object id="3120" name="reflectwall" class="reflectwall" x="-896" y="768" width="128" height="128"/>
  <object id="3121" name="reflectwall" class="reflectwall" x="-896" y="896" width="128" height="128"/>
  <object id="3122" name="reflectwall" class="reflectwall" x="-896" y="640" width="128" height="128"/>
  <object id="3123" name="reflectwall" class="reflectwall" x="-768" y="896" width="128" height="128"/>
  <object id="3124" name="reflectwall" class="reflectwall" x="-512" y="896" width="128" height="128"/>
  <object id="3125" name="reflectwall" class="reflectwall" x="-384" y="896" width="128" height="128"/>
  <object id="3126" name="reflectwall" class="reflectwall" x="-640" y="896" width="128" height="128"/>
  <object id="3127" name="reflectwall" class="reflectwall" x="384" y="896" width="128" height="128"/>
  <object id="3128" name="reflectwall" class="reflectwall" x="512" y="896" width="128" height="128"/>
  <object id="3129" name="reflectwall" class="reflectwall" x="640" y="896" width="128" height="128"/>
  <object id="3130" name="reflectwall" class="reflectwall" x="768" y="896" width="128" height="128"/>
  <object id="3131" name="reflectwall" class="reflectwall" x="896" y="896" width="128" height="128"/>
  <object id="3132" name="reflectwall" class="reflectwall" x="896" y="768" width="128" height="128"/>
  <object id="3133" name="reflectwall" class="reflectwall" x="896" y="640" width="128" height="128"/>
  <object id="3134" name="reflectwall" class="reflectwall" x="896" y="384" width="128" height="128"/>
  <object id="3135" name="reflectwall" class="reflectwall" x="896" y="512" width="128" height="128"/>
 </objectgroup>
 <objectgroup id="3" name="towers"/>
 <objectgroup id="4" name="platforms"/>
 <objectgroup id="5" name="guard_archers"/>
 <objectgroup id="7" name="wood_spikes"/>
 <objectgroup id="6" name="guards"/>
 <objectgroup id="13" name="mines"/>
 <objectgroup id="8" name="traps"/>
 <objectgroup id="9" name="firewatchers">
  <object id="3136" name="firewatchertower" class="firewatchertower" x="384" y="384" width="128" height="128"/>
  <object id="3137" name="firewatchertower" class="firewatchertower" x="-384" y="384" width="128" height="128"/>
  <object id="3138" name="firewatchertower" class="firewatchertower" x="-384" y="-384" width="128" height="128"/>
  <object id="3139" name="firewatchertower" class="firewatchertower" x="384" y="-384" width="128" height="128"/>
  <object id="3140" name="firewatchertower" class="firewatchertower" x="-384" y="-256" width="128" height="128"/>
  <object id="3141" name="firewatchertower" class="firewatchertower" x="-256" y="-384" width="128" height="128"/>
  <object id="3142" name="firewatchertower" class="firewatchertower" x="256" y="-384" width="128" height="128"/>
  <object id="3143" name="firewatchertower" class="firewatchertower" x="384" y="-256" width="128" height="128"/>
  <object id="3144" name="firewatchertower" class="firewatchertower" x="384" y="256" width="128" height="128"/>
  <object id="3145" name="firewatchertower" class="firewatchertower" x="256" y="384" width="128" height="128"/>
  <object id="3146" name="firewatchertower" class="firewatchertower" x="-256" y="384" width="128" height="128"/>
  <object id="3147" name="firewatchertower" class="firewatchertower" x="-384" y="256" width="128" height="128"/>
  <object id="3148" name="deadwoodspikes" class="deadwoodspikes" x="-1024" y="384" width="128" height="128"/>
  <object id="3149" name="deadwoodspikes" class="deadwoodspikes" x="-1024" y="512" width="128" height="128"/>
  <object id="3150" name="deadwoodspikes" class="deadwoodspikes" x="-1024" y="768" width="128" height="128"/>
  <object id="3151" name="deadwoodspikes" class="deadwoodspikes" x="-1024" y="640" width="128" height="128"/>
  <object id="3152" name="deadwoodspikes" class="deadwoodspikes" x="-1024" y="896" width="128" height="128"/>
  <object id="3153" name="deadwoodspikes" class="deadwoodspikes" x="-1024" y="1024" width="128" height="128"/>
  <object id="3154" name="deadwoodspikes" class="deadwoodspikes" x="-896" y="1024" width="128" height="128"/>
  <object id="3155" name="deadwoodspikes" class="deadwoodspikes" x="-768" y="1024" width="128" height="128"/>
  <object id="3156" name="deadwoodspikes" class="deadwoodspikes" x="-640" y="1024" width="128" height="128"/>
  <object id="3157" name="deadwoodspikes" class="deadwoodspikes" x="-512" y="1024" width="128" height="128"/>
  <object id="3158" name="deadwoodspikes" class="deadwoodspikes" x="-384" y="1024" width="128" height="128"/>
  <object id="3159" name="deadwoodspikes" class="deadwoodspikes" x="384" y="1024" width="128" height="128"/>
  <object id="3160" name="deadwoodspikes" class="deadwoodspikes" x="512" y="1024" width="128" height="128"/>
  <object id="3161" name="deadwoodspikes" class="deadwoodspikes" x="640" y="1024" width="128" height="128"/>
  <object id="3162" name="deadwoodspikes" class="deadwoodspikes" x="768" y="1024" width="128" height="128"/>
  <object id="3163" name="deadwoodspikes" class="deadwoodspikes" x="896" y="1024" width="128" height="128"/>
  <object id="3164" name="deadwoodspikes" class="deadwoodspikes" x="1024" y="1024" width="128" height="128"/>
  <object id="3165" name="deadwoodspikes" class="deadwoodspikes" x="1024" y="896" width="128" height="128"/>
  <object id="3166" name="deadwoodspikes" class="deadwoodspikes" x="1024" y="768" width="128" height="128"/>
  <object id="3167" name="deadwoodspikes" class="deadwoodspikes" x="1024" y="640" width="128" height="128"/>
  <object id="3168" name="deadwoodspikes" class="deadwoodspikes" x="1024" y="512" width="128" height="128"/>
  <object id="3169" name="deadwoodspikes" class="deadwoodspikes" x="1024" y="384" width="128" height="128"/>
  <object id="3170" name="deadwoodspikes" class="deadwoodspikes" x="1024" y="-384" width="128" height="128"/>
  <object id="3171" name="deadwoodspikes" class="deadwoodspikes" x="1024" y="-512" width="128" height="128"/>
  <object id="3172" name="deadwoodspikes" class="deadwoodspikes" x="1024" y="-640" width="128" height="128"/>
  <object id="3173" name="deadwoodspikes" class="deadwoodspikes" x="1024" y="-768" width="128" height="128"/>
  <object id="3174" name="deadwoodspikes" class="deadwoodspikes" x="1024" y="-896" width="128" height="128"/>
  <object id="3175" name="deadwoodspikes" class="deadwoodspikes" x="1024" y="-1024" width="128" height="128"/>
  <object id="3176" name="deadwoodspikes" class="deadwoodspikes" x="896" y="-1024" width="128" height="128"/>
  <object id="3177" name="deadwoodspikes" class="deadwoodspikes" x="768" y="-1024" width="128" height="128"/>
  <object id="3178" name="deadwoodspikes" class="deadwoodspikes" x="640" y="-1024" width="128" height="128"/>
  <object id="3179" name="deadwoodspikes" class="deadwoodspikes" x="512" y="-1024" width="128" height="128"/>
  <object id="3180" name="deadwoodspikes" class="deadwoodspikes" x="384" y="-1024" width="128" height="128"/>
  <object id="3181" name="deadwoodspikes" class="deadwoodspikes" x="-384" y="-1024" width="128" height="128"/>
  <object id="3182" name="deadwoodspikes" class="deadwoodspikes" x="-512" y="-1024" width="128" height="128"/>
  <object id="3183" name="deadwoodspikes" class="deadwoodspikes" x="-640" y="-1024" width="128" height="128"/>
  <object id="3184" name="deadwoodspikes" class="deadwoodspikes" x="-768" y="-1024" width="128" height="128"/>
  <object id="3185" name="deadwoodspikes" class="deadwoodspikes" x="-896" y="-1024" width="128" height="128"/>
  <object id="3186" name="deadwoodspikes" class="deadwoodspikes" x="-1024" y="-1024" width="128" height="128"/>
  <object id="3187" name="deadwoodspikes" class="deadwoodspikes" x="-1024" y="-896" width="128" height="128"/>
  <object id="3188" name="deadwoodspikes" class="deadwoodspikes" x="-1024" y="-768" width="128" height="128"/>
  <object id="3189" name="deadwoodspikes" class="deadwoodspikes" x="-1024" y="-640" width="128" height="128"/>
  <object id="3190" name="deadwoodspikes" class="deadwoodspikes" x="-1024" y="-512" width="128" height="128"/>
  <object id="3191" name="deadwoodspikes" class="deadwoodspikes" x="-1024" y="-384" width="128" height="128"/>
  <object id="3192" name="deadwoodspikes" class="deadwoodspikes" x="-256" y="-768" width="128" height="128"/>
  <object id="3193" name="deadwoodspikes" class="deadwoodspikes" x="-256" y="-640" width="128" height="128"/>
  <object id="3194" name="deadwoodspikes" class="deadwoodspikes" x="-768" y="-256" width="128" height="128"/>
  <object id="3195" name="deadwoodspikes" class="deadwoodspikes" x="-640" y="-256" width="128" height="128"/>
  <object id="3196" name="deadwoodspikes" class="deadwoodspikes" x="256" y="-768" width="128" height="128"/>
  <object id="3197" name="deadwoodspikes" class="deadwoodspikes" x="256" y="-640" width="128" height="128"/>
  <object id="3198" name="deadwoodspikes" class="deadwoodspikes" x="768" y="-256" width="128" height="128"/>
  <object id="3199" name="deadwoodspikes" class="deadwoodspikes" x="640" y="-256" width="128" height="128"/>
  <object id="3200" name="deadwoodspikes" class="deadwoodspikes" x="768" y="256" width="128" height="128"/>
  <object id="3201" name="deadwoodspikes" class="deadwoodspikes" x="640" y="256" width="128" height="128"/>
  <object id="3202" name="deadwoodspikes" class="deadwoodspikes" x="256" y="768" width="128" height="128"/>
  <object id="3203" name="deadwoodspikes" class="deadwoodspikes" x="256" y="640" width="128" height="128"/>
  <object id="3204" name="deadwoodspikes" class="deadwoodspikes" x="-256" y="768" width="128" height="128"/>
  <object id="3205" name="deadwoodspikes" class="deadwoodspikes" x="-256" y="640" width="128" height="128"/>
  <object id="3206" name="deadwoodspikes" class="deadwoodspikes" x="-768" y="256" width="128" height="128"/>
  <object id="3207" name="deadwoodspikes" class="deadwoodspikes" x="-640" y="256" width="128" height="128"/>
  <object id="3208" name="deadwoodspikes" class="deadwoodspikes" x="-640" y="0" width="128" height="128"/>
  <object id="3209" name="deadwoodspikes" class="deadwoodspikes" x="640" y="0" width="128" height="128"/>
  <object id="3210" name="deadwoodspikes" class="deadwoodspikes" x="0" y="640" width="128" height="128"/>
  <object id="3211" name="deadwoodspikes" class="deadwoodspikes" x="0" y="-640" width="128" height="128"/>
 </objectgroup>
 <objectgroup id="10" name="main">
  <object id="2987" name="main" class="swampchest" x="0" y="0" width="128" height="128"/>
 </objectgroup>
</map>
