<?xml version="1.0" encoding="UTF-8"?>
<map version="1.9" tiledversion="1.9.2" orientation="orthogonal" renderorder="right-down" width="10" height="10" tilewidth="128" tileheight="128" infinite="1" nextlayerid="11" nextobjectid="3092">
 <objectgroup id="1" name="floors">
  <object id="2766" name="decorativefloorhalloween2" class="decorativefloorhalloween2" x="-640" y="0" width="128" height="128"/>
  <object id="2767" name="decorativefloorhalloween2" class="decorativefloorhalloween2" x="-512" y="0" width="128" height="128"/>
  <object id="2768" name="decorativefloorhalloween2" class="decorativefloorhalloween2" x="-384" y="0" width="128" height="128"/>
  <object id="2769" name="decorativefloorhalloween2" class="decorativefloorhalloween2" x="-384" y="128" width="128" height="128"/>
  <object id="2770" name="decorativefloorhalloween2" class="decorativefloorhalloween2" x="-256" y="128" width="128" height="128"/>
  <object id="2771" name="decorativefloorhalloween2" class="decorativefloorhalloween2" x="-256" y="256" width="128" height="128"/>
  <object id="2772" name="decorativefloorhalloween2" class="decorativefloorhalloween2" x="-128" y="256" width="128" height="128"/>
  <object id="2773" name="decorativefloorhalloween2" class="decorativefloorhalloween2" x="-128" y="384" width="128" height="128"/>
  <object id="2774" name="decorativefloorhalloween2" class="decorativefloorhalloween2" x="0" y="384" width="128" height="128"/>
  <object id="2775" name="decorativefloorhalloween2" class="decorativefloorhalloween2" x="128" y="384" width="128" height="128"/>
  <object id="2776" name="decorativefloorhalloween2" class="decorativefloorhalloween2" x="128" y="256" width="128" height="128"/>
  <object id="2777" name="decorativefloorhalloween2" class="decorativefloorhalloween2" x="256" y="256" width="128" height="128"/>
  <object id="2778" name="decorativefloorhalloween2" class="decorativefloorhalloween2" x="256" y="128" width="128" height="128"/>
  <object id="2779" name="decorativefloorhalloween2" class="decorativefloorhalloween2" x="384" y="128" width="128" height="128"/>
  <object id="2780" name="decorativefloorhalloween2" class="decorativefloorhalloween2" x="384" y="0" width="128" height="128"/>
  <object id="2781" name="decorativefloorhalloween2" class="decorativefloorhalloween2" x="384" y="-128" width="128" height="128"/>
  <object id="2782" name="decorativefloorhalloween2" class="decorativefloorhalloween2" x="512" y="0" width="128" height="128"/>
  <object id="2783" name="decorativefloorhalloween2" class="decorativefloorhalloween2" x="640" y="0" width="128" height="128"/>
  <object id="2784" name="decorativefloorhalloween2" class="decorativefloorhalloween2" x="256" y="-128" width="128" height="128"/>
  <object id="2785" name="decorativefloorhalloween2" class="decorativefloorhalloween2" x="256" y="-256" width="128" height="128"/>
  <object id="2786" name="decorativefloorhalloween2" class="decorativefloorhalloween2" x="128" y="-256" width="128" height="128"/>
  <object id="2787" name="decorativefloorhalloween2" class="decorativefloorhalloween2" x="128" y="-384" width="128" height="128"/>
  <object id="2788" name="decorativefloorhalloween2" class="decorativefloorhalloween2" x="0" y="-384" width="128" height="128"/>
  <object id="2789" name="decorativefloorhalloween2" class="decorativefloorhalloween2" x="-128" y="-384" width="128" height="128"/>
  <object id="2790" name="decorativefloorhalloween2" class="decorativefloorhalloween2" x="-128" y="-256" width="128" height="128"/>
  <object id="2791" name="decorativefloorhalloween2" class="decorativefloorhalloween2" x="-256" y="-256" width="128" height="128"/>
  <object id="2792" name="decorativefloorhalloween2" class="decorativefloorhalloween2" x="-256" y="-128" width="128" height="128"/>
  <object id="2793" name="decorativefloorhalloween2" class="decorativefloorhalloween2" x="-384" y="-128" width="128" height="128"/>
  <object id="2794" name="decorativefloorhalloween2" class="decorativefloorhalloween2" x="0" y="1024" width="128" height="128"/>
  <object id="2795" name="decorativefloorhalloween2" class="decorativefloorhalloween2" x="0" y="1152" width="128" height="128"/>
  <object id="2796" name="decorativefloorhalloween2" class="decorativefloorhalloween2" x="0" y="1280" width="128" height="128"/>
  <object id="2797" name="decorativefloorhalloween2" class="decorativefloorhalloween2" x="-128" y="1280" width="128" height="128"/>
  <object id="2798" name="decorativefloorhalloween2" class="decorativefloorhalloween2" x="-256" y="1280" width="128" height="128"/>
  <object id="2799" name="decorativefloorhalloween2" class="decorativefloorhalloween2" x="-384" y="1152" width="128" height="128"/>
  <object id="2800" name="decorativefloorhalloween2" class="decorativefloorhalloween2" x="-384" y="1024" width="128" height="128"/>
  <object id="2801" name="decorativefloorhalloween2" class="decorativefloorhalloween2" x="128" y="1280" width="128" height="128"/>
  <object id="2802" name="decorativefloorhalloween2" class="decorativefloorhalloween2" x="256" y="1280" width="128" height="128"/>
  <object id="2803" name="decorativefloorhalloween2" class="decorativefloorhalloween2" x="384" y="1152" width="128" height="128"/>
  <object id="2804" name="decorativefloorhalloween2" class="decorativefloorhalloween2" x="384" y="1024" width="128" height="128"/>
  <object id="2805" name="decorativefloorhalloween2" class="decorativefloorhalloween2" x="1024" y="0" width="128" height="128"/>
  <object id="2806" name="decorativefloorhalloween2" class="decorativefloorhalloween2" x="1152" y="0" width="128" height="128"/>
  <object id="2807" name="decorativefloorhalloween2" class="decorativefloorhalloween2" x="1280" y="0" width="128" height="128"/>
  <object id="2808" name="decorativefloorhalloween2" class="decorativefloorhalloween2" x="1280" y="-128" width="128" height="128"/>
  <object id="2809" name="decorativefloorhalloween2" class="decorativefloorhalloween2" x="1280" y="-256" width="128" height="128"/>
  <object id="2810" name="decorativefloorhalloween2" class="decorativefloorhalloween2" x="1152" y="-384" width="128" height="128"/>
  <object id="2811" name="decorativefloorhalloween2" class="decorativefloorhalloween2" x="1024" y="-384" width="128" height="128"/>
  <object id="2812" name="decorativefloorhalloween2" class="decorativefloorhalloween2" x="1024" y="384" width="128" height="128"/>
  <object id="2813" name="decorativefloorhalloween2" class="decorativefloorhalloween2" x="1152" y="384" width="128" height="128"/>
  <object id="2814" name="decorativefloorhalloween2" class="decorativefloorhalloween2" x="1280" y="256" width="128" height="128"/>
  <object id="2815" name="decorativefloorhalloween2" class="decorativefloorhalloween2" x="1280" y="128" width="128" height="128"/>
  <object id="2816" name="decorativefloorhalloween2" class="decorativefloorhalloween2" x="-1024" y="-384" width="128" height="128"/>
  <object id="2817" name="decorativefloorhalloween2" class="decorativefloorhalloween2" x="-1152" y="-384" width="128" height="128"/>
  <object id="2818" name="decorativefloorhalloween2" class="decorativefloorhalloween2" x="-1280" y="-256" width="128" height="128"/>
  <object id="2819" name="decorativefloorhalloween2" class="decorativefloorhalloween2" x="-1280" y="-128" width="128" height="128"/>
  <object id="2820" name="decorativefloorhalloween2" class="decorativefloorhalloween2" x="-1280" y="0" width="128" height="128"/>
  <object id="2821" name="decorativefloorhalloween2" class="decorativefloorhalloween2" x="-1152" y="0" width="128" height="128"/>
  <object id="2822" name="decorativefloorhalloween2" class="decorativefloorhalloween2" x="-1024" y="0" width="128" height="128"/>
  <object id="2823" name="decorativefloorhalloween2" class="decorativefloorhalloween2" x="-1280" y="128" width="128" height="128"/>
  <object id="2824" name="decorativefloorhalloween2" class="decorativefloorhalloween2" x="-1280" y="256" width="128" height="128"/>
  <object id="2825" name="decorativefloorhalloween2" class="decorativefloorhalloween2" x="-1152" y="384" width="128" height="128"/>
  <object id="2826" name="decorativefloorhalloween2" class="decorativefloorhalloween2" x="-1024" y="384" width="128" height="128"/>
  <object id="2827" name="decorativefloorhalloween2" class="decorativefloorhalloween2" x="0" y="-1024" width="128" height="128"/>
  <object id="2828" name="decorativefloorhalloween2" class="decorativefloorhalloween2" x="0" y="-1152" width="128" height="128"/>
  <object id="2829" name="decorativefloorhalloween2" class="decorativefloorhalloween2" x="0" y="-1280" width="128" height="128"/>
  <object id="2830" name="decorativefloorhalloween2" class="decorativefloorhalloween2" x="128" y="-1280" width="128" height="128"/>
  <object id="2831" name="decorativefloorhalloween2" class="decorativefloorhalloween2" x="256" y="-1280" width="128" height="128"/>
  <object id="2832" name="decorativefloorhalloween2" class="decorativefloorhalloween2" x="384" y="-1152" width="128" height="128"/>
  <object id="2833" name="decorativefloorhalloween2" class="decorativefloorhalloween2" x="384" y="-1024" width="128" height="128"/>
  <object id="2834" name="decorativefloorhalloween2" class="decorativefloorhalloween2" x="-128" y="-1280" width="128" height="128"/>
  <object id="2835" name="decorativefloorhalloween2" class="decorativefloorhalloween2" x="-256" y="-1280" width="128" height="128"/>
  <object id="2836" name="decorativefloorhalloween2" class="decorativefloorhalloween2" x="-384" y="-1152" width="128" height="128"/>
  <object id="2837" name="decorativefloorhalloween2" class="decorativefloorhalloween2" x="-384" y="-1024" width="128" height="128"/>
  <object id="2930" name="decorativefloorhalloween1" class="decorativefloorhalloween1" x="-512" y="-1152" width="128" height="128"/>
  <object id="2931" name="decorativefloorhalloween1" class="decorativefloorhalloween1" x="-512" y="-1024" width="128" height="128"/>
  <object id="2932" name="decorativefloorhalloween1" class="decorativefloorhalloween1" x="-512" y="-1280" width="128" height="128"/>
  <object id="2933" name="decorativefloorhalloween1" class="decorativefloorhalloween1" x="-384" y="-1280" width="128" height="128"/>
  <object id="2934" name="decorativefloorhalloween1" class="decorativefloorhalloween1" x="-256" y="-1152" width="128" height="128"/>
  <object id="2935" name="decorativefloorhalloween1" class="decorativefloorhalloween1" x="-256" y="-1024" width="128" height="128"/>
  <object id="2936" name="decorativefloorhalloween1" class="decorativefloorhalloween1" x="-128" y="-1024" width="128" height="128"/>
  <object id="2937" name="decorativefloorhalloween1" class="decorativefloorhalloween1" x="-128" y="-1152" width="128" height="128"/>
  <object id="2938" name="decorativefloorhalloween1" class="decorativefloorhalloween1" x="128" y="-1152" width="128" height="128"/>
  <object id="2939" name="decorativefloorhalloween1" class="decorativefloorhalloween1" x="256" y="-1152" width="128" height="128"/>
  <object id="2940" name="decorativefloorhalloween1" class="decorativefloorhalloween1" x="256" y="-1024" width="128" height="128"/>
  <object id="2941" name="decorativefloorhalloween1" class="decorativefloorhalloween1" x="128" y="-1024" width="128" height="128"/>
  <object id="2942" name="decorativefloorhalloween1" class="decorativefloorhalloween1" x="512" y="-1024" width="128" height="128"/>
  <object id="2943" name="decorativefloorhalloween1" class="decorativefloorhalloween1" x="512" y="-1152" width="128" height="128"/>
  <object id="2944" name="decorativefloorhalloween1" class="decorativefloorhalloween1" x="512" y="-1280" width="128" height="128"/>
  <object id="2945" name="decorativefloorhalloween1" class="decorativefloorhalloween1" x="384" y="-1280" width="128" height="128"/>
  <object id="2946" name="decorativefloorhalloween1" class="decorativefloorhalloween1" x="-256" y="-640" width="128" height="128"/>
  <object id="2947" name="decorativefloorhalloween1" class="decorativefloorhalloween1" x="-256" y="-512" width="128" height="128"/>
  <object id="2948" name="decorativefloorhalloween1" class="decorativefloorhalloween1" x="-384" y="-512" width="128" height="128"/>
  <object id="2949" name="decorativefloorhalloween1" class="decorativefloorhalloween1" x="-384" y="-640" width="128" height="128"/>
  <object id="2950" name="decorativefloorhalloween1" class="decorativefloorhalloween1" x="-640" y="-640" width="128" height="128"/>
  <object id="2951" name="decorativefloorhalloween1" class="decorativefloorhalloween1" x="-512" y="-640" width="128" height="128"/>
  <object id="2952" name="decorativefloorhalloween1" class="decorativefloorhalloween1" x="-640" y="-512" width="128" height="128"/>
  <object id="2953" name="decorativefloorhalloween1" class="decorativefloorhalloween1" x="-512" y="-512" width="128" height="128"/>
  <object id="2954" name="decorativefloorhalloween1" class="decorativefloorhalloween1" x="-640" y="-384" width="128" height="128"/>
  <object id="2955" name="decorativefloorhalloween1" class="decorativefloorhalloween1" x="-512" y="-384" width="128" height="128"/>
  <object id="2956" name="decorativefloorhalloween1" class="decorativefloorhalloween1" x="-512" y="-256" width="128" height="128"/>
  <object id="2957" name="decorativefloorhalloween1" class="decorativefloorhalloween1" x="-640" y="-256" width="128" height="128"/>
  <object id="2958" name="decorativefloorhalloween1" class="decorativefloorhalloween1" x="-384" y="-384" width="128" height="128"/>
  <object id="2959" name="decorativefloorhalloween1" class="decorativefloorhalloween1" x="-256" y="-384" width="128" height="128"/>
  <object id="2960" name="decorativefloorhalloween1" class="decorativefloorhalloween1" x="-384" y="-256" width="128" height="128"/>
  <object id="2961" name="decorativefloorhalloween1" class="decorativefloorhalloween1" x="-512" y="-128" width="128" height="128"/>
  <object id="2962" name="decorativefloorhalloween1" class="decorativefloorhalloween1" x="-640" y="-128" width="128" height="128"/>
  <object id="2963" name="decorativefloorhalloween1" class="decorativefloorhalloween1" x="-640" y="128" width="128" height="128"/>
  <object id="2964" name="decorativefloorhalloween1" class="decorativefloorhalloween1" x="-512" y="128" width="128" height="128"/>
  <object id="2965" name="decorativefloorhalloween1" class="decorativefloorhalloween1" x="-384" y="256" width="128" height="128"/>
  <object id="2966" name="decorativefloorhalloween1" class="decorativefloorhalloween1" x="-512" y="256" width="128" height="128"/>
  <object id="2967" name="decorativefloorhalloween1" class="decorativefloorhalloween1" x="-640" y="256" width="128" height="128"/>
  <object id="2968" name="decorativefloorhalloween1" class="decorativefloorhalloween1" x="-640" y="384" width="128" height="128"/>
  <object id="2969" name="decorativefloorhalloween1" class="decorativefloorhalloween1" x="-512" y="384" width="128" height="128"/>
  <object id="2970" name="decorativefloorhalloween1" class="decorativefloorhalloween1" x="-640" y="512" width="128" height="128"/>
  <object id="2971" name="decorativefloorhalloween1" class="decorativefloorhalloween1" x="-640" y="640" width="128" height="128"/>
  <object id="2972" name="decorativefloorhalloween1" class="decorativefloorhalloween1" x="-512" y="640" width="128" height="128"/>
  <object id="2973" name="decorativefloorhalloween1" class="decorativefloorhalloween1" x="-512" y="512" width="128" height="128"/>
  <object id="2974" name="decorativefloorhalloween1" class="decorativefloorhalloween1" x="-384" y="512" width="128" height="128"/>
  <object id="2975" name="decorativefloorhalloween1" class="decorativefloorhalloween1" x="-384" y="640" width="128" height="128"/>
  <object id="2976" name="decorativefloorhalloween1" class="decorativefloorhalloween1" x="-256" y="640" width="128" height="128"/>
  <object id="2977" name="decorativefloorhalloween1" class="decorativefloorhalloween1" x="-256" y="512" width="128" height="128"/>
  <object id="2978" name="decorativefloorhalloween1" class="decorativefloorhalloween1" x="-384" y="384" width="128" height="128"/>
  <object id="2979" name="decorativefloorhalloween1" class="decorativefloorhalloween1" x="-256" y="384" width="128" height="128"/>
  <object id="2980" name="decorativefloorhalloween1" class="decorativefloorhalloween1" x="0" y="256" width="128" height="128"/>
  <object id="2981" name="decorativefloorhalloween1" class="decorativefloorhalloween1" x="0" y="128" width="128" height="128"/>
  <object id="2982" name="decorativefloorhalloween1" class="decorativefloorhalloween1" x="-128" y="128" width="128" height="128"/>
  <object id="2983" name="decorativefloorhalloween1" class="decorativefloorhalloween1" x="-128" y="0" width="128" height="128"/>
  <object id="2984" name="decorativefloorhalloween1" class="decorativefloorhalloween1" x="-256" y="0" width="128" height="128"/>
  <object id="2985" name="decorativefloorhalloween1" class="decorativefloorhalloween1" x="-128" y="-128" width="128" height="128"/>
  <object id="2986" name="decorativefloorhalloween1" class="decorativefloorhalloween1" x="0" y="-128" width="128" height="128"/>
  <object id="2987" name="decorativefloorhalloween1" class="decorativefloorhalloween1" x="0" y="-256" width="128" height="128"/>
  <object id="2988" name="decorativefloorhalloween1" class="decorativefloorhalloween1" x="128" y="-128" width="128" height="128"/>
  <object id="2989" name="decorativefloorhalloween1" class="decorativefloorhalloween1" x="256" y="0" width="128" height="128"/>
  <object id="2990" name="decorativefloorhalloween1" class="decorativefloorhalloween1" x="128" y="0" width="128" height="128"/>
  <object id="2991" name="decorativefloorhalloween1" class="decorativefloorhalloween1" x="128" y="128" width="128" height="128"/>
  <object id="2992" name="decorativefloorhalloween1" class="decorativefloorhalloween1" x="0" y="0" width="128" height="128"/>
  <object id="2993" name="decorativefloorhalloween1" class="decorativefloorhalloween1" x="256" y="384" width="128" height="128"/>
  <object id="2994" name="decorativefloorhalloween1" class="decorativefloorhalloween1" x="384" y="384" width="128" height="128"/>
  <object id="2995" name="decorativefloorhalloween1" class="decorativefloorhalloween1" x="384" y="256" width="128" height="128"/>
  <object id="2996" name="decorativefloorhalloween1" class="decorativefloorhalloween1" x="512" y="128" width="128" height="128"/>
  <object id="2997" name="decorativefloorhalloween1" class="decorativefloorhalloween1" x="640" y="128" width="128" height="128"/>
  <object id="2998" name="decorativefloorhalloween1" class="decorativefloorhalloween1" x="640" y="384" width="128" height="128"/>
  <object id="2999" name="decorativefloorhalloween1" class="decorativefloorhalloween1" x="512" y="256" width="128" height="128"/>
  <object id="3000" name="decorativefloorhalloween1" class="decorativefloorhalloween1" x="512" y="384" width="128" height="128"/>
  <object id="3001" name="decorativefloorhalloween1" class="decorativefloorhalloween1" x="640" y="256" width="128" height="128"/>
  <object id="3002" name="decorativefloorhalloween1" class="decorativefloorhalloween1" x="640" y="512" width="128" height="128"/>
  <object id="3003" name="decorativefloorhalloween1" class="decorativefloorhalloween1" x="640" y="640" width="128" height="128"/>
  <object id="3004" name="decorativefloorhalloween1" class="decorativefloorhalloween1" x="512" y="640" width="128" height="128"/>
  <object id="3005" name="decorativefloorhalloween1" class="decorativefloorhalloween1" x="512" y="512" width="128" height="128"/>
  <object id="3006" name="decorativefloorhalloween1" class="decorativefloorhalloween1" x="384" y="512" width="128" height="128"/>
  <object id="3007" name="decorativefloorhalloween1" class="decorativefloorhalloween1" x="384" y="640" width="128" height="128"/>
  <object id="3008" name="decorativefloorhalloween1" class="decorativefloorhalloween1" x="256" y="640" width="128" height="128"/>
  <object id="3009" name="decorativefloorhalloween1" class="decorativefloorhalloween1" x="256" y="512" width="128" height="128"/>
  <object id="3010" name="decorativefloorhalloween1" class="decorativefloorhalloween1" x="0" y="640" width="128" height="128"/>
  <object id="3011" name="decorativefloorhalloween1" class="decorativefloorhalloween1" x="640" y="-128" width="128" height="128"/>
  <object id="3012" name="decorativefloorhalloween1" class="decorativefloorhalloween1" x="384" y="-384" width="128" height="128"/>
  <object id="3013" name="decorativefloorhalloween1" class="decorativefloorhalloween1" x="0" y="-640" width="128" height="128"/>
  <object id="3014" name="decorativefloorhalloween1" class="decorativefloorhalloween1" x="-128" y="-640" width="128" height="128"/>
  <object id="3015" name="decorativefloorhalloween1" class="decorativefloorhalloween1" x="-128" y="-512" width="128" height="128"/>
  <object id="3016" name="decorativefloorhalloween1" class="decorativefloorhalloween1" x="0" y="-512" width="128" height="128"/>
  <object id="3017" name="decorativefloorhalloween1" class="decorativefloorhalloween1" x="128" y="-512" width="128" height="128"/>
  <object id="3018" name="decorativefloorhalloween1" class="decorativefloorhalloween1" x="128" y="-640" width="128" height="128"/>
  <object id="3019" name="decorativefloorhalloween1" class="decorativefloorhalloween1" x="128" y="512" width="128" height="128"/>
  <object id="3020" name="decorativefloorhalloween1" class="decorativefloorhalloween1" x="128" y="640" width="128" height="128"/>
  <object id="3021" name="decorativefloorhalloween1" class="decorativefloorhalloween1" x="0" y="512" width="128" height="128"/>
  <object id="3022" name="decorativefloorhalloween1" class="decorativefloorhalloween1" x="-128" y="512" width="128" height="128"/>
  <object id="3023" name="decorativefloorhalloween1" class="decorativefloorhalloween1" x="-128" y="640" width="128" height="128"/>
  <object id="3024" name="decorativefloorhalloween1" class="decorativefloorhalloween1" x="640" y="-384" width="128" height="128"/>
  <object id="3025" name="decorativefloorhalloween1" class="decorativefloorhalloween1" x="640" y="-256" width="128" height="128"/>
  <object id="3026" name="decorativefloorhalloween1" class="decorativefloorhalloween1" x="512" y="-256" width="128" height="128"/>
  <object id="3027" name="decorativefloorhalloween1" class="decorativefloorhalloween1" x="512" y="-384" width="128" height="128"/>
  <object id="3028" name="decorativefloorhalloween1" class="decorativefloorhalloween1" x="640" y="-512" width="128" height="128"/>
  <object id="3029" name="decorativefloorhalloween1" class="decorativefloorhalloween1" x="640" y="-640" width="128" height="128"/>
  <object id="3030" name="decorativefloorhalloween1" class="decorativefloorhalloween1" x="512" y="-640" width="128" height="128"/>
  <object id="3031" name="decorativefloorhalloween1" class="decorativefloorhalloween1" x="512" y="-512" width="128" height="128"/>
  <object id="3032" name="decorativefloorhalloween1" class="decorativefloorhalloween1" x="384" y="-512" width="128" height="128"/>
  <object id="3033" name="decorativefloorhalloween1" class="decorativefloorhalloween1" x="384" y="-640" width="128" height="128"/>
  <object id="3034" name="decorativefloorhalloween1" class="decorativefloorhalloween1" x="256" y="-640" width="128" height="128"/>
  <object id="3035" name="decorativefloorhalloween1" class="decorativefloorhalloween1" x="256" y="-512" width="128" height="128"/>
  <object id="3036" name="decorativefloorhalloween1" class="decorativefloorhalloween1" x="384" y="-384" width="128" height="128"/>
  <object id="3037" name="decorativefloorhalloween1" class="decorativefloorhalloween1" x="-384" y="-384" width="128" height="128"/>
  <object id="3038" name="decorativefloorhalloween1" class="decorativefloorhalloween1" x="1280" y="-512" width="128" height="128"/>
  <object id="3039" name="decorativefloorhalloween1" class="decorativefloorhalloween1" x="1280" y="-384" width="128" height="128"/>
  <object id="3040" name="decorativefloorhalloween1" class="decorativefloorhalloween1" x="1152" y="-512" width="128" height="128"/>
  <object id="3041" name="decorativefloorhalloween1" class="decorativefloorhalloween1" x="1024" y="-512" width="128" height="128"/>
  <object id="3042" name="decorativefloorhalloween1" class="decorativefloorhalloween1" x="1024" y="-256" width="128" height="128"/>
  <object id="3043" name="decorativefloorhalloween1" class="decorativefloorhalloween1" x="1152" y="-256" width="128" height="128"/>
  <object id="3044" name="decorativefloorhalloween1" class="decorativefloorhalloween1" x="1152" y="-128" width="128" height="128"/>
  <object id="3045" name="decorativefloorhalloween1" class="decorativefloorhalloween1" x="1024" y="-128" width="128" height="128"/>
  <object id="3046" name="decorativefloorhalloween1" class="decorativefloorhalloween1" x="1152" y="128" width="128" height="128"/>
  <object id="3047" name="decorativefloorhalloween1" class="decorativefloorhalloween1" x="1152" y="256" width="128" height="128"/>
  <object id="3048" name="decorativefloorhalloween1" class="decorativefloorhalloween1" x="1024" y="256" width="128" height="128"/>
  <object id="3049" name="decorativefloorhalloween1" class="decorativefloorhalloween1" x="1024" y="128" width="128" height="128"/>
  <object id="3050" name="decorativefloorhalloween1" class="decorativefloorhalloween1" x="1280" y="384" width="128" height="128"/>
  <object id="3051" name="decorativefloorhalloween1" class="decorativefloorhalloween1" x="1280" y="512" width="128" height="128"/>
  <object id="3052" name="decorativefloorhalloween1" class="decorativefloorhalloween1" x="1152" y="512" width="128" height="128"/>
  <object id="3053" name="decorativefloorhalloween1" class="decorativefloorhalloween1" x="1024" y="512" width="128" height="128"/>
  <object id="3054" name="decorativefloorhalloween1" class="decorativefloorhalloween1" x="512" y="1152" width="128" height="128"/>
  <object id="3055" name="decorativefloorhalloween1" class="decorativefloorhalloween1" x="512" y="1024" width="128" height="128"/>
  <object id="3056" name="decorativefloorhalloween1" class="decorativefloorhalloween1" x="512" y="1280" width="128" height="128"/>
  <object id="3057" name="decorativefloorhalloween1" class="decorativefloorhalloween1" x="384" y="1280" width="128" height="128"/>
  <object id="3058" name="decorativefloorhalloween1" class="decorativefloorhalloween1" x="256" y="1024" width="128" height="128"/>
  <object id="3059" name="decorativefloorhalloween1" class="decorativefloorhalloween1" x="256" y="1152" width="128" height="128"/>
  <object id="3060" name="decorativefloorhalloween1" class="decorativefloorhalloween1" x="128" y="1152" width="128" height="128"/>
  <object id="3061" name="decorativefloorhalloween1" class="decorativefloorhalloween1" x="128" y="1024" width="128" height="128"/>
  <object id="3062" name="decorativefloorhalloween1" class="decorativefloorhalloween1" x="-128" y="1024" width="128" height="128"/>
  <object id="3063" name="decorativefloorhalloween1" class="decorativefloorhalloween1" x="-128" y="1152" width="128" height="128"/>
  <object id="3064" name="decorativefloorhalloween1" class="decorativefloorhalloween1" x="-256" y="1152" width="128" height="128"/>
  <object id="3065" name="decorativefloorhalloween1" class="decorativefloorhalloween1" x="-256" y="1024" width="128" height="128"/>
  <object id="3066" name="decorativefloorhalloween1" class="decorativefloorhalloween1" x="-512" y="1024" width="128" height="128"/>
  <object id="3067" name="decorativefloorhalloween1" class="decorativefloorhalloween1" x="-512" y="1152" width="128" height="128"/>
  <object id="3068" name="decorativefloorhalloween1" class="decorativefloorhalloween1" x="-512" y="1280" width="128" height="128"/>
  <object id="3069" name="decorativefloorhalloween1" class="decorativefloorhalloween1" x="-384" y="1280" width="128" height="128"/>
  <object id="3070" name="decorativefloorhalloween1" class="decorativefloorhalloween1" x="-1024" y="512" width="128" height="128"/>
  <object id="3071" name="decorativefloorhalloween1" class="decorativefloorhalloween1" x="-1152" y="512" width="128" height="128"/>
  <object id="3072" name="decorativefloorhalloween1" class="decorativefloorhalloween1" x="-1280" y="512" width="128" height="128"/>
  <object id="3073" name="decorativefloorhalloween1" class="decorativefloorhalloween1" x="-1280" y="384" width="128" height="128"/>
  <object id="3074" name="decorativefloorhalloween1" class="decorativefloorhalloween1" x="-1152" y="256" width="128" height="128"/>
  <object id="3075" name="decorativefloorhalloween1" class="decorativefloorhalloween1" x="-1152" y="128" width="128" height="128"/>
  <object id="3076" name="decorativefloorhalloween1" class="decorativefloorhalloween1" x="-1024" y="128" width="128" height="128"/>
  <object id="3077" name="decorativefloorhalloween1" class="decorativefloorhalloween1" x="-1024" y="256" width="128" height="128"/>
  <object id="3078" name="decorativefloorhalloween1" class="decorativefloorhalloween1" x="-1024" y="-256" width="128" height="128"/>
  <object id="3079" name="decorativefloorhalloween1" class="decorativefloorhalloween1" x="-1024" y="-128" width="128" height="128"/>
  <object id="3080" name="decorativefloorhalloween1" class="decorativefloorhalloween1" x="-1152" y="-128" width="128" height="128"/>
  <object id="3081" name="decorativefloorhalloween1" class="decorativefloorhalloween1" x="-1152" y="-256" width="128" height="128"/>
  <object id="3082" name="decorativefloorhalloween1" class="decorativefloorhalloween1" x="-1280" y="-384" width="128" height="128"/>
  <object id="3083" name="decorativefloorhalloween1" class="decorativefloorhalloween1" x="-1280" y="-512" width="128" height="128"/>
  <object id="3084" name="decorativefloorhalloween1" class="decorativefloorhalloween1" x="-1152" y="-512" width="128" height="128"/>
  <object id="3085" name="decorativefloorhalloween1" class="decorativefloorhalloween1" x="-1024" y="-512" width="128" height="128"/>
 </objectgroup>
 <objectgroup id="2" name="walls">
  <object id="2412" name="deadwall" class="deadwall" x="0" y="-896" width="128" height="128"/>
  <object id="2413" name="deadwall" class="deadwall" x="-128" y="-768" width="128" height="128"/>
  <object id="2414" name="deadwall" class="deadwall" x="128" y="-768" width="128" height="128"/>
  <object id="2415" name="deadwall" class="deadwall" x="-256" y="-896" width="128" height="128"/>
  <object id="2416" name="deadwall" class="deadwall" x="-384" y="-768" width="128" height="128"/>
  <object id="2417" name="deadwall" class="deadwall" x="256" y="-896" width="128" height="128"/>
  <object id="2418" name="deadwall" class="deadwall" x="384" y="-768" width="128" height="128"/>
  <object id="2419" name="deadwall" class="deadwall" x="-512" y="-896" width="128" height="128"/>
  <object id="2420" name="deadwall" class="deadwall" x="512" y="-896" width="128" height="128"/>
  <object id="2421" name="deadwall" class="deadwall" x="-640" y="-768" width="128" height="128"/>
  <object id="2422" name="deadwall" class="deadwall" x="-768" y="-896" width="128" height="128"/>
  <object id="2423" name="deadwall" class="deadwall" x="-768" y="-640" width="128" height="128"/>
  <object id="2424" name="deadwall" class="deadwall" x="640" y="-768" width="128" height="128"/>
  <object id="2425" name="deadwall" class="deadwall" x="768" y="-896" width="128" height="128"/>
  <object id="2426" name="deadwall" class="deadwall" x="768" y="-640" width="128" height="128"/>
  <object id="2427" name="deadwall" class="deadwall" x="-768" y="-384" width="128" height="128"/>
  <object id="2428" name="deadwall" class="deadwall" x="-896" y="-512" width="128" height="128"/>
  <object id="2429" name="deadwall" class="deadwall" x="-896" y="-256" width="128" height="128"/>
  <object id="2430" name="deadwall" class="deadwall" x="-768" y="-128" width="128" height="128"/>
  <object id="2431" name="deadwall" class="deadwall" x="768" y="-128" width="128" height="128"/>
  <object id="2432" name="deadwall" class="deadwall" x="896" y="-256" width="128" height="128"/>
  <object id="2433" name="deadwall" class="deadwall" x="768" y="-384" width="128" height="128"/>
  <object id="2434" name="deadwall" class="deadwall" x="896" y="-512" width="128" height="128"/>
  <object id="2435" name="deadwall" class="deadwall" x="-896" y="-768" width="128" height="128"/>
  <object id="2436" name="deadwall" class="deadwall" x="896" y="-768" width="128" height="128"/>
  <object id="2437" name="reflectwall" class="reflectwall" x="768" y="-256" width="128" height="128"/>
  <object id="2438" name="reflectwall" class="reflectwall" x="896" y="-128" width="128" height="128"/>
  <object id="2439" name="reflectwall" class="reflectwall" x="896" y="-384" width="128" height="128"/>
  <object id="2440" name="reflectwall" class="reflectwall" x="768" y="-512" width="128" height="128"/>
  <object id="2441" name="reflectwall" class="reflectwall" x="896" y="-640" width="128" height="128"/>
  <object id="2442" name="reflectwall" class="reflectwall" x="768" y="-768" width="128" height="128"/>
  <object id="2443" name="reflectwall" class="reflectwall" x="896" y="-896" width="128" height="128"/>
  <object id="2444" name="reflectwall" class="reflectwall" x="640" y="-896" width="128" height="128"/>
  <object id="2445" name="reflectwall" class="reflectwall" x="512" y="-768" width="128" height="128"/>
  <object id="2446" name="reflectwall" class="reflectwall" x="384" y="-896" width="128" height="128"/>
  <object id="2447" name="reflectwall" class="reflectwall" x="256" y="-768" width="128" height="128"/>
  <object id="2448" name="reflectwall" class="reflectwall" x="128" y="-896" width="128" height="128"/>
  <object id="2449" name="reflectwall" class="reflectwall" x="0" y="-768" width="128" height="128"/>
  <object id="2450" name="reflectwall" class="reflectwall" x="-128" y="-896" width="128" height="128"/>
  <object id="2451" name="reflectwall" class="reflectwall" x="-256" y="-768" width="128" height="128"/>
  <object id="2452" name="reflectwall" class="reflectwall" x="-384" y="-896" width="128" height="128"/>
  <object id="2453" name="reflectwall" class="reflectwall" x="-512" y="-768" width="128" height="128"/>
  <object id="2454" name="reflectwall" class="reflectwall" x="-640" y="-896" width="128" height="128"/>
  <object id="2455" name="reflectwall" class="reflectwall" x="-768" y="-768" width="128" height="128"/>
  <object id="2456" name="reflectwall" class="reflectwall" x="-896" y="-896" width="128" height="128"/>
  <object id="2457" name="reflectwall" class="reflectwall" x="-896" y="-640" width="128" height="128"/>
  <object id="2458" name="reflectwall" class="reflectwall" x="-768" y="-512" width="128" height="128"/>
  <object id="2459" name="reflectwall" class="reflectwall" x="-896" y="-384" width="128" height="128"/>
  <object id="2460" name="reflectwall" class="reflectwall" x="-768" y="-256" width="128" height="128"/>
  <object id="2461" name="reflectwall" class="reflectwall" x="-896" y="-128" width="128" height="128"/>
  <object id="2579" name="reflectwall" class="reflectwall" x="-640" y="-1024" width="128" height="128"/>
  <object id="2580" name="reflectwall" class="reflectwall" x="-640" y="-1152" width="128" height="128"/>
  <object id="2581" name="reflectwall" class="reflectwall" x="-640" y="-1280" width="128" height="128"/>
  <object id="2582" name="reflectwall" class="reflectwall" x="-768" y="-1280" width="128" height="128"/>
  <object id="2583" name="reflectwall" class="reflectwall" x="-1024" y="-1280" width="128" height="128"/>
  <object id="2584" name="reflectwall" class="reflectwall" x="-1152" y="-1280" width="128" height="128"/>
  <object id="2585" name="reflectwall" class="reflectwall" x="-1280" y="-1280" width="128" height="128"/>
  <object id="2586" name="reflectwall" class="reflectwall" x="-1280" y="-1152" width="128" height="128"/>
  <object id="2587" name="reflectwall" class="reflectwall" x="-1280" y="-1024" width="128" height="128"/>
  <object id="2588" name="reflectwall" class="reflectwall" x="-1280" y="-896" width="128" height="128"/>
  <object id="2589" name="reflectwall" class="reflectwall" x="-1280" y="-768" width="128" height="128"/>
  <object id="2590" name="reflectwall" class="reflectwall" x="-1280" y="-640" width="128" height="128"/>
  <object id="2591" name="reflectwall" class="reflectwall" x="-1152" y="-640" width="128" height="128"/>
  <object id="2592" name="reflectwall" class="reflectwall" x="-1024" y="-640" width="128" height="128"/>
  <object id="2593" name="reflectwall" class="reflectwall" x="-896" y="-1280" width="128" height="128"/>
  <object id="2594" name="reflectwall" class="reflectwall" x="640" y="-1024" width="128" height="128"/>
  <object id="2595" name="reflectwall" class="reflectwall" x="640" y="-1152" width="128" height="128"/>
  <object id="2596" name="reflectwall" class="reflectwall" x="640" y="-1280" width="128" height="128"/>
  <object id="2597" name="reflectwall" class="reflectwall" x="768" y="-1280" width="128" height="128"/>
  <object id="2598" name="reflectwall" class="reflectwall" x="896" y="-1280" width="128" height="128"/>
  <object id="2599" name="reflectwall" class="reflectwall" x="1024" y="-1280" width="128" height="128"/>
  <object id="2600" name="reflectwall" class="reflectwall" x="1152" y="-1280" width="128" height="128"/>
  <object id="2601" name="reflectwall" class="reflectwall" x="1280" y="-1280" width="128" height="128"/>
  <object id="2602" name="reflectwall" class="reflectwall" x="1280" y="-1152" width="128" height="128"/>
  <object id="2603" name="reflectwall" class="reflectwall" x="1280" y="-1024" width="128" height="128"/>
  <object id="2604" name="reflectwall" class="reflectwall" x="1280" y="-896" width="128" height="128"/>
  <object id="2605" name="reflectwall" class="reflectwall" x="1280" y="-768" width="128" height="128"/>
  <object id="2606" name="reflectwall" class="reflectwall" x="1280" y="-640" width="128" height="128"/>
  <object id="2607" name="reflectwall" class="reflectwall" x="1152" y="-640" width="128" height="128"/>
  <object id="2608" name="reflectwall" class="reflectwall" x="1024" y="-640" width="128" height="128"/>
  <object id="2609" name="reflectwall" class="reflectwall" x="1024" y="640" width="128" height="128"/>
  <object id="2610" name="reflectwall" class="reflectwall" x="1152" y="640" width="128" height="128"/>
  <object id="2611" name="reflectwall" class="reflectwall" x="1280" y="640" width="128" height="128"/>
  <object id="2612" name="reflectwall" class="reflectwall" x="1280" y="768" width="128" height="128"/>
  <object id="2613" name="reflectwall" class="reflectwall" x="1280" y="896" width="128" height="128"/>
  <object id="2614" name="reflectwall" class="reflectwall" x="1280" y="1024" width="128" height="128"/>
  <object id="2615" name="reflectwall" class="reflectwall" x="1280" y="1152" width="128" height="128"/>
  <object id="2616" name="reflectwall" class="reflectwall" x="1152" y="1280" width="128" height="128"/>
  <object id="2617" name="reflectwall" class="reflectwall" x="1280" y="1280" width="128" height="128"/>
  <object id="2618" name="reflectwall" class="reflectwall" x="1024" y="1280" width="128" height="128"/>
  <object id="2619" name="reflectwall" class="reflectwall" x="768" y="1280" width="128" height="128"/>
  <object id="2620" name="reflectwall" class="reflectwall" x="896" y="1280" width="128" height="128"/>
  <object id="2621" name="reflectwall" class="reflectwall" x="640" y="1280" width="128" height="128"/>
  <object id="2622" name="reflectwall" class="reflectwall" x="640" y="1152" width="128" height="128"/>
  <object id="2623" name="reflectwall" class="reflectwall" x="640" y="1024" width="128" height="128"/>
  <object id="2624" name="reflectwall" class="reflectwall" x="-640" y="1024" width="128" height="128"/>
  <object id="2625" name="reflectwall" class="reflectwall" x="-640" y="1280" width="128" height="128"/>
  <object id="2626" name="reflectwall" class="reflectwall" x="-640" y="1152" width="128" height="128"/>
  <object id="2627" name="reflectwall" class="reflectwall" x="-768" y="1280" width="128" height="128"/>
  <object id="2628" name="reflectwall" class="reflectwall" x="-896" y="1280" width="128" height="128"/>
  <object id="2629" name="reflectwall" class="reflectwall" x="-1152" y="1280" width="128" height="128"/>
  <object id="2630" name="reflectwall" class="reflectwall" x="-1280" y="1280" width="128" height="128"/>
  <object id="2631" name="reflectwall" class="reflectwall" x="-1024" y="1280" width="128" height="128"/>
  <object id="2632" name="reflectwall" class="reflectwall" x="-1280" y="1152" width="128" height="128"/>
  <object id="2633" name="reflectwall" class="reflectwall" x="-1280" y="1024" width="128" height="128"/>
  <object id="2634" name="reflectwall" class="reflectwall" x="-1280" y="896" width="128" height="128"/>
  <object id="2635" name="reflectwall" class="reflectwall" x="-1280" y="768" width="128" height="128"/>
  <object id="2636" name="reflectwall" class="reflectwall" x="-1280" y="640" width="128" height="128"/>
  <object id="2637" name="reflectwall" class="reflectwall" x="-1152" y="640" width="128" height="128"/>
  <object id="2638" name="reflectwall" class="reflectwall" x="-1024" y="640" width="128" height="128"/>
 </objectgroup>
 <objectgroup id="3" name="towers">
  <object id="2462" name="phantomtower" class="phantomtower" x="-640" y="-640" width="256" height="256">
   <ellipse/>
  </object>
  <object id="2463" name="phantomtower" class="phantomtower" x="512" y="-640" width="256" height="256">
   <ellipse/>
  </object>
  <object id="2464" name="phantomtower" class="phantomtower" x="-640" y="-384" width="256" height="256">
   <ellipse/>
  </object>
  <object id="2465" name="phantomtower" class="phantomtower" x="-384" y="-640" width="256" height="256">
   <ellipse/>
  </object>
  <object id="2466" name="phantomtower" class="phantomtower" x="256" y="-640" width="256" height="256">
   <ellipse/>
  </object>
  <object id="2467" name="phantomtower" class="phantomtower" x="512" y="-384" width="256" height="256">
   <ellipse/>
  </object>
  <object id="2559" name="phantomtower" class="phantomtower" x="-1152" y="1024" width="256" height="256">
   <ellipse/>
  </object>
  <object id="2560" name="phantomtower" class="phantomtower" x="-1152" y="768" width="256" height="256">
   <ellipse/>
  </object>
  <object id="2561" name="phantomtower" class="phantomtower" x="-896" y="1024" width="256" height="256">
   <ellipse/>
  </object>
  <object id="2562" name="phantomtower" class="phantomtower" x="768" y="1024" width="256" height="256">
   <ellipse/>
  </object>
  <object id="2563" name="phantomtower" class="phantomtower" x="1024" y="1024" width="256" height="256">
   <ellipse/>
  </object>
  <object id="2564" name="phantomtower" class="phantomtower" x="1024" y="768" width="256" height="256">
   <ellipse/>
  </object>
  <object id="2565" name="phantomtower" class="phantomtower" x="-256" y="1024" width="256" height="256">
   <ellipse/>
  </object>
  <object id="2566" name="phantomtower" class="phantomtower" x="128" y="1024" width="256" height="256">
   <ellipse/>
  </object>
  <object id="2567" name="phantomtower" class="phantomtower" x="1024" y="-256" width="256" height="256">
   <ellipse/>
  </object>
  <object id="2568" name="phantomtower" class="phantomtower" x="1024" y="128" width="256" height="256">
   <ellipse/>
  </object>
  <object id="2569" name="phantomtower" class="phantomtower" x="-1152" y="-256" width="256" height="256">
   <ellipse/>
  </object>
  <object id="2570" name="phantomtower" class="phantomtower" x="-1152" y="128" width="256" height="256">
   <ellipse/>
  </object>
  <object id="2571" name="phantomtower" class="phantomtower" x="-256" y="-1152" width="256" height="256">
   <ellipse/>
  </object>
  <object id="2572" name="phantomtower" class="phantomtower" x="128" y="-1152" width="256" height="256">
   <ellipse/>
  </object>
  <object id="2573" name="phantomtower" class="phantomtower" x="1024" y="-1152" width="256" height="256">
   <ellipse/>
  </object>
  <object id="2574" name="phantomtower" class="phantomtower" x="1024" y="-896" width="256" height="256">
   <ellipse/>
  </object>
  <object id="2575" name="phantomtower" class="phantomtower" x="768" y="-1152" width="256" height="256">
   <ellipse/>
  </object>
  <object id="2576" name="phantomtower" class="phantomtower" x="-1152" y="-1152" width="256" height="256">
   <ellipse/>
  </object>
  <object id="2577" name="phantomtower" class="phantomtower" x="-896" y="-1152" width="256" height="256">
   <ellipse/>
  </object>
  <object id="2578" name="phantomtower" class="phantomtower" x="-1152" y="-896" width="256" height="256">
   <ellipse/>
  </object>
 </objectgroup>
 <objectgroup id="4" name="platforms"/>
 <objectgroup id="5" name="guard_archers">
  <object id="2683" name="guardarcher" class="guardarcher" x="128" y="-640" width="128" height="128">
   <ellipse/>
  </object>
  <object id="2684" name="guardarcher" class="guardarcher" x="128" y="-512" width="128" height="128">
   <ellipse/>
  </object>
  <object id="2685" name="guardarcher" class="guardarcher" x="0" y="-512" width="128" height="128">
   <ellipse/>
  </object>
  <object id="2686" name="guardarcher" class="guardarcher" x="-128" y="-512" width="128" height="128">
   <ellipse/>
  </object>
  <object id="2687" name="guardarcher" class="guardarcher" x="-128" y="-640" width="128" height="128">
   <ellipse/>
  </object>
  <object id="2688" name="guardarcher" class="guardarcher" x="-128" y="640" width="128" height="128">
   <ellipse/>
  </object>
  <object id="2689" name="guardarcher" class="guardarcher" x="-128" y="512" width="128" height="128">
   <ellipse/>
  </object>
  <object id="2690" name="guardarcher" class="guardarcher" x="0" y="512" width="128" height="128">
   <ellipse/>
  </object>
  <object id="2691" name="guardarcher" class="guardarcher" x="128" y="512" width="128" height="128">
   <ellipse/>
  </object>
  <object id="2692" name="guardarcher" class="guardarcher" x="128" y="640" width="128" height="128">
   <ellipse/>
  </object>
 </objectgroup>
 <objectgroup id="6" name="guards">
  <object id="2693" name="zombie" class="zombie" x="-512" y="-1408" width="128" height="128">
   <ellipse/>
  </object>
  <object id="2694" name="zombie" class="zombie" x="-384" y="-1408" width="128" height="128">
   <ellipse/>
  </object>
  <object id="2695" name="zombie" class="zombie" x="-256" y="-1408" width="128" height="128">
   <ellipse/>
  </object>
  <object id="2696" name="zombie" class="zombie" x="-128" y="-1408" width="128" height="128">
   <ellipse/>
  </object>
  <object id="2697" name="zombie" class="zombie" x="0" y="-1408" width="128" height="128">
   <ellipse/>
  </object>
  <object id="2698" name="zombie" class="zombie" x="128" y="-1408" width="128" height="128">
   <ellipse/>
  </object>
  <object id="2699" name="zombie" class="zombie" x="256" y="-1408" width="128" height="128">
   <ellipse/>
  </object>
  <object id="2700" name="zombie" class="zombie" x="384" y="-1408" width="128" height="128">
   <ellipse/>
  </object>
  <object id="2701" name="zombie" class="zombie" x="512" y="-1408" width="128" height="128">
   <ellipse/>
  </object>
  <object id="2702" name="zombie" class="zombie" x="1408" y="-512" width="128" height="128">
   <ellipse/>
  </object>
  <object id="2703" name="zombie" class="zombie" x="1408" y="-384" width="128" height="128">
   <ellipse/>
  </object>
  <object id="2704" name="zombie" class="zombie" x="1408" y="-256" width="128" height="128">
   <ellipse/>
  </object>
  <object id="2705" name="zombie" class="zombie" x="1408" y="-128" width="128" height="128">
   <ellipse/>
  </object>
  <object id="2706" name="zombie" class="zombie" x="1408" y="0" width="128" height="128">
   <ellipse/>
  </object>
  <object id="2707" name="zombie" class="zombie" x="1408" y="128" width="128" height="128">
   <ellipse/>
  </object>
  <object id="2708" name="zombie" class="zombie" x="1408" y="256" width="128" height="128">
   <ellipse/>
  </object>
  <object id="2709" name="zombie" class="zombie" x="1408" y="384" width="128" height="128">
   <ellipse/>
  </object>
  <object id="2710" name="zombie" class="zombie" x="1408" y="512" width="128" height="128">
   <ellipse/>
  </object>
  <object id="2711" name="zombie" class="zombie" x="512" y="1408" width="128" height="128">
   <ellipse/>
  </object>
  <object id="2712" name="zombie" class="zombie" x="256" y="1408" width="128" height="128">
   <ellipse/>
  </object>
  <object id="2713" name="zombie" class="zombie" x="384" y="1408" width="128" height="128">
   <ellipse/>
  </object>
  <object id="2714" name="zombie" class="zombie" x="128" y="1408" width="128" height="128">
   <ellipse/>
  </object>
  <object id="2715" name="zombie" class="zombie" x="0" y="1408" width="128" height="128">
   <ellipse/>
  </object>
  <object id="2716" name="zombie" class="zombie" x="-128" y="1408" width="128" height="128">
   <ellipse/>
  </object>
  <object id="2717" name="zombie" class="zombie" x="-256" y="1408" width="128" height="128">
   <ellipse/>
  </object>
  <object id="2718" name="zombie" class="zombie" x="-384" y="1408" width="128" height="128">
   <ellipse/>
  </object>
  <object id="2719" name="zombie" class="zombie" x="-512" y="1408" width="128" height="128">
   <ellipse/>
  </object>
  <object id="2720" name="zombie" class="zombie" x="-1408" y="512" width="128" height="128">
   <ellipse/>
  </object>
  <object id="2721" name="zombie" class="zombie" x="-1408" y="384" width="128" height="128">
   <ellipse/>
  </object>
  <object id="2722" name="zombie" class="zombie" x="-1408" y="256" width="128" height="128">
   <ellipse/>
  </object>
  <object id="2723" name="zombie" class="zombie" x="-1408" y="128" width="128" height="128">
   <ellipse/>
  </object>
  <object id="2724" name="zombie" class="zombie" x="-1408" y="0" width="128" height="128">
   <ellipse/>
  </object>
  <object id="2725" name="zombie" class="zombie" x="-1408" y="-128" width="128" height="128">
   <ellipse/>
  </object>
  <object id="2726" name="zombie" class="zombie" x="-1408" y="-256" width="128" height="128">
   <ellipse/>
  </object>
  <object id="2727" name="zombie" class="zombie" x="-1408" y="-384" width="128" height="128">
   <ellipse/>
  </object>
  <object id="2728" name="zombie" class="zombie" x="-1408" y="-512" width="128" height="128">
   <ellipse/>
  </object>
  <object id="2729" name="zombie" class="zombie" x="-256" y="-256" width="128" height="128">
   <ellipse/>
  </object>
  <object id="2730" name="zombie" class="zombie" x="-384" y="-128" width="128" height="128">
   <ellipse/>
  </object>
  <object id="2731" name="zombie" class="zombie" x="-256" y="256" width="128" height="128">
   <ellipse/>
  </object>
  <object id="2732" name="zombie" class="zombie" x="0" y="384" width="128" height="128">
   <ellipse/>
  </object>
  <object id="2733" name="zombie" class="zombie" x="128" y="256" width="128" height="128">
   <ellipse/>
  </object>
  <object id="2734" name="zombie" class="zombie" x="384" y="0" width="128" height="128">
   <ellipse/>
  </object>
  <object id="2735" name="zombie" class="zombie" x="384" y="-128" width="128" height="128">
   <ellipse/>
  </object>
  <object id="2736" name="zombie" class="zombie" x="128" y="-256" width="128" height="128">
   <ellipse/>
  </object>
  <object id="2737" name="zombie" class="zombie" x="0" y="-384" width="128" height="128">
   <ellipse/>
  </object>
  <object id="2738" name="zombie" class="zombie" x="-1408" y="-1408" width="128" height="128">
   <ellipse/>
  </object>
  <object id="2739" name="zombie" class="zombie" x="-1280" y="-1408" width="128" height="128">
   <ellipse/>
  </object>
  <object id="2740" name="zombie" class="zombie" x="-1408" y="-1280" width="128" height="128">
   <ellipse/>
  </object>
  <object id="2741" name="zombie" class="zombie" x="-1408" y="-1152" width="128" height="128">
   <ellipse/>
  </object>
  <object id="2742" name="zombie" class="zombie" x="-1152" y="-1408" width="128" height="128">
   <ellipse/>
  </object>
  <object id="2743" name="zombie" class="zombie" x="1152" y="-1408" width="128" height="128">
   <ellipse/>
  </object>
  <object id="2744" name="zombie" class="zombie" x="1280" y="-1408" width="128" height="128">
   <ellipse/>
  </object>
  <object id="2745" name="zombie" class="zombie" x="1408" y="-1408" width="128" height="128">
   <ellipse/>
  </object>
  <object id="2746" name="zombie" class="zombie" x="1408" y="-1280" width="128" height="128">
   <ellipse/>
  </object>
  <object id="2747" name="zombie" class="zombie" x="1408" y="-1152" width="128" height="128">
   <ellipse/>
  </object>
  <object id="2748" name="zombie" class="zombie" x="1408" y="1152" width="128" height="128">
   <ellipse/>
  </object>
  <object id="2749" name="zombie" class="zombie" x="1408" y="1280" width="128" height="128">
   <ellipse/>
  </object>
  <object id="2750" name="zombie" class="zombie" x="1408" y="1408" width="128" height="128">
   <ellipse/>
  </object>
  <object id="2751" name="zombie" class="zombie" x="1152" y="1408" width="128" height="128">
   <ellipse/>
  </object>
  <object id="2752" name="zombie" class="zombie" x="1280" y="1408" width="128" height="128">
   <ellipse/>
  </object>
  <object id="2753" name="zombie" class="zombie" x="-1152" y="1408" width="128" height="128">
   <ellipse/>
  </object>
  <object id="2754" name="zombie" class="zombie" x="-1280" y="1408" width="128" height="128">
   <ellipse/>
  </object>
  <object id="2755" name="zombie" class="zombie" x="-1408" y="1408" width="128" height="128">
   <ellipse/>
  </object>
  <object id="2756" name="zombie" class="zombie" x="-1408" y="1280" width="128" height="128">
   <ellipse/>
  </object>
  <object id="2757" name="zombie" class="zombie" x="-1408" y="1152" width="128" height="128">
   <ellipse/>
  </object>
  <object id="2758" name="zombie" class="zombie" x="-1280" y="0" width="128" height="128">
   <ellipse/>
  </object>
  <object id="2761" name="zombie" class="zombie" x="1280" y="0" width="128" height="128">
   <ellipse/>
  </object>
 </objectgroup>
 <objectgroup id="8" name="traps"/>
 <objectgroup id="9" name="firewatchers">
  <object id="2469" name="firewatchertower" class="firewatchertower" x="0" y="-640" width="128" height="128"/>
  <object id="2470" name="platform" class="platform" x="-128" y="-640" width="128" height="128"/>
  <object id="2471" name="platform" class="platform" x="-128" y="-512" width="128" height="128"/>
  <object id="2472" name="platform" class="platform" x="0" y="-512" width="128" height="128"/>
  <object id="2473" name="platform" class="platform" x="128" y="-512" width="128" height="128"/>
  <object id="2474" name="platform" class="platform" x="128" y="-640" width="128" height="128"/>
  <object id="2484" name="deadwall" class="deadwall" x="0" y="896" width="128" height="128"/>
  <object id="2485" name="deadwall" class="deadwall" x="-128" y="768" width="128" height="128"/>
  <object id="2486" name="deadwall" class="deadwall" x="128" y="768" width="128" height="128"/>
  <object id="2487" name="deadwall" class="deadwall" x="-256" y="896" width="128" height="128"/>
  <object id="2488" name="deadwall" class="deadwall" x="-384" y="768" width="128" height="128"/>
  <object id="2489" name="deadwall" class="deadwall" x="256" y="896" width="128" height="128"/>
  <object id="2490" name="deadwall" class="deadwall" x="384" y="768" width="128" height="128"/>
  <object id="2491" name="deadwall" class="deadwall" x="-512" y="896" width="128" height="128"/>
  <object id="2492" name="deadwall" class="deadwall" x="512" y="896" width="128" height="128"/>
  <object id="2493" name="deadwall" class="deadwall" x="-640" y="768" width="128" height="128"/>
  <object id="2494" name="deadwall" class="deadwall" x="-768" y="896" width="128" height="128"/>
  <object id="2495" name="deadwall" class="deadwall" x="-768" y="640" width="128" height="128"/>
  <object id="2496" name="deadwall" class="deadwall" x="640" y="768" width="128" height="128"/>
  <object id="2497" name="deadwall" class="deadwall" x="768" y="896" width="128" height="128"/>
  <object id="2498" name="deadwall" class="deadwall" x="768" y="640" width="128" height="128"/>
  <object id="2499" name="deadwall" class="deadwall" x="-768" y="384" width="128" height="128"/>
  <object id="2500" name="deadwall" class="deadwall" x="-896" y="512" width="128" height="128"/>
  <object id="2501" name="deadwall" class="deadwall" x="-896" y="256" width="128" height="128"/>
  <object id="2502" name="deadwall" class="deadwall" x="-768" y="128" width="128" height="128"/>
  <object id="2503" name="deadwall" class="deadwall" x="768" y="128" width="128" height="128"/>
  <object id="2504" name="deadwall" class="deadwall" x="896" y="256" width="128" height="128"/>
  <object id="2505" name="deadwall" class="deadwall" x="768" y="384" width="128" height="128"/>
  <object id="2506" name="deadwall" class="deadwall" x="896" y="512" width="128" height="128"/>
  <object id="2507" name="deadwall" class="deadwall" x="-896" y="768" width="128" height="128"/>
  <object id="2508" name="deadwall" class="deadwall" x="896" y="768" width="128" height="128"/>
  <object id="2509" name="reflectwall" class="reflectwall" x="768" y="256" width="128" height="128"/>
  <object id="2510" name="reflectwall" class="reflectwall" x="896" y="128" width="128" height="128"/>
  <object id="2511" name="reflectwall" class="reflectwall" x="896" y="384" width="128" height="128"/>
  <object id="2512" name="reflectwall" class="reflectwall" x="768" y="512" width="128" height="128"/>
  <object id="2513" name="reflectwall" class="reflectwall" x="896" y="640" width="128" height="128"/>
  <object id="2514" name="reflectwall" class="reflectwall" x="768" y="768" width="128" height="128"/>
  <object id="2515" name="reflectwall" class="reflectwall" x="896" y="896" width="128" height="128"/>
  <object id="2516" name="reflectwall" class="reflectwall" x="640" y="896" width="128" height="128"/>
  <object id="2517" name="reflectwall" class="reflectwall" x="512" y="768" width="128" height="128"/>
  <object id="2518" name="reflectwall" class="reflectwall" x="384" y="896" width="128" height="128"/>
  <object id="2519" name="reflectwall" class="reflectwall" x="256" y="768" width="128" height="128"/>
  <object id="2520" name="reflectwall" class="reflectwall" x="128" y="896" width="128" height="128"/>
  <object id="2521" name="reflectwall" class="reflectwall" x="0" y="768" width="128" height="128"/>
  <object id="2522" name="reflectwall" class="reflectwall" x="-128" y="896" width="128" height="128"/>
  <object id="2523" name="reflectwall" class="reflectwall" x="-256" y="768" width="128" height="128"/>
  <object id="2524" name="reflectwall" class="reflectwall" x="-384" y="896" width="128" height="128"/>
  <object id="2525" name="reflectwall" class="reflectwall" x="-512" y="768" width="128" height="128"/>
  <object id="2526" name="reflectwall" class="reflectwall" x="-640" y="896" width="128" height="128"/>
  <object id="2527" name="reflectwall" class="reflectwall" x="-768" y="768" width="128" height="128"/>
  <object id="2528" name="reflectwall" class="reflectwall" x="-896" y="896" width="128" height="128"/>
  <object id="2529" name="reflectwall" class="reflectwall" x="-896" y="640" width="128" height="128"/>
  <object id="2530" name="reflectwall" class="reflectwall" x="-768" y="512" width="128" height="128"/>
  <object id="2531" name="reflectwall" class="reflectwall" x="-896" y="384" width="128" height="128"/>
  <object id="2532" name="reflectwall" class="reflectwall" x="-768" y="256" width="128" height="128"/>
  <object id="2533" name="reflectwall" class="reflectwall" x="-896" y="128" width="128" height="128"/>
  <object id="2534" name="phantomtower" class="phantomtower" x="-640" y="512" width="256" height="256">
   <ellipse/>
  </object>
  <object id="2535" name="phantomtower" class="phantomtower" x="512" y="512" width="256" height="256">
   <ellipse/>
  </object>
  <object id="2536" name="phantomtower" class="phantomtower" x="-640" y="256" width="256" height="256">
   <ellipse/>
  </object>
  <object id="2537" name="phantomtower" class="phantomtower" x="-384" y="512" width="256" height="256">
   <ellipse/>
  </object>
  <object id="2538" name="phantomtower" class="phantomtower" x="256" y="512" width="256" height="256">
   <ellipse/>
  </object>
  <object id="2539" name="phantomtower" class="phantomtower" x="512" y="256" width="256" height="256">
   <ellipse/>
  </object>
  <object id="2540" name="firewatchertower" class="firewatchertower" x="0" y="640" width="128" height="128"/>
  <object id="2541" name="platform" class="platform" x="-128" y="640" width="128" height="128"/>
  <object id="2542" name="platform" class="platform" x="-128" y="512" width="128" height="128"/>
  <object id="2543" name="platform" class="platform" x="0" y="512" width="128" height="128"/>
  <object id="2544" name="platform" class="platform" x="128" y="512" width="128" height="128"/>
  <object id="2545" name="platform" class="platform" x="128" y="640" width="128" height="128"/>
  <object id="2639" name="deaddoor" class="deaddoor" x="-768" y="0" width="128" height="128"/>
  <object id="2640" name="deaddoor" class="deaddoor" x="-896" y="0" width="128" height="128"/>
  <object id="2641" name="deaddoor" class="deaddoor" x="896" y="0" width="128" height="128"/>
  <object id="2642" name="deaddoor" class="deaddoor" x="768" y="0" width="128" height="128"/>
  <object id="2643" name="firewatchertower" class="firewatchertower" x="-640" y="128" width="128" height="128"/>
  <object id="2644" name="firewatchertower" class="firewatchertower" x="-640" y="-128" width="128" height="128"/>
  <object id="2645" name="firewatchertower" class="firewatchertower" x="640" y="-128" width="128" height="128"/>
  <object id="2646" name="firewatchertower" class="firewatchertower" x="640" y="128" width="128" height="128"/>
  <object id="2647" name="firewatchertower" class="firewatchertower" x="-384" y="-384" width="128" height="128"/>
  <object id="2648" name="firewatchertower" class="firewatchertower" x="384" y="-384" width="128" height="128"/>
  <object id="2649" name="firewatchertower" class="firewatchertower" x="384" y="384" width="128" height="128"/>
  <object id="2650" name="firewatchertower" class="firewatchertower" x="-384" y="384" width="128" height="128"/>
  <object id="2651" name="firewatchertower" class="firewatchertower" x="512" y="-1024" width="128" height="128"/>
  <object id="2652" name="firewatchertower" class="firewatchertower" x="-512" y="-1024" width="128" height="128"/>
  <object id="2653" name="firewatchertower" class="firewatchertower" x="-512" y="1024" width="128" height="128"/>
  <object id="2654" name="firewatchertower" class="firewatchertower" x="512" y="1024" width="128" height="128"/>
  <object id="2655" name="firewatchertower" class="firewatchertower" x="1024" y="512" width="128" height="128"/>
  <object id="2656" name="firewatchertower" class="firewatchertower" x="-1024" y="512" width="128" height="128"/>
  <object id="2657" name="firewatchertower" class="firewatchertower" x="-1024" y="-512" width="128" height="128"/>
  <object id="2658" name="firewatchertower" class="firewatchertower" x="1024" y="-512" width="128" height="128"/>
 </objectgroup>
 <objectgroup id="10" name="main">
  <object id="2410" name="main" class="swampchest" x="0" y="0" width="128" height="128"/>
  <object id="2659" name="foreignheartstone" class="foreignheartstone" x="128" y="0" width="128" height="128"/>
  <object id="2660" name="foreignheartstone" class="foreignheartstone" x="128" y="-128" width="128" height="128"/>
  <object id="2661" name="foreignheartstone" class="foreignheartstone" x="0" y="-128" width="128" height="128"/>
  <object id="2662" name="foreignheartstone" class="foreignheartstone" x="-128" y="-128" width="128" height="128"/>
  <object id="2663" name="foreignheartstone" class="foreignheartstone" x="-128" y="0" width="128" height="128"/>
  <object id="2664" name="foreignheartstone" class="foreignheartstone" x="-128" y="128" width="128" height="128"/>
  <object id="2665" name="foreignheartstone" class="foreignheartstone" x="0" y="128" width="128" height="128"/>
  <object id="2666" name="foreignheartstone" class="foreignheartstone" x="128" y="128" width="128" height="128"/>
  <object id="2667" name="foreignheartstone" class="foreignheartstone" x="256" y="0" width="128" height="128"/>
  <object id="2668" name="foreignheartstone" class="foreignheartstone" x="0" y="-256" width="128" height="128"/>
  <object id="2669" name="foreignheartstone" class="foreignheartstone" x="-256" y="0" width="128" height="128"/>
  <object id="2670" name="foreignheartstone" class="foreignheartstone" x="0" y="256" width="128" height="128"/>
  <object id="2671" name="foreignheartstone" class="foreignheartstone" x="256" y="-384" width="128" height="128"/>
  <object id="2672" name="foreignheartstone" class="foreignheartstone" x="384" y="-256" width="128" height="128"/>
  <object id="2673" name="foreignheartstone" class="foreignheartstone" x="-256" y="-384" width="128" height="128"/>
  <object id="2674" name="foreignheartstone" class="foreignheartstone" x="-384" y="-256" width="128" height="128"/>
  <object id="2675" name="foreignheartstone" class="foreignheartstone" x="-384" y="256" width="128" height="128"/>
  <object id="2676" name="foreignheartstone" class="foreignheartstone" x="-256" y="384" width="128" height="128"/>
  <object id="2677" name="foreignheartstone" class="foreignheartstone" x="256" y="384" width="128" height="128"/>
  <object id="2678" name="foreignheartstone" class="foreignheartstone" x="384" y="256" width="128" height="128"/>
  <object id="2679" name="foreignheartstone" class="foreignheartstone" x="512" y="-128" width="128" height="128"/>
  <object id="2680" name="foreignheartstone" class="foreignheartstone" x="-512" y="-128" width="128" height="128"/>
  <object id="2681" name="foreignheartstone" class="foreignheartstone" x="-512" y="128" width="128" height="128"/>
  <object id="2682" name="foreignheartstone" class="foreignheartstone" x="512" y="128" width="128" height="128"/>
  <object id="3086" name="pumpkinlamp" class="pumpkinlamp" x="-128" y="-384" width="128" height="128">
   <ellipse/>
  </object>
  <object id="3087" name="pumpkinlamp" class="pumpkinlamp" x="128" y="-384" width="128" height="128">
   <ellipse/>
  </object>
  <object id="3088" name="pumpkinlamp" class="pumpkinlamp" x="128" y="384" width="128" height="128">
   <ellipse/>
  </object>
  <object id="3089" name="pumpkinlamp" class="pumpkinlamp" x="-128" y="384" width="128" height="128">
   <ellipse/>
  </object>
  <object id="3090" name="pumpkinlamp" class="pumpkinlamp" x="0" y="-1024" width="128" height="128">
   <ellipse/>
  </object>
  <object id="3091" name="pumpkinlamp" class="pumpkinlamp" x="0" y="1152" width="128" height="128">
   <ellipse/>
  </object>
 </objectgroup>
</map>
