<?xml version="1.0" encoding="UTF-8"?>
<map version="1.9" tiledversion="1.9.2" orientation="orthogonal" renderorder="right-down" width="10" height="10" tilewidth="128" tileheight="128" infinite="1" nextlayerid="14" nextobjectid="2506">
 <objectgroup id="12" name="floor">
  <object id="2267" name="decorativefloorhalloween1" class="decorativefloorhalloween1" x="0" y="0" width="128" height="128"/>
  <object id="2268" name="decorativefloorhalloween1" class="decorativefloorhalloween1" x="128" y="-128" width="128" height="128"/>
  <object id="2269" name="decorativefloorhalloween1" class="decorativefloorhalloween1" x="128" y="0" width="128" height="128"/>
  <object id="2270" name="decorativefloorhalloween1" class="decorativefloorhalloween1" x="128" y="128" width="128" height="128"/>
  <object id="2271" name="decorativefloorhalloween1" class="decorativefloorhalloween1" x="0" y="128" width="128" height="128"/>
  <object id="2272" name="decorativefloorhalloween1" class="decorativefloorhalloween1" x="-128" y="128" width="128" height="128"/>
  <object id="2273" name="decorativefloorhalloween1" class="decorativefloorhalloween1" x="-128" y="-128" width="128" height="128"/>
  <object id="2274" name="decorativefloorhalloween1" class="decorativefloorhalloween1" x="0" y="-128" width="128" height="128"/>
  <object id="2275" name="decorativefloorhalloween1" class="decorativefloorhalloween1" x="-128" y="0" width="128" height="128"/>
  <object id="2301" name="decorativefloorhalloween1" class="decorativefloorhalloween1" x="384" y="-256" width="128" height="128"/>
  <object id="2302" name="decorativefloorhalloween1" class="decorativefloorhalloween1" x="384" y="-384" width="128" height="128"/>
  <object id="2303" name="decorativefloorhalloween1" class="decorativefloorhalloween1" x="256" y="-384" width="128" height="128"/>
  <object id="2304" name="decorativefloorhalloween1" class="decorativefloorhalloween1" x="128" y="-384" width="128" height="128"/>
  <object id="2306" name="decorativefloorhalloween1" class="decorativefloorhalloween1" x="-128" y="-384" width="128" height="128"/>
  <object id="2307" name="decorativefloorhalloween1" class="decorativefloorhalloween1" x="-256" y="-384" width="128" height="128"/>
  <object id="2308" name="decorativefloorhalloween1" class="decorativefloorhalloween1" x="-384" y="-384" width="128" height="128"/>
  <object id="2309" name="decorativefloorhalloween1" class="decorativefloorhalloween1" x="-384" y="-256" width="128" height="128"/>
  <object id="2310" name="decorativefloorhalloween1" class="decorativefloorhalloween1" x="-384" y="-128" width="128" height="128"/>
  <object id="2312" name="decorativefloorhalloween1" class="decorativefloorhalloween1" x="-384" y="128" width="128" height="128"/>
  <object id="2313" name="decorativefloorhalloween1" class="decorativefloorhalloween1" x="-384" y="256" width="128" height="128"/>
  <object id="2314" name="decorativefloorhalloween1" class="decorativefloorhalloween1" x="-384" y="384" width="128" height="128"/>
  <object id="2315" name="decorativefloorhalloween1" class="decorativefloorhalloween1" x="-256" y="384" width="128" height="128"/>
  <object id="2316" name="decorativefloorhalloween1" class="decorativefloorhalloween1" x="-128" y="384" width="128" height="128"/>
  <object id="2318" name="decorativefloorhalloween1" class="decorativefloorhalloween1" x="128" y="384" width="128" height="128"/>
  <object id="2319" name="decorativefloorhalloween1" class="decorativefloorhalloween1" x="256" y="384" width="128" height="128"/>
  <object id="2320" name="decorativefloorhalloween1" class="decorativefloorhalloween1" x="384" y="384" width="128" height="128"/>
  <object id="2321" name="decorativefloorhalloween1" class="decorativefloorhalloween1" x="384" y="256" width="128" height="128"/>
  <object id="2322" name="decorativefloorhalloween1" class="decorativefloorhalloween1" x="384" y="128" width="128" height="128"/>
  <object id="2323" name="decorativefloorhalloween2" class="decorativefloorhalloween2" x="384" y="0" width="128" height="128"/>
  <object id="2324" name="decorativefloorhalloween1" class="decorativefloorhalloween1" x="384" y="-128" width="128" height="128"/>
  <object id="2325" name="decorativefloorhalloween2" class="decorativefloorhalloween2" x="0" y="-384" width="128" height="128"/>
  <object id="2326" name="decorativefloorhalloween2" class="decorativefloorhalloween2" x="0" y="384" width="128" height="128"/>
  <object id="2327" name="decorativefloorhalloween2" class="decorativefloorhalloween2" x="-384" y="0" width="128" height="128"/>
  <object id="2328" name="decorativefloorhalloween2" class="decorativefloorhalloween2" x="-512" y="0" width="128" height="128"/>
  <object id="2329" name="decorativefloorhalloween2" class="decorativefloorhalloween2" x="-512" y="-128" width="128" height="128"/>
  <object id="2330" name="decorativefloorhalloween2" class="decorativefloorhalloween2" x="-512" y="128" width="128" height="128"/>
  <object id="2331" name="decorativefloorhalloween2" class="decorativefloorhalloween2" x="-640" y="128" width="128" height="128"/>
  <object id="2332" name="decorativefloorhalloween2" class="decorativefloorhalloween2" x="-640" y="0" width="128" height="128"/>
  <object id="2333" name="decorativefloorhalloween2" class="decorativefloorhalloween2" x="-640" y="-128" width="128" height="128"/>
  <object id="2334" name="decorativefloorhalloween2" class="decorativefloorhalloween2" x="-128" y="-512" width="128" height="128"/>
  <object id="2335" name="decorativefloorhalloween2" class="decorativefloorhalloween2" x="128" y="-512" width="128" height="128"/>
  <object id="2336" name="decorativefloorhalloween2" class="decorativefloorhalloween2" x="0" y="-512" width="128" height="128"/>
  <object id="2337" name="decorativefloorhalloween2" class="decorativefloorhalloween2" x="-128" y="-640" width="128" height="128"/>
  <object id="2338" name="decorativefloorhalloween2" class="decorativefloorhalloween2" x="0" y="-640" width="128" height="128"/>
  <object id="2339" name="decorativefloorhalloween2" class="decorativefloorhalloween2" x="128" y="-640" width="128" height="128"/>
  <object id="2340" name="decorativefloorhalloween2" class="decorativefloorhalloween2" x="512" y="-128" width="128" height="128"/>
  <object id="2341" name="decorativefloorhalloween2" class="decorativefloorhalloween2" x="512" y="128" width="128" height="128"/>
  <object id="2342" name="decorativefloorhalloween2" class="decorativefloorhalloween2" x="512" y="0" width="128" height="128"/>
  <object id="2343" name="decorativefloorhalloween2" class="decorativefloorhalloween2" x="640" y="0" width="128" height="128"/>
  <object id="2344" name="decorativefloorhalloween2" class="decorativefloorhalloween2" x="640" y="-128" width="128" height="128"/>
  <object id="2345" name="decorativefloorhalloween2" class="decorativefloorhalloween2" x="640" y="128" width="128" height="128"/>
  <object id="2346" name="decorativefloorhalloween2" class="decorativefloorhalloween2" x="128" y="512" width="128" height="128"/>
  <object id="2347" name="decorativefloorhalloween2" class="decorativefloorhalloween2" x="0" y="512" width="128" height="128"/>
  <object id="2348" name="decorativefloorhalloween2" class="decorativefloorhalloween2" x="-128" y="512" width="128" height="128"/>
  <object id="2349" name="decorativefloorhalloween2" class="decorativefloorhalloween2" x="-128" y="640" width="128" height="128"/>
  <object id="2350" name="decorativefloorhalloween2" class="decorativefloorhalloween2" x="0" y="640" width="128" height="128"/>
  <object id="2351" name="decorativefloorhalloween2" class="decorativefloorhalloween2" x="128" y="640" width="128" height="128"/>
  <object id="2352" name="decorativefloorhalloween2" class="decorativefloorhalloween2" x="512" y="-512" width="128" height="128"/>
  <object id="2353" name="decorativefloorhalloween2" class="decorativefloorhalloween2" x="640" y="-640" width="128" height="128"/>
  <object id="2354" name="decorativefloorhalloween2" class="decorativefloorhalloween2" x="-512" y="-512" width="128" height="128"/>
  <object id="2355" name="decorativefloorhalloween2" class="decorativefloorhalloween2" x="-640" y="-640" width="128" height="128"/>
  <object id="2356" name="decorativefloorhalloween2" class="decorativefloorhalloween2" x="512" y="512" width="128" height="128"/>
  <object id="2357" name="decorativefloorhalloween2" class="decorativefloorhalloween2" x="640" y="640" width="128" height="128"/>
  <object id="2358" name="decorativefloorhalloween2" class="decorativefloorhalloween2" x="-512" y="512" width="128" height="128"/>
  <object id="2359" name="decorativefloorhalloween2" class="decorativefloorhalloween2" x="-640" y="640" width="128" height="128"/>
  <object id="2360" name="decorativefloorhalloween1" class="decorativefloorhalloween1" x="-512" y="-256" width="128" height="128"/>
  <object id="2361" name="decorativefloorhalloween1" class="decorativefloorhalloween1" x="-640" y="-256" width="128" height="128"/>
  <object id="2362" name="decorativefloorhalloween1" class="decorativefloorhalloween1" x="-640" y="-384" width="128" height="128"/>
  <object id="2363" name="decorativefloorhalloween1" class="decorativefloorhalloween1" x="-640" y="-512" width="128" height="128"/>
  <object id="2364" name="decorativefloorhalloween1" class="decorativefloorhalloween1" x="-512" y="-384" width="128" height="128"/>
  <object id="2365" name="decorativefloorhalloween1" class="decorativefloorhalloween1" x="-512" y="-640" width="128" height="128"/>
  <object id="2366" name="decorativefloorhalloween1" class="decorativefloorhalloween1" x="-384" y="-640" width="128" height="128"/>
  <object id="2367" name="decorativefloorhalloween1" class="decorativefloorhalloween1" x="-256" y="-640" width="128" height="128"/>
  <object id="2368" name="decorativefloorhalloween1" class="decorativefloorhalloween1" x="-256" y="-512" width="128" height="128"/>
  <object id="2369" name="decorativefloorhalloween1" class="decorativefloorhalloween1" x="-384" y="-512" width="128" height="128"/>
  <object id="2370" name="decorativefloorhalloween1" class="decorativefloorhalloween1" x="256" y="-640" width="128" height="128"/>
  <object id="2371" name="decorativefloorhalloween1" class="decorativefloorhalloween1" x="256" y="-512" width="128" height="128"/>
  <object id="2372" name="decorativefloorhalloween1" class="decorativefloorhalloween1" x="384" y="-512" width="128" height="128"/>
  <object id="2373" name="decorativefloorhalloween1" class="decorativefloorhalloween1" x="384" y="-640" width="128" height="128"/>
  <object id="2374" name="decorativefloorhalloween1" class="decorativefloorhalloween1" x="512" y="-640" width="128" height="128"/>
  <object id="2375" name="decorativefloorhalloween1" class="decorativefloorhalloween1" x="640" y="-512" width="128" height="128"/>
  <object id="2376" name="decorativefloorhalloween1" class="decorativefloorhalloween1" x="640" y="-384" width="128" height="128"/>
  <object id="2377" name="decorativefloorhalloween1" class="decorativefloorhalloween1" x="640" y="-256" width="128" height="128"/>
  <object id="2378" name="decorativefloorhalloween1" class="decorativefloorhalloween1" x="512" y="-256" width="128" height="128"/>
  <object id="2379" name="decorativefloorhalloween1" class="decorativefloorhalloween1" x="512" y="-384" width="128" height="128"/>
  <object id="2380" name="decorativefloorhalloween1" class="decorativefloorhalloween1" x="512" y="256" width="128" height="128"/>
  <object id="2381" name="decorativefloorhalloween1" class="decorativefloorhalloween1" x="640" y="256" width="128" height="128"/>
  <object id="2382" name="decorativefloorhalloween1" class="decorativefloorhalloween1" x="640" y="384" width="128" height="128"/>
  <object id="2383" name="decorativefloorhalloween1" class="decorativefloorhalloween1" x="640" y="512" width="128" height="128"/>
  <object id="2384" name="decorativefloorhalloween1" class="decorativefloorhalloween1" x="512" y="384" width="128" height="128"/>
  <object id="2385" name="decorativefloorhalloween1" class="decorativefloorhalloween1" x="512" y="640" width="128" height="128"/>
  <object id="2386" name="decorativefloorhalloween1" class="decorativefloorhalloween1" x="384" y="640" width="128" height="128"/>
  <object id="2387" name="decorativefloorhalloween1" class="decorativefloorhalloween1" x="256" y="640" width="128" height="128"/>
  <object id="2388" name="decorativefloorhalloween1" class="decorativefloorhalloween1" x="256" y="512" width="128" height="128"/>
  <object id="2389" name="decorativefloorhalloween1" class="decorativefloorhalloween1" x="384" y="512" width="128" height="128"/>
  <object id="2390" name="decorativefloorhalloween1" class="decorativefloorhalloween1" x="-256" y="512" width="128" height="128"/>
  <object id="2391" name="decorativefloorhalloween1" class="decorativefloorhalloween1" x="-384" y="512" width="128" height="128"/>
  <object id="2392" name="decorativefloorhalloween1" class="decorativefloorhalloween1" x="-512" y="640" width="128" height="128"/>
  <object id="2393" name="decorativefloorhalloween1" class="decorativefloorhalloween1" x="-384" y="640" width="128" height="128"/>
  <object id="2394" name="decorativefloorhalloween1" class="decorativefloorhalloween1" x="-256" y="640" width="128" height="128"/>
  <object id="2395" name="decorativefloorhalloween1" class="decorativefloorhalloween1" x="-512" y="384" width="128" height="128"/>
  <object id="2396" name="decorativefloorhalloween1" class="decorativefloorhalloween1" x="-512" y="256" width="128" height="128"/>
  <object id="2397" name="decorativefloorhalloween1" class="decorativefloorhalloween1" x="-640" y="256" width="128" height="128"/>
  <object id="2398" name="decorativefloorhalloween1" class="decorativefloorhalloween1" x="-640" y="384" width="128" height="128"/>
  <object id="2399" name="decorativefloorhalloween1" class="decorativefloorhalloween1" x="-640" y="512" width="128" height="128"/>
 </objectgroup>
 <objectgroup id="2" name="walls">
  <object id="2285" name="rockwall" class="rockwall" x="128" y="-256" width="128" height="128"/>
  <object id="2286" name="rockwall" class="rockwall" x="0" y="-256" width="128" height="128"/>
  <object id="2287" name="rockwall" class="rockwall" x="-128" y="-256" width="128" height="128"/>
  <object id="2288" name="rockwall" class="rockwall" x="-256" y="-256" width="128" height="128"/>
  <object id="2289" name="rockwall" class="rockwall" x="-256" y="-128" width="128" height="128"/>
  <object id="2290" name="rockwall" class="rockwall" x="-256" y="0" width="128" height="128"/>
  <object id="2291" name="rockwall" class="rockwall" x="-256" y="128" width="128" height="128"/>
  <object id="2292" name="rockwall" class="rockwall" x="-256" y="256" width="128" height="128"/>
  <object id="2293" name="rockwall" class="rockwall" x="-128" y="256" width="128" height="128"/>
  <object id="2294" name="rockwall" class="rockwall" x="0" y="256" width="128" height="128"/>
  <object id="2295" name="rockwall" class="rockwall" x="128" y="256" width="128" height="128"/>
  <object id="2296" name="rockwall" class="rockwall" x="256" y="256" width="128" height="128"/>
  <object id="2297" name="rockwall" class="rockwall" x="256" y="128" width="128" height="128"/>
  <object id="2298" name="rockwall" class="rockwall" x="256" y="0" width="128" height="128"/>
  <object id="2299" name="rockwall" class="rockwall" x="256" y="-128" width="128" height="128"/>
  <object id="2300" name="rockwall" class="rockwall" x="256" y="-256" width="128" height="128"/>
  <object id="2400" name="rockwall" class="rockwall" x="768" y="-256" width="128" height="128"/>
  <object id="2401" name="rockwall" class="rockwall" x="768" y="-384" width="128" height="128"/>
  <object id="2402" name="rockwall" class="rockwall" x="768" y="-512" width="128" height="128"/>
  <object id="2403" name="rockwall" class="rockwall" x="768" y="-640" width="128" height="128"/>
  <object id="2404" name="rockwall" class="rockwall" x="768" y="-768" width="128" height="128"/>
  <object id="2405" name="rockwall" class="rockwall" x="640" y="-768" width="128" height="128"/>
  <object id="2406" name="rockwall" class="rockwall" x="512" y="-768" width="128" height="128"/>
  <object id="2407" name="rockwall" class="rockwall" x="384" y="-768" width="128" height="128"/>
  <object id="2408" name="rockwall" class="rockwall" x="256" y="-768" width="128" height="128"/>
  <object id="2409" name="rockwall" class="rockwall" x="-256" y="-768" width="128" height="128"/>
  <object id="2410" name="rockwall" class="rockwall" x="-384" y="-768" width="128" height="128"/>
  <object id="2411" name="rockwall" class="rockwall" x="-512" y="-768" width="128" height="128"/>
  <object id="2412" name="rockwall" class="rockwall" x="-640" y="-768" width="128" height="128"/>
  <object id="2413" name="rockwall" class="rockwall" x="-768" y="-768" width="128" height="128"/>
  <object id="2414" name="rockwall" class="rockwall" x="-768" y="-640" width="128" height="128"/>
  <object id="2415" name="rockwall" class="rockwall" x="-768" y="-512" width="128" height="128"/>
  <object id="2416" name="rockwall" class="rockwall" x="-768" y="-384" width="128" height="128"/>
  <object id="2417" name="rockwall" class="rockwall" x="-768" y="-256" width="128" height="128"/>
  <object id="2418" name="rockwall" class="rockwall" x="-768" y="256" width="128" height="128"/>
  <object id="2419" name="rockwall" class="rockwall" x="-768" y="384" width="128" height="128"/>
  <object id="2420" name="rockwall" class="rockwall" x="-768" y="512" width="128" height="128"/>
  <object id="2421" name="rockwall" class="rockwall" x="-768" y="640" width="128" height="128"/>
  <object id="2422" name="rockwall" class="rockwall" x="-768" y="768" width="128" height="128"/>
  <object id="2423" name="rockwall" class="rockwall" x="-640" y="768" width="128" height="128"/>
  <object id="2424" name="rockwall" class="rockwall" x="-384" y="768" width="128" height="128"/>
  <object id="2425" name="rockwall" class="rockwall" x="-256" y="768" width="128" height="128"/>
  <object id="2426" name="rockwall" class="rockwall" x="-512" y="768" width="128" height="128"/>
  <object id="2427" name="rockwall" class="rockwall" x="256" y="768" width="128" height="128"/>
  <object id="2428" name="rockwall" class="rockwall" x="384" y="768" width="128" height="128"/>
  <object id="2429" name="rockwall" class="rockwall" x="512" y="768" width="128" height="128"/>
  <object id="2430" name="rockwall" class="rockwall" x="640" y="768" width="128" height="128"/>
  <object id="2431" name="rockwall" class="rockwall" x="768" y="768" width="128" height="128"/>
  <object id="2432" name="rockwall" class="rockwall" x="768" y="640" width="128" height="128"/>
  <object id="2433" name="rockwall" class="rockwall" x="768" y="512" width="128" height="128"/>
  <object id="2434" name="rockwall" class="rockwall" x="768" y="384" width="128" height="128"/>
  <object id="2435" name="rockwall" class="rockwall" x="768" y="256" width="128" height="128"/>
 </objectgroup>
 <objectgroup id="3" name="towers">
  <object id="2436" name="stonearchertower" class="stonearchertower" x="512" y="-640" width="256" height="256">
   <ellipse/>
  </object>
  <object id="2437" name="stonearchertower" class="stonearchertower" x="-640" y="-640" width="256" height="256">
   <ellipse/>
  </object>
  <object id="2438" name="stonearchertower" class="stonearchertower" x="-640" y="512" width="256" height="256">
   <ellipse/>
  </object>
  <object id="2439" name="stonearchertower" class="stonearchertower" x="512" y="512" width="256" height="256">
   <ellipse/>
  </object>
 </objectgroup>
 <objectgroup id="4" name="platforms">
  <object id="2276" name="platform" class="platform" x="128" y="-128" width="128" height="128"/>
  <object id="2277" name="platform" class="platform" x="128" y="128" width="128" height="128"/>
  <object id="2278" name="platform" class="platform" x="-128" y="128" width="128" height="128"/>
  <object id="2279" name="platform" class="platform" x="-128" y="-128" width="128" height="128"/>
 </objectgroup>
 <objectgroup id="5" name="guard_archers">
  <object id="2280" name="guardarcher" class="guardarcher" x="128" y="-128" width="128" height="128">
   <ellipse/>
  </object>
  <object id="2281" name="guardarcher" class="guardarcher" x="-128" y="-128" width="128" height="128">
   <ellipse/>
  </object>
  <object id="2282" name="guardarcher" class="guardarcher" x="-128" y="128" width="128" height="128">
   <ellipse/>
  </object>
  <object id="2283" name="guardarcher" class="guardarcher" x="128" y="128" width="128" height="128">
   <ellipse/>
  </object>
 </objectgroup>
 <objectgroup id="7" name="wood_spikes">
  <object id="2263" name="pumpkinlamp" class="pumpkinlamp" x="0" y="-128" width="128" height="128">
   <ellipse/>
  </object>
  <object id="2264" name="pumpkinlamp" class="pumpkinlamp" x="0" y="128" width="128" height="128">
   <ellipse/>
  </object>
  <object id="2462" name="deadwoodspikes" class="deadwoodspikes" x="768" y="-128" width="128" height="128"/>
  <object id="2463" name="deadwoodspikes" class="deadwoodspikes" x="768" y="0" width="128" height="128"/>
  <object id="2464" name="deadwoodspikes" class="deadwoodspikes" x="768" y="128" width="128" height="128"/>
  <object id="2465" name="deadwoodspikes" class="deadwoodspikes" x="128" y="768" width="128" height="128"/>
  <object id="2466" name="deadwoodspikes" class="deadwoodspikes" x="0" y="768" width="128" height="128"/>
  <object id="2467" name="deadwoodspikes" class="deadwoodspikes" x="-128" y="768" width="128" height="128"/>
  <object id="2468" name="deadwoodspikes" class="deadwoodspikes" x="-768" y="128" width="128" height="128"/>
  <object id="2469" name="deadwoodspikes" class="deadwoodspikes" x="-768" y="0" width="128" height="128"/>
  <object id="2470" name="deadwoodspikes" class="deadwoodspikes" x="-768" y="-128" width="128" height="128"/>
  <object id="2471" name="deadwoodspikes" class="deadwoodspikes" x="-128" y="-768" width="128" height="128"/>
  <object id="2472" name="deadwoodspikes" class="deadwoodspikes" x="0" y="-768" width="128" height="128"/>
  <object id="2473" name="deadwoodspikes" class="deadwoodspikes" x="128" y="-768" width="128" height="128"/>
  <object id="2474" name="deadwoodspikes" class="deadwoodspikes" x="-384" y="640" width="128" height="128"/>
  <object id="2475" name="deadwoodspikes" class="deadwoodspikes" x="-384" y="512" width="128" height="128"/>
  <object id="2476" name="deadwoodspikes" class="deadwoodspikes" x="-512" y="384" width="128" height="128"/>
  <object id="2477" name="deadwoodspikes" class="deadwoodspikes" x="-640" y="384" width="128" height="128"/>
  <object id="2478" name="deadwoodspikes" class="deadwoodspikes" x="384" y="640" width="128" height="128"/>
  <object id="2479" name="deadwoodspikes" class="deadwoodspikes" x="384" y="512" width="128" height="128"/>
  <object id="2480" name="deadwoodspikes" class="deadwoodspikes" x="512" y="384" width="128" height="128"/>
  <object id="2481" name="deadwoodspikes" class="deadwoodspikes" x="640" y="384" width="128" height="128"/>
  <object id="2482" name="deadwoodspikes" class="deadwoodspikes" x="640" y="-384" width="128" height="128"/>
  <object id="2483" name="deadwoodspikes" class="deadwoodspikes" x="512" y="-384" width="128" height="128"/>
  <object id="2484" name="deadwoodspikes" class="deadwoodspikes" x="384" y="-512" width="128" height="128"/>
  <object id="2485" name="deadwoodspikes" class="deadwoodspikes" x="384" y="-640" width="128" height="128"/>
  <object id="2486" name="deadwoodspikes" class="deadwoodspikes" x="-384" y="-640" width="128" height="128"/>
  <object id="2487" name="deadwoodspikes" class="deadwoodspikes" x="-384" y="-512" width="128" height="128"/>
  <object id="2488" name="deadwoodspikes" class="deadwoodspikes" x="-512" y="-384" width="128" height="128"/>
  <object id="2489" name="deadwoodspikes" class="deadwoodspikes" x="-640" y="-384" width="128" height="128"/>
 </objectgroup>
 <objectgroup id="6" name="guards">
  <object id="2442" name="zombie" class="zombie" x="-256" y="-512" width="128" height="128">
   <ellipse/>
  </object>
  <object id="2443" name="zombie" class="zombie" x="256" y="-512" width="128" height="128">
   <ellipse/>
  </object>
  <object id="2444" name="zombie" class="zombie" x="512" y="-256" width="128" height="128">
   <ellipse/>
  </object>
  <object id="2445" name="zombie" class="zombie" x="512" y="256" width="128" height="128">
   <ellipse/>
  </object>
  <object id="2446" name="zombie" class="zombie" x="-512" y="-256" width="128" height="128">
   <ellipse/>
  </object>
  <object id="2447" name="zombie" class="zombie" x="-512" y="256" width="128" height="128">
   <ellipse/>
  </object>
  <object id="2448" name="zombie" class="zombie" x="256" y="512" width="128" height="128">
   <ellipse/>
  </object>
  <object id="2449" name="zombie" class="zombie" x="-256" y="512" width="128" height="128">
   <ellipse/>
  </object>
  <object id="2450" name="guard" class="guard" x="256" y="-896" width="128" height="128">
   <ellipse/>
  </object>
  <object id="2451" name="guard" class="guard" x="-256" y="-896" width="128" height="128">
   <ellipse/>
  </object>
  <object id="2452" name="guard" class="guard" x="-896" y="-256" width="128" height="128">
   <ellipse/>
  </object>
  <object id="2453" name="guard" class="guard" x="-896" y="256" width="128" height="128">
   <ellipse/>
  </object>
  <object id="2454" name="guard" class="guard" x="-256" y="896" width="128" height="128">
   <ellipse/>
  </object>
  <object id="2455" name="guard" class="guard" x="256" y="896" width="128" height="128">
   <ellipse/>
  </object>
  <object id="2456" name="guard" class="guard" x="896" y="256" width="128" height="128">
   <ellipse/>
  </object>
  <object id="2457" name="guard" class="guard" x="896" y="-256" width="128" height="128">
   <ellipse/>
  </object>
  <object id="2458" name="guard" class="guard" x="896" y="-896" width="128" height="128">
   <ellipse/>
  </object>
  <object id="2459" name="guard" class="guard" x="-896" y="-896" width="128" height="128">
   <ellipse/>
  </object>
  <object id="2460" name="guard" class="guard" x="-896" y="896" width="128" height="128">
   <ellipse/>
  </object>
  <object id="2461" name="guard" class="guard" x="896" y="896" width="128" height="128">
   <ellipse/>
  </object>
 </objectgroup>
 <objectgroup id="13" name="mines">
  <object id="2490" name="minetoxic" class="minetoxic" x="0" y="-640" width="128" height="128">
   <ellipse/>
  </object>
  <object id="2491" name="minesticky" class="minesticky" x="512" y="128" width="128" height="128">
   <ellipse/>
  </object>
  <object id="2496" name="minetoxic" class="minetoxic" x="640" y="0" width="128" height="128">
   <ellipse/>
  </object>
  <object id="2497" name="minetoxic" class="minetoxic" x="-640" y="0" width="128" height="128">
   <ellipse/>
  </object>
  <object id="2498" name="minetoxic" class="minetoxic" x="0" y="640" width="128" height="128">
   <ellipse/>
  </object>
  <object id="2499" name="minesticky" class="minesticky" x="512" y="-128" width="128" height="128">
   <ellipse/>
  </object>
  <object id="2500" name="minesticky" class="minesticky" x="128" y="-512" width="128" height="128">
   <ellipse/>
  </object>
  <object id="2501" name="minesticky" class="minesticky" x="-128" y="-512" width="128" height="128">
   <ellipse/>
  </object>
  <object id="2502" name="minesticky" class="minesticky" x="-512" y="-128" width="128" height="128">
   <ellipse/>
  </object>
  <object id="2503" name="minesticky" class="minesticky" x="-512" y="128" width="128" height="128">
   <ellipse/>
  </object>
  <object id="2504" name="minesticky" class="minesticky" x="-128" y="512" width="128" height="128">
   <ellipse/>
  </object>
  <object id="2505" name="minesticky" class="minesticky" x="128" y="512" width="128" height="128">
   <ellipse/>
  </object>
 </objectgroup>
 <objectgroup id="8" name="traps">
  <object id="2492" name="trap" class="trap" x="512" y="0" width="128" height="128">
   <ellipse/>
  </object>
  <object id="2493" name="trap" class="trap" x="0" y="-512" width="128" height="128">
   <ellipse/>
  </object>
  <object id="2494" name="trap" class="trap" x="-512" y="0" width="128" height="128">
   <ellipse/>
  </object>
  <object id="2495" name="trap" class="trap" x="0" y="512" width="128" height="128">
   <ellipse/>
  </object>
 </objectgroup>
 <objectgroup id="9" name="firewatchers"/>
 <objectgroup id="10" name="main">
  <object id="2262" name="main" class="secretchest" x="0" y="0" width="128" height="128"/>
  <object id="2266" name="foreignheartstone" class="foreignheartstone" x="128" y="0" width="128" height="128"/>
  <object id="2265" name="foreignheartstone" class="foreignheartstone" x="-128" y="0" width="128" height="128"/>
 </objectgroup>
</map>
