<?xml version="1.0" encoding="UTF-8"?>
<map version="1.9" tiledversion="1.9.2" orientation="orthogonal" renderorder="right-down" width="10" height="10" tilewidth="128" tileheight="128" infinite="1" nextlayerid="12" nextobjectid="2262">
 <objectgroup id="2" name="walls">
  <object id="1905" name="diamondwall" class="diamondwall" x="256" y="256" width="128" height="128"/>
  <object id="1906" name="diamondwall" class="diamondwall" x="-256" y="-256" width="128" height="128"/>
  <object id="1907" name="diamondwall" class="diamondwall" x="256" y="-256" width="128" height="128"/>
  <object id="1908" name="diamondwall" class="diamondwall" x="-256" y="256" width="128" height="128"/>
  <object id="1909" name="diamondwall" class="diamondwall" x="-256" y="128" width="128" height="128"/>
  <object id="1910" name="diamondwall" class="diamondwall" x="-256" y="0" width="128" height="128"/>
  <object id="1911" name="diamondwall" class="diamondwall" x="-256" y="-128" width="128" height="128"/>
  <object id="1912" name="diamondwall" class="diamondwall" x="256" y="128" width="128" height="128"/>
  <object id="1913" name="diamondwall" class="diamondwall" x="256" y="0" width="128" height="128"/>
  <object id="1914" name="diamondwall" class="diamondwall" x="256" y="-128" width="128" height="128"/>
  <object id="1915" name="diamondwall" class="diamondwall" x="128" y="-256" width="128" height="128"/>
  <object id="1916" name="diamondwall" class="diamondwall" x="0" y="-256" width="128" height="128"/>
  <object id="1917" name="diamondwall" class="diamondwall" x="-128" y="-256" width="128" height="128"/>
  <object id="1918" name="diamondwall" class="diamondwall" x="128" y="256" width="128" height="128"/>
  <object id="1919" name="diamondwall" class="diamondwall" x="0" y="256" width="128" height="128"/>
  <object id="1920" name="diamondwall" class="diamondwall" x="-128" y="256" width="128" height="128"/>
  <object id="1938" name="goldwall" class="goldwall" x="128" y="-640" width="128" height="128"/>
  <object id="1939" name="goldwall" class="goldwall" x="256" y="-640" width="128" height="128"/>
  <object id="1940" name="goldwall" class="goldwall" x="384" y="-640" width="128" height="128"/>
  <object id="1941" name="goldwall" class="goldwall" x="512" y="-640" width="128" height="128"/>
  <object id="1942" name="goldwall" class="goldwall" x="-256" y="-640" width="128" height="128"/>
  <object id="1943" name="goldwall" class="goldwall" x="-128" y="-640" width="128" height="128"/>
  <object id="1944" name="goldwall" class="goldwall" x="-512" y="-640" width="128" height="128"/>
  <object id="1945" name="goldwall" class="goldwall" x="-384" y="-640" width="128" height="128"/>
  <object id="1946" name="goldwall" class="goldwall" x="-640" y="-640" width="128" height="128"/>
  <object id="1947" name="goldwall" class="goldwall" x="-640" y="-512" width="128" height="128"/>
  <object id="1948" name="goldwall" class="goldwall" x="-640" y="-384" width="128" height="128"/>
  <object id="1949" name="goldwall" class="goldwall" x="-640" y="128" width="128" height="128"/>
  <object id="1950" name="goldwall" class="goldwall" x="-640" y="256" width="128" height="128"/>
  <object id="1951" name="goldwall" class="goldwall" x="-640" y="384" width="128" height="128"/>
  <object id="1952" name="goldwall" class="goldwall" x="-640" y="512" width="128" height="128"/>
  <object id="1953" name="goldwall" class="goldwall" x="-640" y="640" width="128" height="128"/>
  <object id="1954" name="goldwall" class="goldwall" x="-512" y="640" width="128" height="128"/>
  <object id="1955" name="goldwall" class="goldwall" x="-384" y="640" width="128" height="128"/>
  <object id="1956" name="goldwall" class="goldwall" x="-256" y="640" width="128" height="128"/>
  <object id="1957" name="goldwall" class="goldwall" x="-128" y="640" width="128" height="128"/>
  <object id="1958" name="goldwall" class="goldwall" x="128" y="640" width="128" height="128"/>
  <object id="1959" name="goldwall" class="goldwall" x="256" y="640" width="128" height="128"/>
  <object id="1960" name="goldwall" class="goldwall" x="384" y="640" width="128" height="128"/>
  <object id="1961" name="goldwall" class="goldwall" x="512" y="640" width="128" height="128"/>
  <object id="1962" name="goldwall" class="goldwall" x="-640" y="-256" width="128" height="128"/>
  <object id="1963" name="goldwall" class="goldwall" x="-640" y="-128" width="128" height="128"/>
  <object id="1964" name="goldwall" class="goldwall" x="640" y="-640" width="128" height="128"/>
  <object id="1965" name="goldwall" class="goldwall" x="640" y="-512" width="128" height="128"/>
  <object id="1966" name="goldwall" class="goldwall" x="640" y="-384" width="128" height="128"/>
  <object id="1967" name="goldwall" class="goldwall" x="640" y="-256" width="128" height="128"/>
  <object id="1968" name="goldwall" class="goldwall" x="640" y="-128" width="128" height="128"/>
  <object id="1969" name="goldwall" class="goldwall" x="640" y="128" width="128" height="128"/>
  <object id="1970" name="goldwall" class="goldwall" x="640" y="256" width="128" height="128"/>
  <object id="1971" name="goldwall" class="goldwall" x="640" y="384" width="128" height="128"/>
  <object id="1972" name="goldwall" class="goldwall" x="640" y="512" width="128" height="128"/>
  <object id="1973" name="goldwall" class="goldwall" x="640" y="640" width="128" height="128"/>
  <object id="1974" name="goldwall" class="goldwall" x="0" y="-640" width="128" height="128"/>
  <object id="1976" name="goldwall" class="goldwall" x="-640" y="0" width="128" height="128"/>
  <object id="1977" name="goldwall" class="goldwall" x="640" y="0" width="128" height="128"/>
  <object id="1978" name="goldwall" class="goldwall" x="0" y="640" width="128" height="128"/>
  <object id="2044" name="rockwall" class="rockwall" x="-896" y="-1024" width="128" height="128"/>
  <object id="2045" name="rockwall" class="rockwall" x="-768" y="-1024" width="128" height="128"/>
  <object id="2047" name="rockwall" class="rockwall" x="-640" y="-896" width="128" height="128"/>
  <object id="2048" name="rockwall" class="rockwall" x="-640" y="-768" width="128" height="128"/>
  <object id="2049" name="rockwall" class="rockwall" x="-1024" y="-896" width="128" height="128"/>
  <object id="2050" name="rockwall" class="rockwall" x="-1024" y="-768" width="128" height="128"/>
  <object id="2052" name="rockwall" class="rockwall" x="-896" y="-640" width="128" height="128"/>
  <object id="2053" name="rockwall" class="rockwall" x="-768" y="-640" width="128" height="128"/>
  <object id="2065" name="cactuswall" class="cactuswall" x="-384" y="-1024" width="128" height="128"/>
  <object id="2066" name="rockwall" class="rockwall" x="-256" y="-1024" width="128" height="128"/>
  <object id="2067" name="cactuswall" class="cactuswall" x="-128" y="-1024" width="128" height="128"/>
  <object id="2068" name="rockwall" class="rockwall" x="0" y="-1024" width="128" height="128"/>
  <object id="2069" name="cactuswall" class="cactuswall" x="128" y="-1024" width="128" height="128"/>
  <object id="2070" name="rockwall" class="rockwall" x="256" y="-1024" width="128" height="128"/>
  <object id="2071" name="cactuswall" class="cactuswall" x="384" y="-1024" width="128" height="128"/>
  <object id="2072" name="rockwall" class="rockwall" x="768" y="-1024" width="128" height="128"/>
  <object id="2073" name="rockwall" class="rockwall" x="896" y="-1024" width="128" height="128"/>
  <object id="2074" name="cactuswall" class="cactuswall" x="1024" y="-1024" width="128" height="128"/>
  <object id="2075" name="cactuswall" class="cactuswall" x="640" y="-1024" width="128" height="128"/>
  <object id="2076" name="rockwall" class="rockwall" x="640" y="-896" width="128" height="128"/>
  <object id="2077" name="rockwall" class="rockwall" x="640" y="-768" width="128" height="128"/>
  <object id="2078" name="rockwall" class="rockwall" x="768" y="-640" width="128" height="128"/>
  <object id="2079" name="rockwall" class="rockwall" x="896" y="-640" width="128" height="128"/>
  <object id="2080" name="cactuswall" class="cactuswall" x="1024" y="-640" width="128" height="128"/>
  <object id="2081" name="rockwall" class="rockwall" x="1024" y="-768" width="128" height="128"/>
  <object id="2082" name="rockwall" class="rockwall" x="1024" y="-896" width="128" height="128"/>
  <object id="2085" name="rockwall" class="rockwall" x="384" y="-896" width="128" height="128"/>
  <object id="2086" name="rockwall" class="rockwall" x="384" y="-768" width="128" height="128"/>
  <object id="2087" name="rockwall" class="rockwall" x="0" y="-896" width="128" height="128"/>
  <object id="2088" name="rockwall" class="rockwall" x="0" y="-768" width="128" height="128"/>
  <object id="2089" name="rockwall" class="rockwall" x="-384" y="-896" width="128" height="128"/>
  <object id="2090" name="rockwall" class="rockwall" x="-384" y="-768" width="128" height="128"/>
  <object id="2091" name="rockwall" class="rockwall" x="-768" y="-384" width="128" height="128"/>
  <object id="2092" name="rockwall" class="rockwall" x="-896" y="-384" width="128" height="128"/>
  <object id="2094" name="rockwall" class="rockwall" x="-1024" y="-256" width="128" height="128"/>
  <object id="2096" name="rockwall" class="rockwall" x="-1024" y="0" width="128" height="128"/>
  <object id="2097" name="rockwall" class="rockwall" x="-896" y="0" width="128" height="128"/>
  <object id="2098" name="rockwall" class="rockwall" x="-768" y="0" width="128" height="128"/>
  <object id="2100" name="rockwall" class="rockwall" x="-1024" y="256" width="128" height="128"/>
  <object id="2102" name="rockwall" class="rockwall" x="-896" y="384" width="128" height="128"/>
  <object id="2103" name="rockwall" class="rockwall" x="-768" y="384" width="128" height="128"/>
  <object id="2104" name="cactuswall" class="cactuswall" x="-1024" y="640" width="128" height="128"/>
  <object id="2105" name="rockwall" class="rockwall" x="-1024" y="896" width="128" height="128"/>
  <object id="2106" name="rockwall" class="rockwall" x="-1024" y="768" width="128" height="128"/>
  <object id="2107" name="cactuswall" class="cactuswall" x="-1024" y="1024" width="128" height="128"/>
  <object id="2108" name="rockwall" class="rockwall" x="-896" y="1024" width="128" height="128"/>
  <object id="2109" name="rockwall" class="rockwall" x="-768" y="1024" width="128" height="128"/>
  <object id="2110" name="cactuswall" class="cactuswall" x="-640" y="1024" width="128" height="128"/>
  <object id="2111" name="rockwall" class="rockwall" x="-640" y="896" width="128" height="128"/>
  <object id="2112" name="rockwall" class="rockwall" x="-640" y="768" width="128" height="128"/>
  <object id="2113" name="rockwall" class="rockwall" x="-768" y="640" width="128" height="128"/>
  <object id="2114" name="rockwall" class="rockwall" x="-896" y="640" width="128" height="128"/>
  <object id="2115" name="rockwall" class="rockwall" x="0" y="768" width="128" height="128"/>
  <object id="2116" name="rockwall" class="rockwall" x="0" y="896" width="128" height="128"/>
  <object id="2117" name="rockwall" class="rockwall" x="0" y="1024" width="128" height="128"/>
  <object id="2118" name="cactuswall" class="cactuswall" x="128" y="1024" width="128" height="128"/>
  <object id="2119" name="rockwall" class="rockwall" x="256" y="1024" width="128" height="128"/>
  <object id="2120" name="cactuswall" class="cactuswall" x="384" y="1024" width="128" height="128"/>
  <object id="2121" name="rockwall" class="rockwall" x="384" y="896" width="128" height="128"/>
  <object id="2122" name="rockwall" class="rockwall" x="384" y="768" width="128" height="128"/>
  <object id="2123" name="cactuswall" class="cactuswall" x="-128" y="1024" width="128" height="128"/>
  <object id="2124" name="rockwall" class="rockwall" x="-256" y="1024" width="128" height="128"/>
  <object id="2125" name="cactuswall" class="cactuswall" x="-384" y="1024" width="128" height="128"/>
  <object id="2126" name="rockwall" class="rockwall" x="-384" y="896" width="128" height="128"/>
  <object id="2127" name="rockwall" class="rockwall" x="-384" y="768" width="128" height="128"/>
  <object id="2128" name="rockwall" class="rockwall" x="768" y="640" width="128" height="128"/>
  <object id="2129" name="rockwall" class="rockwall" x="896" y="640" width="128" height="128"/>
  <object id="2131" name="rockwall" class="rockwall" x="1024" y="768" width="128" height="128"/>
  <object id="2132" name="rockwall" class="rockwall" x="1024" y="896" width="128" height="128"/>
  <object id="2133" name="rockwall" class="rockwall" x="896" y="1024" width="128" height="128"/>
  <object id="2134" name="rockwall" class="rockwall" x="768" y="1024" width="128" height="128"/>
  <object id="2135" name="rockwall" class="rockwall" x="640" y="896" width="128" height="128"/>
  <object id="2136" name="rockwall" class="rockwall" x="640" y="768" width="128" height="128"/>
  <object id="2137" name="cactuswall" class="cactuswall" x="640" y="1024" width="128" height="128"/>
  <object id="2138" name="cactuswall" class="cactuswall" x="1024" y="1024" width="128" height="128"/>
  <object id="2139" name="cactuswall" class="cactuswall" x="1024" y="640" width="128" height="128"/>
  <object id="2140" name="rockwall" class="rockwall" x="1024" y="-256" width="128" height="128"/>
  <object id="2141" name="cactuswall" class="cactuswall" x="1024" y="-128" width="128" height="128"/>
  <object id="2142" name="rockwall" class="rockwall" x="1024" y="0" width="128" height="128"/>
  <object id="2143" name="cactuswall" class="cactuswall" x="1024" y="-384" width="128" height="128"/>
  <object id="2144" name="cactuswall" class="cactuswall" x="1024" y="128" width="128" height="128"/>
  <object id="2145" name="rockwall" class="rockwall" x="1024" y="256" width="128" height="128"/>
  <object id="2146" name="rockwall" class="rockwall" x="896" y="384" width="128" height="128"/>
  <object id="2147" name="rockwall" class="rockwall" x="768" y="384" width="128" height="128"/>
  <object id="2148" name="cactuswall" class="cactuswall" x="1024" y="384" width="128" height="128"/>
  <object id="2149" name="rockwall" class="rockwall" x="896" y="0" width="128" height="128"/>
  <object id="2150" name="rockwall" class="rockwall" x="768" y="0" width="128" height="128"/>
  <object id="2151" name="rockwall" class="rockwall" x="896" y="-384" width="128" height="128"/>
  <object id="2152" name="rockwall" class="rockwall" x="768" y="-384" width="128" height="128"/>
  <object id="2255" name="cactuswall" class="cactuswall" x="-640" y="-1024" width="128" height="128"/>
  <object id="2256" name="cactuswall" class="cactuswall" x="-1024" y="-1024" width="128" height="128"/>
  <object id="2257" name="cactuswall" class="cactuswall" x="-1024" y="-640" width="128" height="128"/>
  <object id="2258" name="cactuswall" class="cactuswall" x="-1024" y="-384" width="128" height="128"/>
  <object id="2259" name="cactuswall" class="cactuswall" x="-1024" y="-128" width="128" height="128"/>
  <object id="2260" name="cactuswall" class="cactuswall" x="-1024" y="128" width="128" height="128"/>
  <object id="2261" name="cactuswall" class="cactuswall" x="-1024" y="384" width="128" height="128"/>
 </objectgroup>
 <objectgroup id="3" name="towers">
  <object id="1921" name="phantomtower" class="phantomtower" x="768" y="-896" width="256" height="256">
   <ellipse/>
  </object>
  <object id="1922" name="fireballtower" class="fireballtower" x="384" y="128" width="256" height="256">
   <ellipse/>
  </object>
  <object id="1923" name="phantomtower" class="phantomtower" x="-896" y="-896" width="256" height="256">
   <ellipse/>
  </object>
  <object id="1924" name="fireballtower" class="fireballtower" x="-512" y="-256" width="256" height="256">
   <ellipse/>
  </object>
  <object id="1925" name="fireballtower" class="fireballtower" x="-512" y="128" width="256" height="256">
   <ellipse/>
  </object>
  <object id="1926" name="fireballtower" class="fireballtower" x="-256" y="384" width="256" height="256">
   <ellipse/>
  </object>
  <object id="1927" name="fireballtower" class="fireballtower" x="128" y="384" width="256" height="256">
   <ellipse/>
  </object>
  <object id="1928" name="phantomtower" class="phantomtower" x="768" y="768" width="256" height="256">
   <ellipse/>
  </object>
  <object id="1929" name="fireballtower" class="fireballtower" x="384" y="-256" width="256" height="256">
   <ellipse/>
  </object>
  <object id="1930" name="fireballtower" class="fireballtower" x="128" y="-512" width="256" height="256">
   <ellipse/>
  </object>
  <object id="1931" name="fireballtower" class="fireballtower" x="-256" y="-512" width="256" height="256">
   <ellipse/>
  </object>
  <object id="1932" name="phantomtower" class="phantomtower" x="-896" y="768" width="256" height="256">
   <ellipse/>
  </object>
  <object id="2239" name="fireballtower" class="fireballtower" x="384" y="384" width="256" height="256">
   <ellipse/>
  </object>
  <object id="2240" name="fireballtower" class="fireballtower" x="384" y="-512" width="256" height="256">
   <ellipse/>
  </object>
  <object id="2241" name="fireballtower" class="fireballtower" x="-512" y="-512" width="256" height="256">
   <ellipse/>
  </object>
  <object id="2242" name="fireballtower" class="fireballtower" x="-512" y="384" width="256" height="256">
   <ellipse/>
  </object>
 </objectgroup>
 <objectgroup id="4" name="platforms">
  <object id="1979" name="platform" class="platform" x="0" y="384" width="128" height="128"/>
  <object id="1980" name="platform" class="platform" x="-384" y="0" width="128" height="128"/>
  <object id="1981" name="platform" class="platform" x="384" y="0" width="128" height="128"/>
  <object id="1982" name="platform" class="platform" x="0" y="-384" width="128" height="128"/>
  <object id="2010" name="platform" class="platform" x="-128" y="896" width="128" height="128"/>
  <object id="2011" name="platform" class="platform" x="-256" y="768" width="128" height="128"/>
  <object id="2012" name="platform" class="platform" x="-128" y="768" width="128" height="128"/>
  <object id="2013" name="platform" class="platform" x="-256" y="896" width="128" height="128"/>
  <object id="2014" name="platform" class="platform" x="256" y="896" width="128" height="128"/>
  <object id="2015" name="platform" class="platform" x="128" y="768" width="128" height="128"/>
  <object id="2016" name="platform" class="platform" x="256" y="768" width="128" height="128"/>
  <object id="2017" name="platform" class="platform" x="128" y="896" width="128" height="128"/>
  <object id="2018" name="platform" class="platform" x="896" y="256" width="128" height="128"/>
  <object id="2019" name="platform" class="platform" x="768" y="128" width="128" height="128"/>
  <object id="2020" name="platform" class="platform" x="896" y="128" width="128" height="128"/>
  <object id="2021" name="platform" class="platform" x="768" y="256" width="128" height="128"/>
  <object id="2022" name="platform" class="platform" x="896" y="-128" width="128" height="128"/>
  <object id="2023" name="platform" class="platform" x="768" y="-256" width="128" height="128"/>
  <object id="2024" name="platform" class="platform" x="896" y="-256" width="128" height="128"/>
  <object id="2025" name="platform" class="platform" x="768" y="-128" width="128" height="128"/>
  <object id="2026" name="platform" class="platform" x="-768" y="-128" width="128" height="128"/>
  <object id="2027" name="platform" class="platform" x="-896" y="-256" width="128" height="128"/>
  <object id="2028" name="platform" class="platform" x="-768" y="-256" width="128" height="128"/>
  <object id="2029" name="platform" class="platform" x="-896" y="-128" width="128" height="128"/>
  <object id="2030" name="platform" class="platform" x="-768" y="256" width="128" height="128"/>
  <object id="2031" name="platform" class="platform" x="-896" y="128" width="128" height="128"/>
  <object id="2032" name="platform" class="platform" x="-768" y="128" width="128" height="128"/>
  <object id="2033" name="platform" class="platform" x="-896" y="256" width="128" height="128"/>
  <object id="2034" name="platform" class="platform" x="-128" y="-768" width="128" height="128"/>
  <object id="2035" name="platform" class="platform" x="-256" y="-896" width="128" height="128"/>
  <object id="2036" name="platform" class="platform" x="-128" y="-896" width="128" height="128"/>
  <object id="2037" name="platform" class="platform" x="-256" y="-768" width="128" height="128"/>
  <object id="2038" name="platform" class="platform" x="256" y="-768" width="128" height="128"/>
  <object id="2039" name="platform" class="platform" x="128" y="-896" width="128" height="128"/>
  <object id="2040" name="platform" class="platform" x="256" y="-896" width="128" height="128"/>
  <object id="2041" name="platform" class="platform" x="128" y="-768" width="128" height="128"/>
 </objectgroup>
 <objectgroup id="5" name="guard_archers">
  <object id="1989" name="guardarcher" class="guardarcher" x="0" y="-384" width="128" height="128">
   <properties>
    <property name="level" type="int" value="50"/>
   </properties>
   <ellipse/>
  </object>
  <object id="1990" name="guardarcher" class="guardarcher" x="384" y="0" width="128" height="128">
   <properties>
    <property name="level" type="int" value="50"/>
   </properties>
   <ellipse/>
  </object>
  <object id="1991" name="guardarcher" class="guardarcher" x="-384" y="0" width="128" height="128">
   <properties>
    <property name="level" type="int" value="50"/>
   </properties>
   <ellipse/>
  </object>
  <object id="1992" name="guardarcher" class="guardarcher" x="0" y="384" width="128" height="128">
   <properties>
    <property name="level" type="int" value="50"/>
   </properties>
   <ellipse/>
  </object>
  <object id="2155" name="guardarcher" class="guardarcher" x="896" y="-256" width="128" height="128">
   <properties>
    <property name="level" type="int" value="50"/>
   </properties>
   <ellipse/>
  </object>
  <object id="2156" name="guardarcher" class="guardarcher" x="896" y="-128" width="128" height="128">
   <properties>
    <property name="level" type="int" value="50"/>
   </properties>
   <ellipse/>
  </object>
  <object id="2157" name="guardarcher" class="guardarcher" x="768" y="-128" width="128" height="128">
   <properties>
    <property name="level" type="int" value="50"/>
   </properties>
   <ellipse/>
  </object>
  <object id="2158" name="guardarcher" class="guardarcher" x="896" y="128" width="128" height="128">
   <properties>
    <property name="level" type="int" value="50"/>
   </properties>
   <ellipse/>
  </object>
  <object id="2159" name="guardarcher" class="guardarcher" x="896" y="256" width="128" height="128">
   <properties>
    <property name="level" type="int" value="50"/>
   </properties>
   <ellipse/>
  </object>
  <object id="2160" name="guardarcher" class="guardarcher" x="768" y="256" width="128" height="128">
   <properties>
    <property name="level" type="int" value="50"/>
   </properties>
   <ellipse/>
  </object>
  <object id="2164" name="guardarcher" class="guardarcher" x="256" y="768" width="128" height="128">
   <properties>
    <property name="level" type="int" value="50"/>
   </properties>
   <ellipse/>
  </object>
  <object id="2165" name="guardarcher" class="guardarcher" x="256" y="896" width="128" height="128">
   <properties>
    <property name="level" type="int" value="50"/>
   </properties>
   <ellipse/>
  </object>
  <object id="2166" name="guardarcher" class="guardarcher" x="128" y="896" width="128" height="128">
   <properties>
    <property name="level" type="int" value="50"/>
   </properties>
   <ellipse/>
  </object>
  <object id="2167" name="guardarcher" class="guardarcher" x="-128" y="768" width="128" height="128">
   <properties>
    <property name="level" type="int" value="50"/>
   </properties>
   <ellipse/>
  </object>
  <object id="2168" name="guardarcher" class="guardarcher" x="-128" y="896" width="128" height="128">
   <properties>
    <property name="level" type="int" value="50"/>
   </properties>
   <ellipse/>
  </object>
  <object id="2169" name="guardarcher" class="guardarcher" x="-256" y="896" width="128" height="128">
   <properties>
    <property name="level" type="int" value="50"/>
   </properties>
   <ellipse/>
  </object>
  <object id="2173" name="guardarcher" class="guardarcher" x="-768" y="128" width="128" height="128">
   <properties>
    <property name="level" type="int" value="50"/>
   </properties>
   <ellipse/>
  </object>
  <object id="2174" name="guardarcher" class="guardarcher" x="-768" y="256" width="128" height="128">
   <properties>
    <property name="level" type="int" value="50"/>
   </properties>
   <ellipse/>
  </object>
  <object id="2175" name="guardarcher" class="guardarcher" x="-896" y="256" width="128" height="128">
   <properties>
    <property name="level" type="int" value="50"/>
   </properties>
   <ellipse/>
  </object>
  <object id="2176" name="guardarcher" class="guardarcher" x="-768" y="-256" width="128" height="128">
   <properties>
    <property name="level" type="int" value="50"/>
   </properties>
   <ellipse/>
  </object>
  <object id="2177" name="guardarcher" class="guardarcher" x="-768" y="-128" width="128" height="128">
   <properties>
    <property name="level" type="int" value="50"/>
   </properties>
   <ellipse/>
  </object>
  <object id="2178" name="guardarcher" class="guardarcher" x="-896" y="-128" width="128" height="128">
   <properties>
    <property name="level" type="int" value="50"/>
   </properties>
   <ellipse/>
  </object>
  <object id="2182" name="guardarcher" class="guardarcher" x="-128" y="-896" width="128" height="128">
   <properties>
    <property name="level" type="int" value="50"/>
   </properties>
   <ellipse/>
  </object>
  <object id="2183" name="guardarcher" class="guardarcher" x="-128" y="-768" width="128" height="128">
   <properties>
    <property name="level" type="int" value="50"/>
   </properties>
   <ellipse/>
  </object>
  <object id="2184" name="guardarcher" class="guardarcher" x="-256" y="-768" width="128" height="128">
   <properties>
    <property name="level" type="int" value="50"/>
   </properties>
   <ellipse/>
  </object>
  <object id="2185" name="guardarcher" class="guardarcher" x="256" y="-896" width="128" height="128">
   <properties>
    <property name="level" type="int" value="50"/>
   </properties>
   <ellipse/>
  </object>
  <object id="2186" name="guardarcher" class="guardarcher" x="256" y="-768" width="128" height="128">
   <properties>
    <property name="level" type="int" value="50"/>
   </properties>
   <ellipse/>
  </object>
  <object id="2187" name="guardarcher" class="guardarcher" x="128" y="-768" width="128" height="128">
   <properties>
    <property name="level" type="int" value="50"/>
   </properties>
   <ellipse/>
  </object>
  <object id="2191" name="wallbreaker" class="wallbreaker" x="768" y="-512" width="128" height="128">
   <properties>
    <property name="level" type="int" value="50"/>
   </properties>
   <ellipse/>
  </object>
  <object id="2192" name="wallbreaker" class="wallbreaker" x="768" y="512" width="128" height="128">
   <properties>
    <property name="level" type="int" value="50"/>
   </properties>
   <ellipse/>
  </object>
  <object id="2193" name="wallbreaker" class="wallbreaker" x="512" y="768" width="128" height="128">
   <properties>
    <property name="level" type="int" value="50"/>
   </properties>
   <ellipse/>
  </object>
  <object id="2194" name="wallbreaker" class="wallbreaker" x="-512" y="768" width="128" height="128">
   <properties>
    <property name="level" type="int" value="50"/>
   </properties>
   <ellipse/>
  </object>
  <object id="2195" name="wallbreaker" class="wallbreaker" x="-768" y="512" width="128" height="128">
   <properties>
    <property name="level" type="int" value="50"/>
   </properties>
   <ellipse/>
  </object>
  <object id="2196" name="wallbreaker" class="wallbreaker" x="-768" y="-512" width="128" height="128">
   <properties>
    <property name="level" type="int" value="50"/>
   </properties>
   <ellipse/>
  </object>
  <object id="2197" name="wallbreaker" class="wallbreaker" x="-512" y="-768" width="128" height="128">
   <properties>
    <property name="level" type="int" value="50"/>
   </properties>
   <ellipse/>
  </object>
  <object id="2198" name="wallbreaker" class="wallbreaker" x="512" y="-768" width="128" height="128">
   <properties>
    <property name="level" type="int" value="50"/>
   </properties>
   <ellipse/>
  </object>
  <object id="2199" name="wallbreaker" class="wallbreaker" x="512" y="-896" width="128" height="128">
   <properties>
    <property name="level" type="int" value="50"/>
   </properties>
   <ellipse/>
  </object>
  <object id="2200" name="wallbreaker" class="wallbreaker" x="896" y="-512" width="128" height="128">
   <properties>
    <property name="level" type="int" value="50"/>
   </properties>
   <ellipse/>
  </object>
  <object id="2201" name="wallbreaker" class="wallbreaker" x="896" y="512" width="128" height="128">
   <properties>
    <property name="level" type="int" value="50"/>
   </properties>
   <ellipse/>
  </object>
  <object id="2202" name="wallbreaker" class="wallbreaker" x="512" y="896" width="128" height="128">
   <properties>
    <property name="level" type="int" value="50"/>
   </properties>
   <ellipse/>
  </object>
  <object id="2203" name="wallbreaker" class="wallbreaker" x="-512" y="896" width="128" height="128">
   <properties>
    <property name="level" type="int" value="50"/>
   </properties>
   <ellipse/>
  </object>
  <object id="2204" name="wallbreaker" class="wallbreaker" x="-896" y="512" width="128" height="128">
   <properties>
    <property name="level" type="int" value="50"/>
   </properties>
   <ellipse/>
  </object>
  <object id="2205" name="wallbreaker" class="wallbreaker" x="-896" y="-512" width="128" height="128">
   <properties>
    <property name="level" type="int" value="50"/>
   </properties>
   <ellipse/>
  </object>
  <object id="2206" name="wallbreaker" class="wallbreaker" x="-512" y="-896" width="128" height="128">
   <properties>
    <property name="level" type="int" value="50"/>
   </properties>
   <ellipse/>
  </object>
  <object id="2207" name="guard" class="guard" x="0" y="-1152" width="128" height="128">
   <ellipse/>
  </object>
  <object id="2208" name="guard" class="guard" x="-256" y="-1152" width="128" height="128">
   <ellipse/>
  </object>
  <object id="2209" name="guard" class="guard" x="256" y="-1152" width="128" height="128">
   <ellipse/>
  </object>
  <object id="2210" name="guard" class="guard" x="-384" y="-1280" width="128" height="128">
   <ellipse/>
  </object>
  <object id="2211" name="guard" class="guard" x="384" y="-1280" width="128" height="128">
   <ellipse/>
  </object>
  <object id="2212" name="guard" class="guard" x="1152" y="-1152" width="128" height="128">
   <ellipse/>
  </object>
  <object id="2213" name="guard" class="guard" x="896" y="-1152" width="128" height="128">
   <ellipse/>
  </object>
  <object id="2214" name="guard" class="guard" x="1152" y="-896" width="128" height="128">
   <ellipse/>
  </object>
  <object id="2215" name="guard" class="guard" x="-1152" y="-1152" width="128" height="128">
   <ellipse/>
  </object>
  <object id="2216" name="guard" class="guard" x="-896" y="-1152" width="128" height="128">
   <ellipse/>
  </object>
  <object id="2217" name="guard" class="guard" x="-1152" y="-896" width="128" height="128">
   <ellipse/>
  </object>
  <object id="2218" name="guard" class="guard" x="-1280" y="-384" width="128" height="128">
   <ellipse/>
  </object>
  <object id="2219" name="guard" class="guard" x="-1152" y="-256" width="128" height="128">
   <ellipse/>
  </object>
  <object id="2220" name="guard" class="guard" x="-1152" y="0" width="128" height="128">
   <ellipse/>
  </object>
  <object id="2221" name="guard" class="guard" x="-1152" y="256" width="128" height="128">
   <ellipse/>
  </object>
  <object id="2222" name="guard" class="guard" x="-1280" y="384" width="128" height="128">
   <ellipse/>
  </object>
  <object id="2223" name="guard" class="guard" x="-1152" y="896" width="128" height="128">
   <ellipse/>
  </object>
  <object id="2224" name="guard" class="guard" x="-1152" y="1152" width="128" height="128">
   <ellipse/>
  </object>
  <object id="2225" name="guard" class="guard" x="-896" y="1152" width="128" height="128">
   <ellipse/>
  </object>
  <object id="2226" name="guard" class="guard" x="-384" y="1280" width="128" height="128">
   <ellipse/>
  </object>
  <object id="2227" name="guard" class="guard" x="-256" y="1152" width="128" height="128">
   <ellipse/>
  </object>
  <object id="2228" name="guard" class="guard" x="0" y="1152" width="128" height="128">
   <ellipse/>
  </object>
  <object id="2229" name="guard" class="guard" x="256" y="1152" width="128" height="128">
   <ellipse/>
  </object>
  <object id="2230" name="guard" class="guard" x="384" y="1280" width="128" height="128">
   <ellipse/>
  </object>
  <object id="2231" name="guard" class="guard" x="896" y="1152" width="128" height="128">
   <ellipse/>
  </object>
  <object id="2232" name="guard" class="guard" x="1152" y="1152" width="128" height="128">
   <ellipse/>
  </object>
  <object id="2233" name="guard" class="guard" x="1152" y="896" width="128" height="128">
   <ellipse/>
  </object>
  <object id="2234" name="guard" class="guard" x="1280" y="-384" width="128" height="128">
   <ellipse/>
  </object>
  <object id="2235" name="guard" class="guard" x="1152" y="-256" width="128" height="128">
   <ellipse/>
  </object>
  <object id="2236" name="guard" class="guard" x="1152" y="0" width="128" height="128">
   <ellipse/>
  </object>
  <object id="2237" name="guard" class="guard" x="1152" y="256" width="128" height="128">
   <ellipse/>
  </object>
  <object id="2238" name="guard" class="guard" x="1280" y="384" width="128" height="128">
   <ellipse/>
  </object>
  <object id="2243" name="guardarcher" class="guardarcher" x="-256" y="-896" width="128" height="128">
   <properties>
    <property name="level" type="int" value="50"/>
   </properties>
   <ellipse/>
  </object>
  <object id="2244" name="guardarcher" class="guardarcher" x="128" y="-896" width="128" height="128">
   <properties>
    <property name="level" type="int" value="50"/>
   </properties>
   <ellipse/>
  </object>
  <object id="2245" name="guardarcher" class="guardarcher" x="768" y="-256" width="128" height="128">
   <properties>
    <property name="level" type="int" value="50"/>
   </properties>
   <ellipse/>
  </object>
  <object id="2246" name="guardarcher" class="guardarcher" x="768" y="128" width="128" height="128">
   <properties>
    <property name="level" type="int" value="50"/>
   </properties>
   <ellipse/>
  </object>
  <object id="2247" name="guardarcher" class="guardarcher" x="-256" y="768" width="128" height="128">
   <properties>
    <property name="level" type="int" value="50"/>
   </properties>
   <ellipse/>
  </object>
  <object id="2248" name="guardarcher" class="guardarcher" x="128" y="768" width="128" height="128">
   <properties>
    <property name="level" type="int" value="50"/>
   </properties>
   <ellipse/>
  </object>
  <object id="2249" name="guardarcher" class="guardarcher" x="-896" y="128" width="128" height="128">
   <properties>
    <property name="level" type="int" value="50"/>
   </properties>
   <ellipse/>
  </object>
  <object id="2250" name="guardarcher" class="guardarcher" x="-896" y="-256" width="128" height="128">
   <properties>
    <property name="level" type="int" value="50"/>
   </properties>
   <ellipse/>
  </object>
  <object id="2251" name="guard" class="guard" x="0" y="-1280" width="128" height="128">
   <ellipse/>
  </object>
  <object id="2252" name="guard" class="guard" x="1280" y="0" width="128" height="128">
   <ellipse/>
  </object>
  <object id="2253" name="guard" class="guard" x="0" y="1280" width="128" height="128">
   <ellipse/>
  </object>
  <object id="2254" name="guard" class="guard" x="-1280" y="0" width="128" height="128">
   <ellipse/>
  </object>
 </objectgroup>
 <objectgroup id="7" name="wood_spikes"/>
 <objectgroup id="6" name="guards"/>
 <objectgroup id="8" name="traps"/>
 <objectgroup id="9" name="firewatchers">
  <object id="1984" name="firewatchertower" class="firewatchertower" x="0" y="-512" width="128" height="128"/>
  <object id="1985" name="firewatchertower" class="firewatchertower" x="512" y="0" width="128" height="128"/>
  <object id="1986" name="firewatchertower" class="firewatchertower" x="-512" y="0" width="128" height="128"/>
  <object id="1987" name="firewatchertower" class="firewatchertower" x="0" y="512" width="128" height="128"/>
 </objectgroup>
 <objectgroup id="10" name="main">
  <object id="2" name="main" class="secretchest" x="0" y="0" width="128" height="128"/>
  <object id="1903" name="secretchest" class="secretchest" x="-128" y="-128" width="128" height="128"/>
  <object id="1904" name="secretchest" class="secretchest" x="128" y="128" width="128" height="128"/>
  <object id="1933" name="foreignheartstone" class="foreignheartstone" x="0" y="-128" width="128" height="128"/>
  <object id="1934" name="foreignheartstone" class="foreignheartstone" x="-128" y="0" width="128" height="128"/>
  <object id="1935" name="foreignheartstone" class="foreignheartstone" x="128" y="0" width="128" height="128"/>
  <object id="1936" name="foreignheartstone" class="foreignheartstone" x="0" y="128" width="128" height="128"/>
  <object id="2153" name="secretchest" class="secretchest" x="-128" y="128" width="128" height="128"/>
  <object id="2154" name="secretchest" class="secretchest" x="128" y="-128" width="128" height="128"/>
 </objectgroup>
</map>
