<?xml version="1.0" encoding="UTF-8"?>
<map version="1.11" tiledversion="1.11.2" orientation="orthogonal" renderorder="right-down" width="10" height="10" tilewidth="128" tileheight="128" infinite="1" nextlayerid="12" nextobjectid="1835">
 <objectgroup id="2" name="walls">
  <object id="296" name="woodwall" type="woodwall" x="-384" y="-384" width="128" height="128"/>
  <object id="1753" name="woodwall" type="woodwall" x="-384" y="-256" width="128" height="128"/>
  <object id="1754" name="woodwall" type="woodwall" x="-384" y="-128" width="128" height="128"/>
  <object id="1755" name="woodwall" type="woodwall" x="-384" y="0" width="128" height="128"/>
  <object id="1756" name="woodwall" type="woodwall" x="-256" y="0" width="128" height="128"/>
  <object id="1757" name="woodwall" type="woodwall" x="-128" y="0" width="128" height="128"/>
  <object id="1758" name="woodwall" type="woodwall" x="0" y="0" width="128" height="128"/>
  <object id="1759" name="woodwall" type="woodwall" x="128" y="0" width="128" height="128"/>
  <object id="1760" name="woodwall" type="woodwall" x="128" y="-128" width="128" height="128"/>
  <object id="1761" name="woodwall" type="woodwall" x="128" y="-256" width="128" height="128"/>
  <object id="1762" name="woodwall" type="woodwall" x="128" y="-384" width="128" height="128"/>
  <object id="1763" name="woodwall" type="woodwall" x="128" y="-512" width="128" height="128"/>
  <object id="1764" name="woodwall" type="woodwall" x="-128" y="-512" width="128" height="128"/>
  <object id="1765" name="woodwall" type="woodwall" x="0" y="-512" width="128" height="128"/>
  <object id="1766" name="woodwall" type="woodwall" x="-256" y="-512" width="128" height="128"/>
  <object id="1767" name="woodwall" type="woodwall" x="-384" y="-512" width="128" height="128"/>
 </objectgroup>
 <objectgroup id="3" name="towers">
  <object id="1817" name="archertower" type="archertower" x="256" y="-128" width="256" height="256"/>
  <object id="1824" name="archertower" type="archertower" x="256" y="-512" width="256" height="256"/>
  <object id="1818" name="archertower" type="archertower" x="128" y="-768" width="256" height="256"/>
  <object id="1819" name="archertower" type="archertower" x="-512" y="-768" width="256" height="256"/>
  <object id="1820" name="archertower" type="archertower" x="-640" y="-512" width="256" height="256"/>
  <object id="1821" name="archertower" type="archertower" x="-640" y="-128" width="256" height="256"/>
  <object id="1822" name="archertower" type="archertower" x="-512" y="128" width="256" height="256"/>
  <object id="1828" name="archertower" type="archertower" x="128" y="128" width="256" height="256"/>
 </objectgroup>
 <objectgroup id="4" name="platforms">
  <object id="357" name="platform" type="platform" x="-256" y="-384" width="128" height="128"/>
  <object id="1747" name="platform" type="platform" x="-256" y="-128" width="128" height="128"/>
  <object id="1748" name="platform" type="platform" x="0" y="-128" width="128" height="128"/>
  <object id="1749" name="platform" type="platform" x="0" y="-384" width="128" height="128"/>
 </objectgroup>
 <objectgroup id="5" name="guard_archers">
  <object id="358" name="guardarcher" type="guardarcher" x="-256" y="-384" width="128" height="128">
   <properties>
    <property name="level" type="int" value="50"/>
   </properties>
   <ellipse/>
  </object>
  <object id="1750" name="guardarcher" type="guardarcher" x="0" y="-384" width="128" height="128">
   <properties>
    <property name="level" type="int" value="50"/>
   </properties>
   <ellipse/>
  </object>
  <object id="1751" name="guardarcher" type="guardarcher" x="0" y="-128" width="128" height="128">
   <properties>
    <property name="level" type="int" value="50"/>
   </properties>
   <ellipse/>
  </object>
  <object id="1752" name="guardarcher" type="guardarcher" x="-256" y="-128" width="128" height="128">
   <properties>
    <property name="level" type="int" value="50"/>
   </properties>
   <ellipse/>
  </object>
 </objectgroup>
 <objectgroup id="7" name="wood_spikes">
  <object id="1768" name="woodspikes" type="woodspikes" x="-256" y="-640" width="128" height="128"/>
  <object id="1769" name="woodspikes" type="woodspikes" x="0" y="-640" width="128" height="128"/>
  <object id="1771" name="woodspikes" type="woodspikes" x="256" y="-256" width="128" height="128"/>
  <object id="1773" name="woodspikes" type="woodspikes" x="0" y="128" width="128" height="128"/>
  <object id="1774" name="woodspikes" type="woodspikes" x="-256" y="128" width="128" height="128"/>
  <object id="1776" name="woodspikes" type="woodspikes" x="-512" y="-256" width="128" height="128"/>
 </objectgroup>
 <objectgroup id="6" name="guards">
  <object id="1030" name="guard" type="guard" x="-768" y="-256" width="128" height="128">
   <properties>
    <property name="level" type="int" value="50"/>
   </properties>
   <ellipse/>
  </object>
  <object id="1808" name="guard" type="guard" x="512" y="-256" width="128" height="128">
   <properties>
    <property name="level" type="int" value="50"/>
   </properties>
   <ellipse/>
  </object>
  <object id="1809" name="guard" type="guard" x="-128" y="-896" width="128" height="128">
   <properties>
    <property name="level" type="int" value="50"/>
   </properties>
   <ellipse/>
  </object>
  <object id="1810" name="guard" type="guard" x="-128" y="384" width="128" height="128">
   <properties>
    <property name="level" type="int" value="50"/>
   </properties>
   <ellipse/>
  </object>
 </objectgroup>
 <objectgroup id="8" name="traps">
  <object id="601" name="trap" type="trap" x="-384" y="512" width="128" height="128"/>
  <object id="1784" name="trap" type="trap" x="128" y="512" width="128" height="128"/>
  <object id="1785" name="trap" type="trap" x="-128" y="512" width="128" height="128"/>
  <object id="1786" name="trap" type="trap" x="384" y="512" width="128" height="128"/>
  <object id="1787" name="trap" type="trap" x="640" y="512" width="128" height="128"/>
  <object id="1788" name="trap" type="trap" x="640" y="256" width="128" height="128"/>
  <object id="1789" name="trap" type="trap" x="640" y="0" width="128" height="128"/>
  <object id="1790" name="trap" type="trap" x="640" y="-256" width="128" height="128"/>
  <object id="1791" name="trap" type="trap" x="640" y="-512" width="128" height="128"/>
  <object id="1792" name="trap" type="trap" x="640" y="-768" width="128" height="128"/>
  <object id="1793" name="trap" type="trap" x="640" y="-1024" width="128" height="128"/>
  <object id="1794" name="trap" type="trap" x="384" y="-1024" width="128" height="128"/>
  <object id="1795" name="trap" type="trap" x="128" y="-1024" width="128" height="128"/>
  <object id="1796" name="trap" type="trap" x="-384" y="-1024" width="128" height="128"/>
  <object id="1797" name="trap" type="trap" x="-128" y="-1024" width="128" height="128"/>
  <object id="1798" name="trap" type="trap" x="-640" y="-1024" width="128" height="128"/>
  <object id="1799" name="trap" type="trap" x="-896" y="-1024" width="128" height="128"/>
  <object id="1800" name="trap" type="trap" x="-896" y="-768" width="128" height="128"/>
  <object id="1801" name="trap" type="trap" x="-896" y="-256" width="128" height="128"/>
  <object id="1802" name="trap" type="trap" x="-896" y="-512" width="128" height="128"/>
  <object id="1804" name="trap" type="trap" x="-896" y="512" width="128" height="128"/>
  <object id="1805" name="trap" type="trap" x="-896" y="256" width="128" height="128"/>
  <object id="1806" name="trap" type="trap" x="-896" y="0" width="128" height="128"/>
  <object id="1807" name="trap" type="trap" x="-640" y="512" width="128" height="128"/>
  <object id="1831" name="trap" type="trap" x="-128" y="-384" width="128" height="128"/>
  <object id="1832" name="trap" type="trap" x="0" y="-256" width="128" height="128"/>
  <object id="1833" name="trap" type="trap" x="-256" y="-256" width="128" height="128"/>
  <object id="1834" name="trap" type="trap" x="-128" y="-128" width="128" height="128"/>
 </objectgroup>
 <objectgroup id="9" name="firewatchers"/>
 <objectgroup id="10" name="main">
  <object id="2" name="main" type="secretchest" x="-128" y="-256" width="128" height="128"/>
 </objectgroup>
</map>
