<?xml version="1.0" encoding="UTF-8"?>
<map version="1.9" tiledversion="1.9.2" orientation="orthogonal" renderorder="right-down" width="10" height="10" tilewidth="128" tileheight="128" infinite="1" nextlayerid="12" nextobjectid="1903">
 <objectgroup id="2" name="walls">
  <object id="296" name="cactuswall" class="cactuswall" x="-384" y="-384" width="128" height="128"/>
  <object id="1753" name="cactuswall" class="cactuswall" x="-384" y="-256" width="128" height="128"/>
  <object id="1754" name="cactuswall" class="cactuswall" x="-384" y="-128" width="128" height="128"/>
  <object id="1755" name="cactuswall" class="cactuswall" x="-384" y="0" width="128" height="128"/>
  <object id="1756" name="cactuswall" class="cactuswall" x="-256" y="0" width="128" height="128"/>
  <object id="1757" name="cactuswall" class="cactuswall" x="-128" y="0" width="128" height="128"/>
  <object id="1758" name="cactuswall" class="cactuswall" x="0" y="0" width="128" height="128"/>
  <object id="1759" name="cactuswall" class="cactuswall" x="128" y="0" width="128" height="128"/>
  <object id="1760" name="cactuswall" class="cactuswall" x="128" y="-128" width="128" height="128"/>
  <object id="1761" name="cactuswall" class="cactuswall" x="128" y="-256" width="128" height="128"/>
  <object id="1762" name="cactuswall" class="cactuswall" x="128" y="-384" width="128" height="128"/>
  <object id="1763" name="cactuswall" class="cactuswall" x="128" y="-512" width="128" height="128"/>
  <object id="1764" name="cactuswall" class="cactuswall" x="-128" y="-512" width="128" height="128"/>
  <object id="1765" name="cactuswall" class="cactuswall" x="0" y="-512" width="128" height="128"/>
  <object id="1766" name="cactuswall" class="cactuswall" x="-256" y="-512" width="128" height="128"/>
  <object id="1767" name="cactuswall" class="cactuswall" x="-384" y="-512" width="128" height="128"/>
  <object id="1869" name="rockwall" class="rockwall" x="-256" y="-640" width="128" height="128"/>
  <object id="1870" name="rockwall" class="rockwall" x="-128" y="-768" width="128" height="128"/>
  <object id="1871" name="rockwall" class="rockwall" x="0" y="-640" width="128" height="128"/>
  <object id="1872" name="rockwall" class="rockwall" x="-256" y="128" width="128" height="128"/>
  <object id="1873" name="rockwall" class="rockwall" x="-128" y="256" width="128" height="128"/>
  <object id="1874" name="rockwall" class="rockwall" x="0" y="128" width="128" height="128"/>
  <object id="1875" name="rockwall" class="rockwall" x="384" y="-256" width="128" height="128"/>
  <object id="1876" name="rockwall" class="rockwall" x="-640" y="-256" width="128" height="128"/>
  <object id="1883" name="rockwall" class="rockwall" x="-256" y="-768" width="128" height="128"/>
  <object id="1884" name="rockwall" class="rockwall" x="0" y="-768" width="128" height="128"/>
  <object id="1885" name="rockwall" class="rockwall" x="128" y="-640" width="128" height="128"/>
  <object id="1886" name="rockwall" class="rockwall" x="-384" y="-640" width="128" height="128"/>
  <object id="1887" name="rockwall" class="rockwall" x="256" y="-384" width="128" height="128"/>
  <object id="1888" name="rockwall" class="rockwall" x="384" y="-384" width="128" height="128"/>
  <object id="1889" name="rockwall" class="rockwall" x="384" y="-128" width="128" height="128"/>
  <object id="1890" name="rockwall" class="rockwall" x="256" y="-128" width="128" height="128"/>
  <object id="1891" name="rockwall" class="rockwall" x="-512" y="-384" width="128" height="128"/>
  <object id="1892" name="rockwall" class="rockwall" x="-640" y="-384" width="128" height="128"/>
  <object id="1893" name="rockwall" class="rockwall" x="-512" y="-128" width="128" height="128"/>
  <object id="1894" name="rockwall" class="rockwall" x="-640" y="-128" width="128" height="128"/>
  <object id="1895" name="rockwall" class="rockwall" x="-256" y="256" width="128" height="128"/>
  <object id="1896" name="rockwall" class="rockwall" x="0" y="256" width="128" height="128"/>
  <object id="1897" name="rockwall" class="rockwall" x="256" y="-512" width="128" height="128"/>
  <object id="1898" name="rockwall" class="rockwall" x="256" y="0" width="128" height="128"/>
  <object id="1899" name="rockwall" class="rockwall" x="128" y="128" width="128" height="128"/>
  <object id="1900" name="rockwall" class="rockwall" x="-384" y="128" width="128" height="128"/>
  <object id="1901" name="rockwall" class="rockwall" x="-512" y="0" width="128" height="128"/>
  <object id="1902" name="rockwall" class="rockwall" x="-512" y="-512" width="128" height="128"/>
 </objectgroup>
 <objectgroup id="3" name="towers">
  <object id="1831" name="stonearchertower" class="stonearchertower" x="-640" y="-768" width="256" height="256">
   <ellipse/>
  </object>
  <object id="1833" name="stonearchertower" class="stonearchertower" x="256" y="-768" width="256" height="256">
   <ellipse/>
  </object>
  <object id="1836" name="stonearchertower" class="stonearchertower" x="256" y="128" width="256" height="256">
   <ellipse/>
  </object>
  <object id="1838" name="stonearchertower" class="stonearchertower" x="-640" y="128" width="256" height="256">
   <ellipse/>
  </object>
 </objectgroup>
 <objectgroup id="4" name="platforms" locked="1">
  <object id="357" name="platform" class="platform" x="-256" y="-384" width="128" height="128"/>
  <object id="1747" name="platform" class="platform" x="-256" y="-128" width="128" height="128"/>
  <object id="1748" name="platform" class="platform" x="0" y="-128" width="128" height="128"/>
  <object id="1749" name="platform" class="platform" x="0" y="-384" width="128" height="128"/>
 </objectgroup>
 <objectgroup id="5" name="guard_archers">
  <object id="358" name="guardarcher" class="guardarcher" x="-256" y="-384" width="128" height="128">
   <properties>
    <property name="level" type="int" value="50"/>
   </properties>
   <ellipse/>
  </object>
  <object id="1750" name="guardarcher" class="guardarcher" x="0" y="-384" width="128" height="128">
   <properties>
    <property name="level" type="int" value="50"/>
   </properties>
   <ellipse/>
  </object>
  <object id="1751" name="guardarcher" class="guardarcher" x="0" y="-128" width="128" height="128">
   <properties>
    <property name="level" type="int" value="50"/>
   </properties>
   <ellipse/>
  </object>
  <object id="1752" name="guardarcher" class="guardarcher" x="-256" y="-128" width="128" height="128">
   <properties>
    <property name="level" type="int" value="50"/>
   </properties>
   <ellipse/>
  </object>
 </objectgroup>
 <objectgroup id="7" name="wood_spikes"/>
 <objectgroup id="6" name="guards">
  <object id="1030" name="guard" class="guard" x="-768" y="-256" width="128" height="128">
   <properties>
    <property name="level" type="int" value="50"/>
   </properties>
   <ellipse/>
  </object>
  <object id="1808" name="guard" class="guard" x="512" y="-256" width="128" height="128">
   <properties>
    <property name="level" type="int" value="50"/>
   </properties>
   <ellipse/>
  </object>
  <object id="1809" name="guard" class="guard" x="-128" y="-896" width="128" height="128">
   <properties>
    <property name="level" type="int" value="50"/>
   </properties>
   <ellipse/>
  </object>
  <object id="1810" name="guard" class="guard" x="-128" y="384" width="128" height="128">
   <properties>
    <property name="level" type="int" value="50"/>
   </properties>
   <ellipse/>
  </object>
  <object id="1879" name="guard" class="guard" x="-768" y="-896" width="128" height="128">
   <properties>
    <property name="level" type="int" value="50"/>
   </properties>
   <ellipse/>
  </object>
  <object id="1880" name="guard" class="guard" x="512" y="-896" width="128" height="128">
   <properties>
    <property name="level" type="int" value="50"/>
   </properties>
   <ellipse/>
  </object>
  <object id="1881" name="guard" class="guard" x="512" y="384" width="128" height="128">
   <properties>
    <property name="level" type="int" value="50"/>
   </properties>
   <ellipse/>
  </object>
  <object id="1882" name="guard" class="guard" x="-768" y="384" width="128" height="128">
   <properties>
    <property name="level" type="int" value="50"/>
   </properties>
   <ellipse/>
  </object>
 </objectgroup>
 <objectgroup id="8" name="traps">
  <object id="601" name="trap" class="trap" x="-384" y="512" width="128" height="128"/>
  <object id="1784" name="trap" class="trap" x="128" y="512" width="128" height="128"/>
  <object id="1785" name="trap" class="trap" x="-128" y="512" width="128" height="128"/>
  <object id="1786" name="trap" class="trap" x="384" y="512" width="128" height="128"/>
  <object id="1787" name="trap" class="trap" x="640" y="512" width="128" height="128"/>
  <object id="1788" name="trap" class="trap" x="640" y="256" width="128" height="128"/>
  <object id="1789" name="trap" class="trap" x="640" y="0" width="128" height="128"/>
  <object id="1790" name="trap" class="trap" x="640" y="-256" width="128" height="128"/>
  <object id="1791" name="trap" class="trap" x="640" y="-512" width="128" height="128"/>
  <object id="1792" name="trap" class="trap" x="640" y="-768" width="128" height="128"/>
  <object id="1793" name="trap" class="trap" x="640" y="-1024" width="128" height="128"/>
  <object id="1794" name="trap" class="trap" x="384" y="-1024" width="128" height="128"/>
  <object id="1795" name="trap" class="trap" x="128" y="-1024" width="128" height="128"/>
  <object id="1796" name="trap" class="trap" x="-384" y="-1024" width="128" height="128"/>
  <object id="1797" name="trap" class="trap" x="-128" y="-1024" width="128" height="128"/>
  <object id="1798" name="trap" class="trap" x="-640" y="-1024" width="128" height="128"/>
  <object id="1799" name="trap" class="trap" x="-896" y="-1024" width="128" height="128"/>
  <object id="1800" name="trap" class="trap" x="-896" y="-768" width="128" height="128"/>
  <object id="1801" name="trap" class="trap" x="-896" y="-256" width="128" height="128"/>
  <object id="1802" name="trap" class="trap" x="-896" y="-512" width="128" height="128"/>
  <object id="1804" name="trap" class="trap" x="-896" y="512" width="128" height="128"/>
  <object id="1805" name="trap" class="trap" x="-896" y="256" width="128" height="128"/>
  <object id="1806" name="trap" class="trap" x="-896" y="0" width="128" height="128"/>
  <object id="1807" name="trap" class="trap" x="-640" y="512" width="128" height="128"/>
 </objectgroup>
 <objectgroup id="9" name="firewatchers">
  <object id="1813" name="firewatchertower" class="firewatchertower" x="256" y="-256" width="128" height="128"/>
  <object id="1829" name="foreignheartstone" class="foreignheartstone" x="-256" y="-256" width="128" height="128"/>
  <object id="1830" name="foreignheartstone" class="foreignheartstone" x="-128" y="-384" width="128" height="128"/>
  <object id="1866" name="firewatchertower" class="firewatchertower" x="-512" y="-256" width="128" height="128"/>
  <object id="1867" name="firewatchertower" class="firewatchertower" x="-128" y="-640" width="128" height="128"/>
  <object id="1868" name="firewatchertower" class="firewatchertower" x="-128" y="128" width="128" height="128"/>
  <object id="1877" name="foreignheartstone" class="foreignheartstone" x="0" y="-256" width="128" height="128"/>
  <object id="1878" name="foreignheartstone" class="foreignheartstone" x="-128" y="-128" width="128" height="128"/>
 </objectgroup>
 <objectgroup id="10" name="main" locked="1">
  <object id="2" name="main" class="secretchest" x="-128" y="-256" width="128" height="128"/>
 </objectgroup>
</map>
