<?xml version="1.0" encoding="UTF-8"?>
<map version="1.9" tiledversion="1.9.2" orientation="orthogonal" renderorder="right-down" width="10" height="10" tilewidth="128" tileheight="128" infinite="1" nextlayerid="12" nextobjectid="2089">
 <objectgroup id="1" name="floors">
  <object id="1861" name="floor" class="floor" x="-384" y="-256" width="128" height="128"/>
  <object id="2018" name="floor" class="floor" x="-256" y="-256" width="128" height="128"/>
  <object id="2019" name="floor" class="floor" x="-128" y="-256" width="128" height="128"/>
  <object id="2020" name="floor" class="floor" x="0" y="-256" width="128" height="128"/>
  <object id="2021" name="floor" class="floor" x="128" y="-256" width="128" height="128"/>
  <object id="2022" name="floor" class="floor" x="256" y="-256" width="128" height="128"/>
  <object id="2023" name="floor" class="floor" x="-384" y="-128" width="128" height="128"/>
  <object id="2024" name="floor" class="floor" x="-256" y="-128" width="128" height="128"/>
  <object id="2025" name="floor" class="floor" x="-128" y="-128" width="128" height="128"/>
  <object id="2026" name="floor" class="floor" x="0" y="-128" width="128" height="128"/>
  <object id="2027" name="floor" class="floor" x="128" y="-128" width="128" height="128"/>
  <object id="2028" name="floor" class="floor" x="256" y="-128" width="128" height="128"/>
  <object id="2029" name="floor" class="floor" x="-384" y="0" width="128" height="128"/>
  <object id="2030" name="floor" class="floor" x="-256" y="0" width="128" height="128"/>
  <object id="2031" name="floor" class="floor" x="-128" y="0" width="128" height="128"/>
  <object id="2032" name="floor" class="floor" x="0" y="0" width="128" height="128"/>
  <object id="2033" name="floor" class="floor" x="128" y="0" width="128" height="128"/>
  <object id="2034" name="floor" class="floor" x="256" y="0" width="128" height="128"/>
  <object id="2035" name="floor" class="floor" x="-384" y="128" width="128" height="128"/>
  <object id="2036" name="floor" class="floor" x="-256" y="128" width="128" height="128"/>
  <object id="2037" name="floor" class="floor" x="-128" y="128" width="128" height="128"/>
  <object id="2038" name="floor" class="floor" x="0" y="128" width="128" height="128"/>
  <object id="2039" name="floor" class="floor" x="128" y="128" width="128" height="128"/>
  <object id="2040" name="floor" class="floor" x="256" y="128" width="128" height="128"/>
  <object id="2041" name="floor" class="floor" x="-384" y="256" width="128" height="128"/>
  <object id="2042" name="floor" class="floor" x="-256" y="256" width="128" height="128"/>
  <object id="2043" name="floor" class="floor" x="-128" y="256" width="128" height="128"/>
  <object id="2044" name="floor" class="floor" x="0" y="256" width="128" height="128"/>
  <object id="2045" name="floor" class="floor" x="128" y="256" width="128" height="128"/>
  <object id="2046" name="floor" class="floor" x="256" y="256" width="128" height="128"/>
  <object id="2047" name="floor" class="floor" x="-384" y="384" width="128" height="128"/>
  <object id="2048" name="floor" class="floor" x="-256" y="384" width="128" height="128"/>
  <object id="2049" name="floor" class="floor" x="-128" y="384" width="128" height="128"/>
  <object id="2050" name="floor" class="floor" x="0" y="384" width="128" height="128"/>
  <object id="2051" name="floor" class="floor" x="128" y="384" width="128" height="128"/>
  <object id="2052" name="floor" class="floor" x="256" y="384" width="128" height="128"/>
  <object id="2053" name="decorativefloor2" class="decorativefloor2" x="384" y="256" width="128" height="128"/>
  <object id="2054" name="decorativefloor2" class="decorativefloor2" x="512" y="256" width="128" height="128"/>
  <object id="2055" name="decorativefloor2" class="decorativefloor2" x="384" y="384" width="128" height="128"/>
  <object id="2056" name="decorativefloor2" class="decorativefloor2" x="512" y="384" width="128" height="128"/>
  <object id="2061" name="decorativefloor2" class="decorativefloor2" x="128" y="512" width="128" height="128"/>
  <object id="2062" name="decorativefloor2" class="decorativefloor2" x="256" y="512" width="128" height="128"/>
  <object id="2063" name="decorativefloor2" class="decorativefloor2" x="128" y="640" width="128" height="128"/>
  <object id="2064" name="decorativefloor2" class="decorativefloor2" x="256" y="640" width="128" height="128"/>
  <object id="2065" name="decorativefloor2" class="decorativefloor2" x="-384" y="512" width="128" height="128"/>
  <object id="2066" name="decorativefloor2" class="decorativefloor2" x="-256" y="512" width="128" height="128"/>
  <object id="2067" name="decorativefloor2" class="decorativefloor2" x="-384" y="640" width="128" height="128"/>
  <object id="2068" name="decorativefloor2" class="decorativefloor2" x="-256" y="640" width="128" height="128"/>
  <object id="2069" name="decorativefloor2" class="decorativefloor2" x="-640" y="256" width="128" height="128"/>
  <object id="2070" name="decorativefloor2" class="decorativefloor2" x="-512" y="256" width="128" height="128"/>
  <object id="2071" name="decorativefloor2" class="decorativefloor2" x="-640" y="384" width="128" height="128"/>
  <object id="2072" name="decorativefloor2" class="decorativefloor2" x="-512" y="384" width="128" height="128"/>
  <object id="2073" name="decorativefloor2" class="decorativefloor2" x="-640" y="-256" width="128" height="128"/>
  <object id="2074" name="decorativefloor2" class="decorativefloor2" x="-512" y="-256" width="128" height="128"/>
  <object id="2075" name="decorativefloor2" class="decorativefloor2" x="-640" y="-128" width="128" height="128"/>
  <object id="2076" name="decorativefloor2" class="decorativefloor2" x="-512" y="-128" width="128" height="128"/>
  <object id="2077" name="decorativefloor2" class="decorativefloor2" x="-384" y="-512" width="128" height="128"/>
  <object id="2078" name="decorativefloor2" class="decorativefloor2" x="-256" y="-512" width="128" height="128"/>
  <object id="2079" name="decorativefloor2" class="decorativefloor2" x="-384" y="-384" width="128" height="128"/>
  <object id="2080" name="decorativefloor2" class="decorativefloor2" x="-256" y="-384" width="128" height="128"/>
  <object id="2081" name="decorativefloor2" class="decorativefloor2" x="128" y="-512" width="128" height="128"/>
  <object id="2082" name="decorativefloor2" class="decorativefloor2" x="256" y="-512" width="128" height="128"/>
  <object id="2083" name="decorativefloor2" class="decorativefloor2" x="128" y="-384" width="128" height="128"/>
  <object id="2084" name="decorativefloor2" class="decorativefloor2" x="256" y="-384" width="128" height="128"/>
  <object id="2085" name="decorativefloor2" class="decorativefloor2" x="384" y="-256" width="128" height="128"/>
  <object id="2086" name="decorativefloor2" class="decorativefloor2" x="512" y="-256" width="128" height="128"/>
  <object id="2087" name="decorativefloor2" class="decorativefloor2" x="384" y="-128" width="128" height="128"/>
  <object id="2088" name="decorativefloor2" class="decorativefloor2" x="512" y="-128" width="128" height="128"/>
 </objectgroup>
 <objectgroup id="2" name="walls">
  <object id="1917" name="diamondwall" class="diamondwall" x="128" y="0" width="128" height="128"/>
  <object id="1918" name="diamondwall" class="diamondwall" x="0" y="-128" width="128" height="128"/>
  <object id="1919" name="foreignheartstone" class="foreignheartstone" x="128" y="128" width="128" height="128"/>
  <object id="1920" name="diamondwall" class="diamondwall" x="0" y="128" width="128" height="128"/>
  <object id="1921" name="goldwall" class="goldwall" x="0" y="256" width="128" height="128"/>
  <object id="1922" name="goldwall" class="goldwall" x="-128" y="256" width="128" height="128"/>
  <object id="1923" name="goldwall" class="goldwall" x="-256" y="128" width="128" height="128"/>
  <object id="1924" name="foreignheartstone" class="foreignheartstone" x="-256" y="0" width="128" height="128"/>
  <object id="1925" name="diamondwall" class="diamondwall" x="-128" y="0" width="128" height="128"/>
  <object id="1926" name="goldwall" class="goldwall" x="-128" y="-128" width="128" height="128"/>
  <object id="1930" name="rockwall" class="rockwall" x="-256" y="-256" width="128" height="128"/>
  <object id="1931" name="rockwall" class="rockwall" x="-128" y="-256" width="128" height="128"/>
  <object id="1932" name="rockwall" class="rockwall" x="0" y="-256" width="128" height="128"/>
  <object id="1933" name="rockwall" class="rockwall" x="128" y="-256" width="128" height="128"/>
  <object id="1934" name="rockwall" class="rockwall" x="256" y="-128" width="128" height="128"/>
  <object id="1935" name="rockwall" class="rockwall" x="256" y="0" width="128" height="128"/>
  <object id="1936" name="rockwall" class="rockwall" x="256" y="128" width="128" height="128"/>
  <object id="1937" name="rockwall" class="rockwall" x="256" y="256" width="128" height="128"/>
  <object id="1938" name="rockwall" class="rockwall" x="128" y="384" width="128" height="128"/>
  <object id="1939" name="rockwall" class="rockwall" x="0" y="384" width="128" height="128"/>
  <object id="1940" name="rockwall" class="rockwall" x="-128" y="384" width="128" height="128"/>
  <object id="1941" name="rockwall" class="rockwall" x="-256" y="384" width="128" height="128"/>
  <object id="1942" name="rockwall" class="rockwall" x="-384" y="256" width="128" height="128"/>
  <object id="1943" name="rockwall" class="rockwall" x="-384" y="128" width="128" height="128"/>
  <object id="1944" name="rockwall" class="rockwall" x="-384" y="0" width="128" height="128"/>
  <object id="1945" name="rockwall" class="rockwall" x="-384" y="-128" width="128" height="128"/>
 </objectgroup>
 <objectgroup id="3" name="towers">
  <object id="1833" name="snowballtower" class="snowballtower" x="128" y="-512" width="256" height="256">
   <ellipse/>
  </object>
  <object id="1946" name="snowballtower" class="snowballtower" x="384" y="-256" width="256" height="256">
   <ellipse/>
  </object>
  <object id="1947" name="snowballtower" class="snowballtower" x="-384" y="-512" width="256" height="256">
   <ellipse/>
  </object>
  <object id="1948" name="snowballtower" class="snowballtower" x="-640" y="-256" width="256" height="256">
   <ellipse/>
  </object>
  <object id="1949" name="snowballtower" class="snowballtower" x="-640" y="256" width="256" height="256">
   <ellipse/>
  </object>
  <object id="1950" name="snowballtower" class="snowballtower" x="-384" y="512" width="256" height="256">
   <ellipse/>
  </object>
  <object id="1951" name="snowballtower" class="snowballtower" x="128" y="512" width="256" height="256">
   <ellipse/>
  </object>
  <object id="1952" name="snowballtower" class="snowballtower" x="384" y="256" width="256" height="256">
   <ellipse/>
  </object>
 </objectgroup>
 <objectgroup id="4" name="platforms">
  <object id="357" name="platform" class="platform" x="128" y="-128" width="128" height="128"/>
  <object id="1747" name="platform" class="platform" x="-256" y="256" width="128" height="128"/>
  <object id="1748" name="platform" class="platform" x="128" y="256" width="128" height="128"/>
  <object id="1749" name="platform" class="platform" x="-256" y="-128" width="128" height="128"/>
 </objectgroup>
 <objectgroup id="5" name="guard_archers">
  <object id="358" name="guardarcher" class="guardarcher" x="128" y="-128" width="128" height="128">
   <properties>
    <property name="level" type="int" value="50"/>
   </properties>
   <ellipse/>
  </object>
  <object id="1750" name="guardarcher" class="guardarcher" x="-256" y="-128" width="128" height="128">
   <properties>
    <property name="level" type="int" value="50"/>
   </properties>
   <ellipse/>
  </object>
  <object id="1751" name="guardarcher" class="guardarcher" x="128" y="256" width="128" height="128">
   <properties>
    <property name="level" type="int" value="50"/>
   </properties>
   <ellipse/>
  </object>
  <object id="1752" name="guardarcher" class="guardarcher" x="-256" y="256" width="128" height="128">
   <properties>
    <property name="level" type="int" value="50"/>
   </properties>
   <ellipse/>
  </object>
  <object id="1962" name="snowman" class="snowman" x="-128" y="-512" width="128" height="128">
   <ellipse/>
  </object>
  <object id="1963" name="snowman" class="snowman" x="0" y="-512" width="128" height="128">
   <ellipse/>
  </object>
  <object id="1964" name="snowman" class="snowman" x="512" y="0" width="128" height="128">
   <ellipse/>
  </object>
  <object id="1965" name="snowman" class="snowman" x="512" y="128" width="128" height="128">
   <ellipse/>
  </object>
  <object id="1966" name="snowman" class="snowman" x="0" y="640" width="128" height="128">
   <ellipse/>
  </object>
  <object id="1967" name="snowman" class="snowman" x="-128" y="640" width="128" height="128">
   <ellipse/>
  </object>
  <object id="1968" name="snowman" class="snowman" x="-640" y="128" width="128" height="128">
   <ellipse/>
  </object>
  <object id="1969" name="snowman" class="snowman" x="-640" y="0" width="128" height="128">
   <ellipse/>
  </object>
  <object id="1970" name="guard" class="guard" x="384" y="-384" width="128" height="128">
   <ellipse/>
  </object>
  <object id="1971" name="guard" class="guard" x="-512" y="-384" width="128" height="128">
   <ellipse/>
  </object>
  <object id="1972" name="guard" class="guard" x="-512" y="512" width="128" height="128">
   <ellipse/>
  </object>
  <object id="1973" name="guard" class="guard" x="384" y="512" width="128" height="128">
   <ellipse/>
  </object>
 </objectgroup>
 <objectgroup id="7" name="wood_spikes">
  <object id="1953" name="woodspikes" class="woodspikes" x="-128" y="-384" width="128" height="128"/>
  <object id="1954" name="woodspikes" class="woodspikes" x="0" y="-384" width="128" height="128"/>
  <object id="1955" name="woodspikes" class="woodspikes" x="384" y="0" width="128" height="128"/>
  <object id="1956" name="woodspikes" class="woodspikes" x="384" y="128" width="128" height="128"/>
  <object id="1957" name="woodspikes" class="woodspikes" x="0" y="512" width="128" height="128"/>
  <object id="1958" name="woodspikes" class="woodspikes" x="-128" y="512" width="128" height="128"/>
  <object id="1959" name="woodspikes" class="woodspikes" x="-512" y="128" width="128" height="128"/>
  <object id="1960" name="woodspikes" class="woodspikes" x="-512" y="0" width="128" height="128"/>
 </objectgroup>
 <objectgroup id="6" name="guards"/>
 <objectgroup id="8" name="traps">
  <object id="1974" name="trap" class="trap" x="768" y="0" width="128" height="128">
   <ellipse/>
  </object>
  <object id="1975" name="trap" class="trap" x="768" y="128" width="128" height="128">
   <ellipse/>
  </object>
  <object id="1976" name="trap" class="trap" x="-896" y="0" width="128" height="128">
   <ellipse/>
  </object>
  <object id="1977" name="trap" class="trap" x="-896" y="128" width="128" height="128">
   <ellipse/>
  </object>
  <object id="1978" name="trap" class="trap" x="0" y="896" width="128" height="128">
   <ellipse/>
  </object>
  <object id="1979" name="trap" class="trap" x="-128" y="896" width="128" height="128">
   <ellipse/>
  </object>
  <object id="1980" name="trap" class="trap" x="-128" y="-768" width="128" height="128">
   <ellipse/>
  </object>
  <object id="1981" name="trap" class="trap" x="0" y="-768" width="128" height="128">
   <ellipse/>
  </object>
  <object id="1982" name="trap" class="trap" x="256" y="-768" width="128" height="128">
   <ellipse/>
  </object>
  <object id="1983" name="trap" class="trap" x="-384" y="-768" width="128" height="128">
   <ellipse/>
  </object>
  <object id="1984" name="trap" class="trap" x="768" y="-256" width="128" height="128">
   <ellipse/>
  </object>
  <object id="1985" name="trap" class="trap" x="768" y="384" width="128" height="128">
   <ellipse/>
  </object>
  <object id="1986" name="trap" class="trap" x="256" y="896" width="128" height="128">
   <ellipse/>
  </object>
  <object id="1987" name="trap" class="trap" x="-384" y="896" width="128" height="128">
   <ellipse/>
  </object>
  <object id="1988" name="trap" class="trap" x="-896" y="384" width="128" height="128">
   <ellipse/>
  </object>
  <object id="1989" name="trap" class="trap" x="-896" y="-256" width="128" height="128">
   <ellipse/>
  </object>
  <object id="1990" name="trap" class="trap" x="-896" y="-512" width="128" height="128">
   <ellipse/>
  </object>
  <object id="1991" name="trap" class="trap" x="-896" y="-768" width="128" height="128">
   <ellipse/>
  </object>
  <object id="1992" name="trap" class="trap" x="-640" y="-768" width="128" height="128">
   <ellipse/>
  </object>
  <object id="1993" name="trap" class="trap" x="512" y="-768" width="128" height="128">
   <ellipse/>
  </object>
  <object id="1994" name="trap" class="trap" x="768" y="-768" width="128" height="128">
   <ellipse/>
  </object>
  <object id="1995" name="trap" class="trap" x="768" y="-512" width="128" height="128">
   <ellipse/>
  </object>
  <object id="1996" name="trap" class="trap" x="768" y="640" width="128" height="128">
   <ellipse/>
  </object>
  <object id="1997" name="trap" class="trap" x="768" y="896" width="128" height="128">
   <ellipse/>
  </object>
  <object id="1998" name="trap" class="trap" x="512" y="896" width="128" height="128">
   <ellipse/>
  </object>
  <object id="1999" name="trap" class="trap" x="-640" y="896" width="128" height="128">
   <ellipse/>
  </object>
  <object id="2000" name="trap" class="trap" x="-896" y="896" width="128" height="128">
   <ellipse/>
  </object>
  <object id="2001" name="trap" class="trap" x="-896" y="640" width="128" height="128">
   <ellipse/>
  </object>
  <object id="2002" name="trap" class="trap" x="-768" y="-640" width="128" height="128">
   <ellipse/>
  </object>
  <object id="2003" name="trap" class="trap" x="-640" y="-512" width="128" height="128">
   <ellipse/>
  </object>
  <object id="2004" name="trap" class="trap" x="640" y="-640" width="128" height="128">
   <ellipse/>
  </object>
  <object id="2005" name="trap" class="trap" x="512" y="-512" width="128" height="128">
   <ellipse/>
  </object>
  <object id="2006" name="trap" class="trap" x="512" y="640" width="128" height="128">
   <ellipse/>
  </object>
  <object id="2007" name="trap" class="trap" x="640" y="768" width="128" height="128">
   <ellipse/>
  </object>
  <object id="2008" name="trap" class="trap" x="-768" y="768" width="128" height="128">
   <ellipse/>
  </object>
  <object id="2009" name="trap" class="trap" x="-640" y="640" width="128" height="128">
   <ellipse/>
  </object>
  <object id="2010" name="trap" class="trap" x="640" y="0" width="128" height="128">
   <ellipse/>
  </object>
  <object id="2011" name="trap" class="trap" x="640" y="128" width="128" height="128">
   <ellipse/>
  </object>
  <object id="2012" name="trap" class="trap" x="-128" y="-640" width="128" height="128">
   <ellipse/>
  </object>
  <object id="2013" name="trap" class="trap" x="0" y="-640" width="128" height="128">
   <ellipse/>
  </object>
  <object id="2014" name="trap" class="trap" x="-768" y="0" width="128" height="128">
   <ellipse/>
  </object>
  <object id="2015" name="trap" class="trap" x="-768" y="128" width="128" height="128">
   <ellipse/>
  </object>
  <object id="2016" name="trap" class="trap" x="0" y="768" width="128" height="128">
   <ellipse/>
  </object>
  <object id="2017" name="trap" class="trap" x="-128" y="768" width="128" height="128">
   <ellipse/>
  </object>
 </objectgroup>
 <objectgroup id="9" name="firewatchers">
  <object id="1813" name="firewatchertower" class="firewatchertower" x="256" y="-256" width="128" height="128"/>
  <object id="1903" name="secretchest" class="secretchest" x="-128" y="128" width="128" height="128"/>
  <object id="1927" name="firewatchertower" class="firewatchertower" x="-384" y="-256" width="128" height="128"/>
  <object id="1928" name="firewatchertower" class="firewatchertower" x="-384" y="384" width="128" height="128"/>
  <object id="1929" name="firewatchertower" class="firewatchertower" x="256" y="384" width="128" height="128"/>
 </objectgroup>
 <objectgroup id="10" name="main">
  <object id="2" name="main" class="secretchest" x="0" y="0" width="128" height="128"/>
 </objectgroup>
</map>
