<?xml version="1.0" encoding="UTF-8"?>
<map version="1.9" tiledversion="1.9.2" orientation="orthogonal" renderorder="right-down" width="10" height="10" tilewidth="128" tileheight="128" infinite="1" nextlayerid="12" nextobjectid="1936">
 <objectgroup id="2" name="walls">
  <object id="296" name="goldwall" class="goldwall" x="-384" y="-384" width="128" height="128"/>
  <object id="1753" name="goldwall" class="goldwall" x="-384" y="-256" width="128" height="128"/>
  <object id="1754" name="goldwall" class="goldwall" x="-384" y="-128" width="128" height="128"/>
  <object id="1755" name="goldwall" class="goldwall" x="-384" y="0" width="128" height="128"/>
  <object id="1756" name="goldwall" class="goldwall" x="-256" y="0" width="128" height="128"/>
  <object id="1757" name="goldwall" class="goldwall" x="-128" y="0" width="128" height="128"/>
  <object id="1758" name="goldwall" class="goldwall" x="0" y="0" width="128" height="128"/>
  <object id="1759" name="goldwall" class="goldwall" x="128" y="0" width="128" height="128"/>
  <object id="1760" name="goldwall" class="goldwall" x="128" y="-128" width="128" height="128"/>
  <object id="1761" name="goldwall" class="goldwall" x="128" y="-256" width="128" height="128"/>
  <object id="1762" name="goldwall" class="goldwall" x="128" y="-384" width="128" height="128"/>
  <object id="1763" name="goldwall" class="goldwall" x="128" y="-512" width="128" height="128"/>
  <object id="1764" name="goldwall" class="goldwall" x="-128" y="-512" width="128" height="128"/>
  <object id="1765" name="goldwall" class="goldwall" x="0" y="-512" width="128" height="128"/>
  <object id="1766" name="goldwall" class="goldwall" x="-256" y="-512" width="128" height="128"/>
  <object id="1767" name="rockwall" class="rockwall" x="-512" y="-768" width="128" height="128"/>
  <object id="1822" name="rockwall" class="rockwall" x="-384" y="384" width="128" height="128"/>
  <object id="1823" name="rockwall" class="rockwall" x="128" y="384" width="128" height="128"/>
  <object id="1826" name="rockwall" class="rockwall" x="512" y="0" width="128" height="128"/>
  <object id="1828" name="rockwall" class="rockwall" x="512" y="-512" width="128" height="128"/>
  <object id="1830" name="rockwall" class="rockwall" x="-384" y="-896" width="128" height="128"/>
  <object id="1832" name="rockwall" class="rockwall" x="128" y="-896" width="128" height="128"/>
  <object id="1834" name="rockwall" class="rockwall" x="-768" y="-512" width="128" height="128"/>
  <object id="1836" name="rockwall" class="rockwall" x="-768" y="0" width="128" height="128"/>
  <object id="1838" name="rockwall" class="rockwall" x="-640" y="-512" width="128" height="128"/>
  <object id="1839" name="rockwall" class="rockwall" x="-640" y="-768" width="128" height="128"/>
  <object id="1840" name="rockwall" class="rockwall" x="-640" y="-640" width="128" height="128"/>
  <object id="1841" name="rockwall" class="rockwall" x="-384" y="-768" width="128" height="128"/>
  <object id="1842" name="rockwall" class="rockwall" x="128" y="-768" width="128" height="128"/>
  <object id="1843" name="rockwall" class="rockwall" x="256" y="-768" width="128" height="128"/>
  <object id="1844" name="rockwall" class="rockwall" x="384" y="-640" width="128" height="128"/>
  <object id="1845" name="rockwall" class="rockwall" x="384" y="-512" width="128" height="128"/>
  <object id="1846" name="rockwall" class="rockwall" x="384" y="0" width="128" height="128"/>
  <object id="1849" name="rockwall" class="rockwall" x="128" y="256" width="128" height="128"/>
  <object id="1850" name="rockwall" class="rockwall" x="-384" y="256" width="128" height="128"/>
  <object id="1853" name="rockwall" class="rockwall" x="-640" y="0" width="128" height="128"/>
  <object id="1887" name="rockwall" class="rockwall" x="0" y="512" width="128" height="128"/>
  <object id="1888" name="rockwall" class="rockwall" x="-256" y="512" width="128" height="128"/>
  <object id="1889" name="rockwall" class="rockwall" x="-896" y="-128" width="128" height="128"/>
  <object id="1890" name="rockwall" class="rockwall" x="-896" y="-384" width="128" height="128"/>
  <object id="1891" name="rockwall" class="rockwall" x="-256" y="-1024" width="128" height="128"/>
  <object id="1892" name="rockwall" class="rockwall" x="0" y="-1024" width="128" height="128"/>
  <object id="1893" name="rockwall" class="rockwall" x="640" y="-384" width="128" height="128"/>
  <object id="1894" name="rockwall" class="rockwall" x="640" y="-128" width="128" height="128"/>
  <object id="1911" name="goldwall" class="goldwall" x="-384" y="-512" width="128" height="128"/>
  <object id="1912" name="rockwall" class="rockwall" x="384" y="-768" width="128" height="128"/>
  <object id="1913" name="rockwall" class="rockwall" x="384" y="256" width="128" height="128"/>
  <object id="1914" name="rockwall" class="rockwall" x="256" y="256" width="128" height="128"/>
  <object id="1915" name="rockwall" class="rockwall" x="384" y="128" width="128" height="128"/>
  <object id="1916" name="rockwall" class="rockwall" x="-512" y="256" width="128" height="128"/>
  <object id="1917" name="rockwall" class="rockwall" x="-640" y="256" width="128" height="128"/>
  <object id="1918" name="rockwall" class="rockwall" x="-640" y="128" width="128" height="128"/>
 </objectgroup>
 <objectgroup id="3" name="towers">
  <object id="1818" name="spidertower" class="spidertower" x="-640" y="-1024" width="256" height="256"/>
  <object id="1819" name="spidertower" class="spidertower" x="256" y="-1024" width="256" height="256"/>
  <object id="1820" name="spidertower" class="spidertower" x="256" y="384" width="256" height="256"/>
  <object id="1821" name="spidertower" class="spidertower" x="-896" y="128" width="256" height="256"/>
  <object id="1903" name="spidertower" class="spidertower" x="512" y="-768" width="256" height="256"/>
  <object id="1904" name="spidertower" class="spidertower" x="-896" y="-768" width="256" height="256"/>
  <object id="1905" name="spidertower" class="spidertower" x="512" y="128" width="256" height="256"/>
  <object id="1906" name="spidertower" class="spidertower" x="-640" y="384" width="256" height="256"/>
 </objectgroup>
 <objectgroup id="4" name="platforms">
  <object id="357" name="platform" class="platform" x="-256" y="-384" width="128" height="128"/>
  <object id="1747" name="platform" class="platform" x="-256" y="-128" width="128" height="128"/>
  <object id="1748" name="platform" class="platform" x="0" y="-128" width="128" height="128"/>
  <object id="1749" name="platform" class="platform" x="0" y="-384" width="128" height="128"/>
 </objectgroup>
 <objectgroup id="5" name="guard_archers">
  <object id="358" name="guardarcher" class="guardarcher" x="-256" y="-384" width="128" height="128">
   <properties>
    <property name="level" type="int" value="50"/>
   </properties>
   <ellipse/>
  </object>
  <object id="1750" name="guardarcher" class="guardarcher" x="0" y="-384" width="128" height="128">
   <properties>
    <property name="level" type="int" value="50"/>
   </properties>
   <ellipse/>
  </object>
  <object id="1751" name="guardarcher" class="guardarcher" x="0" y="-128" width="128" height="128">
   <properties>
    <property name="level" type="int" value="50"/>
   </properties>
   <ellipse/>
  </object>
  <object id="1752" name="guardarcher" class="guardarcher" x="-256" y="-128" width="128" height="128">
   <properties>
    <property name="level" type="int" value="50"/>
   </properties>
   <ellipse/>
  </object>
 </objectgroup>
 <objectgroup id="7" name="wood_spikes">
  <object id="1771" name="woodspikes" class="woodspikes" x="256" y="-256" width="128" height="128"/>
  <object id="1773" name="woodspikes" class="woodspikes" x="0" y="128" width="128" height="128"/>
  <object id="1774" name="woodspikes" class="woodspikes" x="-256" y="128" width="128" height="128"/>
  <object id="1776" name="woodspikes" class="woodspikes" x="-512" y="-256" width="128" height="128"/>
  <object id="1855" name="woodspikes" class="woodspikes" x="256" y="-384" width="128" height="128"/>
  <object id="1856" name="woodspikes" class="woodspikes" x="256" y="-128" width="128" height="128"/>
  <object id="1857" name="woodspikes" class="woodspikes" x="-128" y="128" width="128" height="128"/>
  <object id="1858" name="woodspikes" class="woodspikes" x="-512" y="-128" width="128" height="128"/>
  <object id="1859" name="woodspikes" class="woodspikes" x="-512" y="-384" width="128" height="128"/>
  <object id="1876" name="woodspikes" class="woodspikes" x="-128" y="-640" width="128" height="128"/>
  <object id="1877" name="woodspikes" class="woodspikes" x="-256" y="-640" width="128" height="128"/>
  <object id="1878" name="woodspikes" class="woodspikes" x="0" y="-640" width="128" height="128"/>
 </objectgroup>
 <objectgroup id="6" name="guards"/>
 <objectgroup id="8" name="traps">
  <object id="601" name="trap" class="trap" x="-384" y="512" width="128" height="128"/>
  <object id="1784" name="trap" class="trap" x="128" y="512" width="128" height="128"/>
  <object id="1785" name="trap" class="trap" x="-128" y="512" width="128" height="128"/>
  <object id="1789" name="trap" class="trap" x="640" y="0" width="128" height="128"/>
  <object id="1790" name="trap" class="trap" x="640" y="-256" width="128" height="128"/>
  <object id="1791" name="trap" class="trap" x="640" y="-512" width="128" height="128"/>
  <object id="1795" name="trap" class="trap" x="128" y="-1024" width="128" height="128"/>
  <object id="1796" name="trap" class="trap" x="-384" y="-1024" width="128" height="128"/>
  <object id="1797" name="trap" class="trap" x="-128" y="-1024" width="128" height="128"/>
  <object id="1801" name="trap" class="trap" x="-896" y="-256" width="128" height="128"/>
  <object id="1802" name="trap" class="trap" x="-896" y="-512" width="128" height="128"/>
  <object id="1806" name="trap" class="trap" x="-896" y="0" width="128" height="128"/>
  <object id="1907" name="spidercocoon" class="spidercocoon" x="559" y="-989" width="190" height="190">
   <ellipse/>
  </object>
  <object id="1908" name="spidercocoon" class="spidercocoon" x="-889" y="-1001" width="190" height="190">
   <ellipse/>
  </object>
  <object id="1909" name="spidercocoon" class="spidercocoon" x="-871" y="405" width="190" height="190">
   <ellipse/>
  </object>
  <object id="1910" name="spidercocoon" class="spidercocoon" x="543" y="415" width="190" height="190">
   <ellipse/>
  </object>
  <object id="1923" name="trap" class="trap" x="-512" y="-512" width="128" height="128"/>
  <object id="1924" name="trap" class="trap" x="-384" y="-640" width="128" height="128"/>
  <object id="1925" name="trap" class="trap" x="128" y="-640" width="128" height="128"/>
  <object id="1926" name="trap" class="trap" x="256" y="-512" width="128" height="128"/>
  <object id="1927" name="trap" class="trap" x="-512" y="0" width="128" height="128"/>
  <object id="1928" name="trap" class="trap" x="-384" y="128" width="128" height="128"/>
  <object id="1929" name="trap" class="trap" x="128" y="128" width="128" height="128"/>
  <object id="1930" name="trap" class="trap" x="256" y="0" width="128" height="128"/>
  <object id="1932" name="foreignheartstone" class="foreignheartstone" x="256" y="-640" width="128" height="128"/>
  <object id="1933" name="foreignheartstone" class="foreignheartstone" x="-512" y="-640" width="128" height="128"/>
  <object id="1934" name="foreignheartstone" class="foreignheartstone" x="-512" y="128" width="128" height="128"/>
  <object id="1935" name="foreignheartstone" class="foreignheartstone" x="256" y="128" width="128" height="128"/>
 </objectgroup>
 <objectgroup id="9" name="firewatchers">
  <object id="1811" name="firewatchertower" class="firewatchertower" x="-256" y="-256" width="128" height="128"/>
  <object id="1813" name="firewatchertower" class="firewatchertower" x="0" y="-256" width="128" height="128"/>
 </objectgroup>
 <objectgroup id="10" name="main">
  <object id="2" name="main" class="spiderchest" x="-128" y="-256" width="128" height="128"/>
  <object id="1901" name="spiderchest" class="spiderchest" x="-128" y="-384" width="128" height="128"/>
  <object id="1931" name="spiderchest" class="spiderchest" x="-128" y="-128" width="128" height="128"/>
 </objectgroup>
</map>
