<?xml version="1.0" encoding="UTF-8"?>
<map version="1.9" tiledversion="1.9.2" orientation="orthogonal" renderorder="right-down" width="10" height="10" tilewidth="128" tileheight="128" infinite="1" nextlayerid="12" nextobjectid="1901">
 <objectgroup id="2" name="walls">
  <object id="296" name="rockwall" class="rockwall" x="-384" y="-384" width="128" height="128"/>
  <object id="1753" name="rockwall" class="rockwall" x="-384" y="-256" width="128" height="128"/>
  <object id="1754" name="rockwall" class="rockwall" x="-384" y="-128" width="128" height="128"/>
  <object id="1755" name="rockwall" class="rockwall" x="-384" y="0" width="128" height="128"/>
  <object id="1759" name="rockwall" class="rockwall" x="128" y="0" width="128" height="128"/>
  <object id="1760" name="rockwall" class="rockwall" x="128" y="-128" width="128" height="128"/>
  <object id="1761" name="rockwall" class="rockwall" x="128" y="-256" width="128" height="128"/>
  <object id="1762" name="rockwall" class="rockwall" x="128" y="-384" width="128" height="128"/>
  <object id="1763" name="rockwall" class="rockwall" x="128" y="-512" width="128" height="128"/>
  <object id="1764" name="rockwall" class="rockwall" x="-128" y="-512" width="128" height="128"/>
  <object id="1765" name="rockwall" class="rockwall" x="0" y="-512" width="128" height="128"/>
  <object id="1766" name="rockwall" class="rockwall" x="-256" y="-512" width="128" height="128"/>
  <object id="1767" name="rockwall" class="rockwall" x="-384" y="-512" width="128" height="128"/>
  <object id="1826" name="rockwall" class="rockwall" x="512" y="0" width="128" height="128"/>
  <object id="1828" name="rockwall" class="rockwall" x="512" y="-512" width="128" height="128"/>
  <object id="1830" name="rockwall" class="rockwall" x="-384" y="-896" width="128" height="128"/>
  <object id="1832" name="rockwall" class="rockwall" x="128" y="-896" width="128" height="128"/>
  <object id="1834" name="rockwall" class="rockwall" x="-768" y="-512" width="128" height="128"/>
  <object id="1836" name="rockwall" class="rockwall" x="-768" y="0" width="128" height="128"/>
  <object id="1838" name="rockwall" class="rockwall" x="-640" y="-512" width="128" height="128"/>
  <object id="1839" name="rockwall" class="rockwall" x="-512" y="-512" width="128" height="128"/>
  <object id="1840" name="rockwall" class="rockwall" x="-384" y="-640" width="128" height="128"/>
  <object id="1841" name="rockwall" class="rockwall" x="-384" y="-768" width="128" height="128"/>
  <object id="1842" name="rockwall" class="rockwall" x="128" y="-768" width="128" height="128"/>
  <object id="1843" name="rockwall" class="rockwall" x="128" y="-640" width="128" height="128"/>
  <object id="1844" name="rockwall" class="rockwall" x="256" y="-512" width="128" height="128"/>
  <object id="1845" name="rockwall" class="rockwall" x="384" y="-512" width="128" height="128"/>
  <object id="1846" name="rockwall" class="rockwall" x="384" y="0" width="128" height="128"/>
  <object id="1847" name="rockwall" class="rockwall" x="256" y="0" width="128" height="128"/>
  <object id="1848" name="rockwall" class="rockwall" x="128" y="128" width="128" height="128"/>
  <object id="1849" name="rockwall" class="rockwall" x="128" y="256" width="128" height="128"/>
  <object id="1850" name="rockwall" class="rockwall" x="-384" y="256" width="128" height="128"/>
  <object id="1851" name="rockwall" class="rockwall" x="-384" y="128" width="128" height="128"/>
  <object id="1852" name="rockwall" class="rockwall" x="-512" y="0" width="128" height="128"/>
  <object id="1853" name="rockwall" class="rockwall" x="-640" y="0" width="128" height="128"/>
  <object id="1887" name="rockwall" class="rockwall" x="0" y="384" width="128" height="128"/>
  <object id="1888" name="rockwall" class="rockwall" x="-256" y="384" width="128" height="128"/>
  <object id="1889" name="rockwall" class="rockwall" x="-896" y="-128" width="128" height="128"/>
  <object id="1890" name="rockwall" class="rockwall" x="-896" y="-384" width="128" height="128"/>
  <object id="1891" name="rockwall" class="rockwall" x="-256" y="-1024" width="128" height="128"/>
  <object id="1892" name="rockwall" class="rockwall" x="0" y="-1024" width="128" height="128"/>
  <object id="1893" name="rockwall" class="rockwall" x="640" y="-384" width="128" height="128"/>
  <object id="1894" name="rockwall" class="rockwall" x="640" y="-128" width="128" height="128"/>
 </objectgroup>
 <objectgroup id="3" name="towers">
  <object id="1818" name="spidertower" class="spidertower" x="-640" y="-768" width="256" height="256"/>
  <object id="1819" name="spidertower" class="spidertower" x="256" y="-768" width="256" height="256"/>
  <object id="1820" name="spidertower" class="spidertower" x="256" y="128" width="256" height="256"/>
  <object id="1821" name="spidertower" class="spidertower" x="-640" y="128" width="256" height="256"/>
 </objectgroup>
 <objectgroup id="4" name="platforms" locked="1">
  <object id="357" name="platform" class="platform" x="-256" y="-384" width="128" height="128"/>
  <object id="1747" name="platform" class="platform" x="-256" y="-128" width="128" height="128"/>
  <object id="1748" name="platform" class="platform" x="0" y="-128" width="128" height="128"/>
  <object id="1749" name="platform" class="platform" x="0" y="-384" width="128" height="128"/>
 </objectgroup>
 <objectgroup id="5" name="guard_archers">
  <object id="358" name="guardarcher" class="guardarcher" x="-256" y="-384" width="128" height="128">
   <properties>
    <property name="level" type="int" value="50"/>
   </properties>
   <ellipse/>
  </object>
  <object id="1750" name="guardarcher" class="guardarcher" x="0" y="-384" width="128" height="128">
   <properties>
    <property name="level" type="int" value="50"/>
   </properties>
   <ellipse/>
  </object>
  <object id="1751" name="guardarcher" class="guardarcher" x="0" y="-128" width="128" height="128">
   <properties>
    <property name="level" type="int" value="50"/>
   </properties>
   <ellipse/>
  </object>
  <object id="1752" name="guardarcher" class="guardarcher" x="-256" y="-128" width="128" height="128">
   <properties>
    <property name="level" type="int" value="50"/>
   </properties>
   <ellipse/>
  </object>
  <object id="1900" name="trap" class="trap" x="-128" y="-384" width="128" height="128"/>
 </objectgroup>
 <objectgroup id="7" name="wood_spikes"/>
 <objectgroup id="6" name="guards"/>
 <objectgroup id="8" name="traps">
  <object id="601" name="trap" class="trap" x="-384" y="384" width="128" height="128"/>
  <object id="1784" name="trap" class="trap" x="128" y="384" width="128" height="128"/>
  <object id="1785" name="trap" class="trap" x="-128" y="384" width="128" height="128"/>
  <object id="1789" name="trap" class="trap" x="640" y="0" width="128" height="128"/>
  <object id="1790" name="trap" class="trap" x="640" y="-256" width="128" height="128"/>
  <object id="1791" name="trap" class="trap" x="640" y="-512" width="128" height="128"/>
  <object id="1795" name="trap" class="trap" x="128" y="-1024" width="128" height="128"/>
  <object id="1796" name="trap" class="trap" x="-384" y="-1024" width="128" height="128"/>
  <object id="1797" name="trap" class="trap" x="-128" y="-1024" width="128" height="128"/>
  <object id="1801" name="trap" class="trap" x="-896" y="-256" width="128" height="128"/>
  <object id="1802" name="trap" class="trap" x="-896" y="-512" width="128" height="128"/>
  <object id="1806" name="trap" class="trap" x="-896" y="0" width="128" height="128"/>
  <object id="1872" name="spidercocoon" class="spidercocoon" x="612.37" y="-844.013" width="190" height="190">
   <ellipse/>
  </object>
  <object id="1873" name="spidercocoon" class="spidercocoon" x="-961.378" y="254.397" width="190" height="190">
   <ellipse/>
  </object>
  <object id="1874" name="spidercocoon" class="spidercocoon" x="-695.063" y="-1125.84" width="190" height="190">
   <ellipse/>
  </object>
  <object id="1875" name="spidercocoon" class="spidercocoon" x="304.534" y="440.121" width="190" height="190">
   <ellipse/>
  </object>
  <object id="1897" name="foreignheartstone" class="foreignheartstone" x="0" y="-256" width="128" height="128"/>
  <object id="1898" name="foreignheartstone" class="foreignheartstone" x="-256" y="-256" width="128" height="128"/>
  <object id="1899" name="foreignheartstone" class="foreignheartstone" x="-128" y="-128" width="128" height="128"/>
 </objectgroup>
 <objectgroup id="9" name="firewatchers"/>
 <objectgroup id="10" name="main" locked="1">
  <object id="2" name="main" class="spiderchest" x="-128" y="-256" width="128" height="128"/>
 </objectgroup>
</map>
