<?xml version="1.0" encoding="UTF-8"?>
<map version="1.9" tiledversion="1.9.2" orientation="orthogonal" renderorder="right-down" width="10" height="10" tilewidth="128" tileheight="128" infinite="1" nextlayerid="11" nextobjectid="3156">
 <objectgroup id="1" name="floors">
  <object id="3087" name="main" class="spiderchest" x="0" y="0" width="128" height="128"/>
  <object id="3088" name="spidermother" class="spidermother" x="256" y="-640" width="384" height="384">
   <ellipse/>
  </object>
  <object id="3089" name="spidermother" class="spidermother" x="-512" y="256" width="384" height="384">
   <ellipse/>
  </object>
  <object id="3090" name="spidertower" class="spidertower" x="768" y="-128" width="256" height="256">
   <ellipse/>
  </object>
  <object id="3091" name="spidertower" class="spidertower" x="-256" y="-512" width="256" height="256">
   <ellipse/>
  </object>
  <object id="3092" name="spidertower" class="spidertower" x="256" y="256" width="256" height="256">
   <ellipse/>
  </object>
  <object id="3093" name="spidertower" class="spidertower" x="-384" y="896" width="256" height="256">
   <ellipse/>
  </object>
  <object id="3094" name="spidertower" class="spidertower" x="-640" y="0" width="256" height="256">
   <ellipse/>
  </object>
  <object id="3095" name="spidertower" class="spidertower" x="0" y="-1024" width="256" height="256">
   <ellipse/>
  </object>
  <object id="3096" name="spidertower" class="spidertower" x="-1152" y="512" width="256" height="256">
   <ellipse/>
  </object>
  <object id="3097" name="spidertower" class="spidertower" x="896" y="512" width="256" height="256">
   <ellipse/>
  </object>
  <object id="3098" name="spidertower" class="spidertower" x="384" y="1024" width="256" height="256">
   <ellipse/>
  </object>
  <object id="3099" name="spidertower" class="spidertower" x="-896" y="-768" width="256" height="256">
   <ellipse/>
  </object>
  <object id="3100" name="spidertower" class="spidertower" x="896" y="-896" width="256" height="256">
   <ellipse/>
  </object>
  <object id="3102" name="spidercocoon" class="spidercocoon" x="896" y="-256" width="128" height="128">
   <ellipse/>
  </object>
  <object id="3103" name="spidercocoon" class="spidercocoon" x="768" y="-896" width="128" height="128">
   <ellipse/>
  </object>
  <object id="3104" name="spidercocoon" class="spidercocoon" x="512" y="256" width="128" height="128">
   <ellipse/>
  </object>
  <object id="3105" name="spidercocoon" class="spidercocoon" x="768" y="640" width="128" height="128">
   <ellipse/>
  </object>
  <object id="3106" name="spidercocoon" class="spidercocoon" x="384" y="896" width="128" height="128">
   <ellipse/>
  </object>
  <object id="3107" name="spidercocoon" class="spidercocoon" x="-128" y="768" width="128" height="128">
   <ellipse/>
  </object>
  <object id="3108" name="spidercocoon" class="spidercocoon" x="-1024" y="384" width="128" height="128">
   <ellipse/>
  </object>
  <object id="3109" name="spidercocoon" class="spidercocoon" x="-384" y="0" width="128" height="128">
   <ellipse/>
  </object>
  <object id="3110" name="spidercocoon" class="spidercocoon" x="-640" y="-768" width="128" height="128">
   <ellipse/>
  </object>
  <object id="3111" name="spidercocoon" class="spidercocoon" x="-128" y="-640" width="128" height="128">
   <ellipse/>
  </object>
  <object id="3112" name="spidercocoon" class="spidercocoon" x="-128" y="-1024" width="128" height="128">
   <ellipse/>
  </object>
  <object id="3113" name="spidercocoon" class="spidercocoon" x="1152" y="640" width="128" height="128">
   <ellipse/>
  </object>
  <object id="3114" name="spidercocoon" class="spidercocoon" x="128" y="384" width="128" height="128">
   <ellipse/>
  </object>
  <object id="3115" name="spidercocoon" class="spidercocoon" x="128" y="-128" width="128" height="128">
   <ellipse/>
  </object>
  <object id="3116" name="spidercocoon" class="spidercocoon" x="-128" y="128" width="128" height="128">
   <ellipse/>
  </object>
  <object id="3119" name="spidercycle" class="spidercycle" x="-1152" y="-384" width="128" height="256">
   <ellipse/>
  </object>
  <object id="3122" name="spidercycle" class="spidercycle" x="1408" y="-256" width="128" height="256">
   <ellipse/>
  </object>
  <object id="3123" name="spidercycle" class="spidercycle" x="128" y="768" width="128" height="256">
   <ellipse/>
  </object>
 </objectgroup>
 <objectgroup id="2" name="walls"/>
 <objectgroup id="3" name="towers"/>
 <objectgroup id="4" name="platforms"/>
 <objectgroup id="5" name="guard_archers"/>
 <objectgroup id="6" name="guards">
  <object id="3146" name="zombie" class="zombie" x="512" y="-1024" width="128" height="128">
   <ellipse/>
  </object>
  <object id="3147" name="zombie" class="zombie" x="-512" y="-640" width="128" height="128">
   <ellipse/>
  </object>
  <object id="3148" name="zombie" class="zombie" x="1408" y="256" width="128" height="128">
   <ellipse/>
  </object>
  <object id="3149" name="zombie" class="zombie" x="1280" y="1280" width="128" height="128">
   <ellipse/>
  </object>
  <object id="3150" name="zombie" class="zombie" x="-1024" y="1152" width="128" height="128">
   <ellipse/>
  </object>
  <object id="3151" name="zombie" class="zombie" x="-1536" y="-128" width="128" height="128">
   <ellipse/>
  </object>
  <object id="3152" name="zombie" class="zombie" x="-384" y="-1536" width="128" height="128">
   <ellipse/>
  </object>
  <object id="3153" name="zombie" class="zombie" x="1152" y="-1408" width="128" height="128">
   <ellipse/>
  </object>
  <object id="3154" name="zombie" class="zombie" x="640" y="-128" width="128" height="128">
   <ellipse/>
  </object>
  <object id="3155" name="zombie" class="zombie" x="0" y="256" width="128" height="128">
   <ellipse/>
  </object>
 </objectgroup>
 <objectgroup id="8" name="traps"/>
 <objectgroup id="9" name="firewatchers"/>
 <objectgroup id="10" name="main">
  <object id="3125" name="pumpkinlamp" class="pumpkinlamp" x="1152" y="-768" width="128" height="128">
   <ellipse/>
  </object>
  <object id="3126" name="pumpkinlamp" class="pumpkinlamp" x="0" y="-768" width="128" height="128">
   <ellipse/>
  </object>
  <object id="3127" name="pumpkinlamp" class="pumpkinlamp" x="-512" y="-256" width="128" height="128">
   <ellipse/>
  </object>
  <object id="3128" name="pumpkinlamp" class="pumpkinlamp" x="384" y="0" width="128" height="128">
   <ellipse/>
  </object>
  <object id="3129" name="pumpkinlamp" class="pumpkinlamp" x="1024" y="256" width="128" height="128">
   <ellipse/>
  </object>
  <object id="3130" name="pumpkinlamp" class="pumpkinlamp" x="896" y="1024" width="128" height="128">
   <ellipse/>
  </object>
  <object id="3131" name="pumpkinlamp" class="pumpkinlamp" x="-768" y="896" width="128" height="128">
   <ellipse/>
  </object>
  <object id="3132" name="pumpkinlamp" class="pumpkinlamp" x="-1024" y="0" width="128" height="128">
   <ellipse/>
  </object>
  <object id="3133" name="pumpkinlamp" class="pumpkinlamp" x="-512" y="-1024" width="128" height="128">
   <ellipse/>
  </object>
  <object id="3134" name="pumpkinlamp" class="pumpkinlamp" x="256" y="-1280" width="128" height="128">
   <ellipse/>
  </object>
  <object id="3135" name="pumpkinlamp" class="pumpkinlamp" x="128" y="1152" width="128" height="128">
   <ellipse/>
  </object>
  <object id="3136" name="foreignheartstone" class="foreignheartstone" x="-640" y="256" width="128" height="128"/>
  <object id="3137" name="foreignheartstone" class="foreignheartstone" x="-768" y="-896" width="128" height="128"/>
  <object id="3138" name="foreignheartstone" class="foreignheartstone" x="256" y="-1152" width="128" height="128"/>
  <object id="3139" name="foreignheartstone" class="foreignheartstone" x="1024" y="-640" width="128" height="128"/>
  <object id="3140" name="foreignheartstone" class="foreignheartstone" x="768" y="128" width="128" height="128"/>
  <object id="3141" name="foreignheartstone" class="foreignheartstone" x="512" y="896" width="128" height="128"/>
  <object id="3142" name="foreignheartstone" class="foreignheartstone" x="-384" y="768" width="128" height="128"/>
  <object id="3143" name="foreignheartstone" class="foreignheartstone" x="128" y="128" width="128" height="128"/>
  <object id="3144" name="foreignheartstone" class="foreignheartstone" x="-128" y="-128" width="128" height="128"/>
  <object id="3145" name="foreignheartstone" class="foreignheartstone" x="-896" y="512" width="128" height="128"/>
 </objectgroup>
</map>
